123yjm/Brainco_identification/data/filtered_data.csv
time,q0,q1,q2,q3,q4,q5,q6,qd0,qd1,qd2,qd3,qd4,qd5,qd6,qdd0,qdd1,qdd2,qdd3,qdd4,qdd5,qdd6,tau0,tau1,tau2,tau3,tau4,tau5,tau6
0.000000,-1.399418,0.134390,-0.000417,-0.040944,-1.724313,-0.009894,-0.000108,-0.004437,-0.121271,0.062692,-0.059975,-0.049141,-0.025477,-0.026205,0.000000,0.000000,0.000000,0.000000,0.000000,0.000000,0.000000,-11.424364,2.283965,0.087471,4.784133,-0.020106,0.593552,0.012750
0.010000,-1.399418,0.134390,-0.000417,-0.040944,-1.724313,-0.009894,-0.000108,-0.016972,-0.115481,0.077327,-0.054916,-0.049393,-0.023619,-0.031970,-1.276311,0.600569,1.487528,0.520893,-0.021153,0.190850,-0.585788,-11.474854,2.325373,0.093777,4.806003,-0.020456,0.597621,0.011927
0.020000,-1.399398,0.134385,-0.000417,-0.040945,-1.724313,-0.009894,-0.000108,-0.029964,-0.109259,0.092442,-0.049558,-0.049564,-0.021660,-0.037921,-1.321892,0.644159,1.535461,0.550943,-0.012924,0.201091,-0.604531,-11.525204,2.367257,0.100222,4.827716,-0.020796,0.601699,0.011072
0.030000,-1.399391,0.134383,-0.000417,-0.040945,-1.724313,-0.009894,-0.000108,-0.043410,-0.102598,0.108036,-0.043897,-0.049651,-0.019597,-0.044060,-1.367405,0.688535,1.583345,0.581412,-0.004362,0.211405,-0.623237,-11.575356,2.409584,0.106805,4.849246,-0.021128,0.605784,0.010186
0.040000,-1.399381,0.134380,-0.000417,-0.040945,-1.724313,-0.009894,-0.000108,-0.057312,-0.095488,0.124109,-0.037929,-0.049651,-0.017431,-0.050386,-1.412800,0.733671,1.631132,0.612280,0.004532,0.221782,-0.641888,-11.625252,2.452323,0.113525,4.870566,-0.021448,0.609869,0.009269
0.050000,-1.399357,0.134374,-0.000410,-0.040944,-1.724314,-0.009894,-0.000110,-0.071666,-0.087924,0.140659,-0.031651,-0.049561,-0.015162,-0.056898,-1.458025,0.779541,1.678776,0.643527,0.013759,0.232211,-0.660462,-11.674831,2.495439,0.120378,4.891648,-0.021758,0.613952,0.008320
0.060000,-1.399352,0.134372,-0.000408,-0.040944,-1.724315,-0.009894,-0.000111,-0.086472,-0.079898,0.157685,-0.025059,-0.049376,-0.012787,-0.063595,-1.503026,0.826119,1.726227,0.675132,0.023318,0.242681,-0.678940,-11.724032,2.538898,0.127362,4.912467,-0.022056,0.618028,0.007339
0.070000,-1.399341,0.134369,-0.000399,-0.040942,-1.724316,-0.009894,-0.000114,-0.101727,-0.071402,0.175184,-0.018149,-0.049094,-0.010308,-0.070477,-1.547750,0.873374,1.773436,0.707071,0.033210,0.253181,-0.697303,-11.772795,2.582664,0.134475,4.932994,-0.022342,0.622093,0.006326
0.080000,-1.399322,0.134363,-0.000351,-0.040936,-1.724320,-0.009895,-0.000127,-0.117427,-0.062430,0.193153,-0.010917,-0.048712,-0.007724,-0.077541,-1.592142,0.921278,1.820353,0.739323,0.043433,0.263698,-0.715529,-11.821056,2.626700,0.141713,4.953202,-0.022614,0.626141,0.005281
0.090000,-1.399320,0.134363,-0.000343,-0.040935,-1.724320,-0.009895,-0.000129,-0.133570,-0.052976,0.211591,-0.003362,-0.048226,-0.005034,-0.084787,-1.636148,0.969798,1.866927,0.771863,0.053985,0.274221,-0.733599,-11.868753,2.670969,0.149074,4.973063,-0.022873,0.630169,0.004203
0.100000,-1.399308,0.134359,-0.000267,-0.040924,-1.724327,-0.009895,-0.000149,-0.150150,-0.043034,0.230492,0.004520,-0.047632,-0.002239,-0.092213,-1.679711,1.018901,1.913109,0.804667,0.064866,0.284738,-0.751491,-11.915821,2.715430,0.156555,4.992550,-0.023116,0.634171,0.003093
0.110000,-1.399297,0.134354,-0.000090,-0.040902,-1.724343,-0.009895,-0.000192,-0.167164,-0.032598,0.249853,0.012731,-0.046928,0.000661,-0.099817,-1.722775,1.068555,1.958846,0.837710,0.076074,0.295235,-0.769185,-11.962198,2.760044,0.164152,5.011635,-0.023345,0.638143,0.001950
0.120000,-1.399297,0.134354,-0.000090,-0.040902,-1.724343,-0.009895,-0.000192,-0.184606,-0.021663,0.269669,0.021274,-0.046111,0.003666,-0.107597,-1.765282,1.118722,2.004086,0.870965,0.087604,0.305700,-0.786659,-12.007817,2.804770,0.171861,5.030289,-0.023557,0.642080,0.000774
0.130000,-1.399292,0.134350,0.000138,-0.040871,-1.724362,-0.009895,-0.000248,-0.202470,-0.010224,0.289935,0.030150,-0.045176,0.006775,-0.115550,-1.807176,1.169367,2.048777,0.904407,0.099456,0.316120,-0.803892,-12.052613,2.849566,0.179680,5.048485,-0.023752,0.645978,-0.000434
0.140000,-1.399294,0.134347,0.000481,-0.040825,-1.724387,-0.009893,-0.000330,-0.220749,0.001724,0.310644,0.039362,-0.044122,0.009988,-0.123675,-1.848398,1.220451,2.092867,0.938008,0.111626,0.326481,-0.820863,-12.096522,2.894389,0.187603,5.066196,-0.023929,0.649831,-0.001675
0.150000,-1.399294,0.134347,0.000481,-0.040825,-1.724387,-0.009893,-0.000330,-0.239437,0.014185,0.331792,0.048911,-0.042944,0.013304,-0.131968,-1.888890,1.271936,2.136304,0.971739,0.124110,0.336769,-0.837551,-12.139476,2.939194,0.195628,5.083392,-0.024088,0.653634,-0.002948
0.160000,-1.399307,0.134345,0.001003,-0.040752,-1.724421,-0.009889,-0.000457,-0.258527,0.027163,0.353370,0.058797,-0.041639,0.016723,-0.140426,-1.928594,1.323780,2.179033,1.005572,0.136903,0.346971,-0.853933,-12.181410,2.983938,0.203749,5.100048,-0.024228,0.657383,-0.004254
0.170000,-1.399328,0.134345,0.001546,-0.040676,-1.724454,-0.009884,-0.000588,-0.278009,0.040661,0.375373,0.069022,-0.040206,0.020244,-0.149046,-1.967450,1.375944,2.221004,1.039479,0.150002,0.357072,-0.869989,-12.222257,3.028574,0.211962,5.116134,-0.024348,0.661072,-0.005593
0.180000,-1.399328,0.134345,0.001546,-0.040676,-1.724454,-0.009884,-0.000588,-0.297876,0.054682,0.397790,0.079587,-0.038639,0.023865,-0.157826,-2.005400,1.428383,2.262162,1.073428,0.163401,0.367058,-0.885698,-12.261952,3.073057,0.220263,5.131624,-0.024447,0.664696,-0.006963
0.190000,-1.399385,0.134346,0.002498,-0.040542,-1.724509,-0.009875,-0.000823,-0.318117,0.069228,0.420616,0.090491,-0.036938,0.027585,-0.166760,-2.042384,1.481055,2.302455,1.107390,0.177096,0.376915,-0.901036,-12.300428,3.117339,0.228647,5.146491,-0.024525,0.668251,-0.008366
0.200000,-1.399451,0.134348,0.003218,-0.040454,-1.724547,-0.009870,-0.001000,-0.338724,0.084303,0.443840,0.101734,-0.035097,0.031403,-0.175846,-2.078344,1.533914,2.341830,1.141333,0.191080,0.386626,-0.915984,-12.337619,3.161372,0.237108,5.160708,-0.024581,0.671731,-0.009800
0.210000,-1.399451,0.134348,0.003218,-0.040454,-1.724547,-0.009870,-0.001000,-0.359684,0.099907,0.467452,0.113317,-0.033116,0.035318,-0.185080,-2.113221,1.586914,2.380234,1.175227,0.205347,0.396179,-0.930520,-12.373460,3.205109,0.245642,5.174248,-0.024614,0.675132,-0.011265
0.220000,-1.399640,0.134355,0.004684,-0.040294,-1.724618,-0.009866,-0.001435,-0.380988,0.116041,0.491444,0.125239,-0.030990,0.039327,-0.194457,-2.146957,1.640010,2.417616,1.209039,0.219890,0.405556,-0.944623,-12.407884,3.248500,0.254244,5.187086,-0.024623,0.678447,-0.012762
0.230000,-1.399784,0.134360,0.005567,-0.040207,-1.724656,-0.009866,-0.001717,-0.402623,0.132707,0.515805,0.137498,-0.028718,0.043429,-0.203972,-2.179492,1.693152,2.453924,1.242737,0.234703,0.414744,-0.958272,-12.440826,3.291496,0.262907,5.199195,-0.024608,0.681673,-0.014289
0.240000,-1.399852,0.134362,0.005941,-0.040170,-1.724671,-0.009866,-0.001839,-0.424578,0.149904,0.540523,0.150094,-0.026296,0.047622,-0.213622,-2.210769,1.746293,2.489105,1.276288,0.249778,0.423727,-0.971445,-12.472223,3.334047,0.271626,5.210551,-0.024569,0.684803,-0.015846
0.250000,-1.400244,0.134386,0.007870,-0.039988,-1.724748,-0.009870,-0.002610,-0.446839,0.167633,0.565587,0.163024,-0.023723,0.051903,-0.223401,-2.240731,1.799383,2.523108,1.309659,0.265107,0.432489,-0.984123,-12.502009,3.376102,0.280396,5.221128,-0.024503,0.687833,-0.017433
0.260000,-1.400472,0.134401,0.008838,-0.039898,-1.724783,-0.009871,-0.002972,-0.469392,0.185892,0.590985,0.176287,-0.020994,0.056271,-0.233305,-2.269320,1.852372,2.555884,1.342817,0.280681,0.441015,-0.996285,-12.530123,3.417610,0.289209,5.230904,-0.024412,0.690758,-0.019049
0.270000,-1.400734,0.134422,0.009851,-0.039801,-1.724817,-0.009873,-0.003370,-0.492225,0.204680,0.616704,0.189880,-0.018109,0.060723,-0.243327,-2.296480,1.905208,2.587383,1.375728,0.296492,0.449289,-1.007910,-12.556500,3.458521,0.298061,5.239853,-0.024293,0.693573,-0.020693
0.280000,-1.401473,0.134519,0.012459,-0.039552,-1.724901,-0.009880,-0.004588,-0.515322,0.223996,0.642733,0.203801,-0.015064,0.065257,-0.253463,-2.322155,1.957840,2.617554,1.408358,0.312531,0.457296,-1.018979,-12.581080,3.498783,0.306944,5.247953,-0.024147,0.696273,-0.022364
0.290000,-1.401769,0.134563,0.013384,-0.039459,-1.724927,-0.009882,-0.004964,-0.538668,0.243837,0.669056,0.218047,-0.011858,0.069869,-0.263707,-2.346291,2.010215,2.646349,1.440673,0.328788,0.465020,-1.029472,-12.603801,3.538345,0.315853,5.255181,-0.023972,0.698853,-0.024063
0.300000,-1.402205,0.134637,0.014656,-0.039325,-1.724962,-0.009883,-0.005514,-0.562248,0.264200,0.695659,0.232615,-0.008489,0.074557,-0.274052,-2.368833,2.062280,2.673722,1.472638,0.345252,0.472445,-1.039371,-12.624605,3.577154,0.324780,5.261517,-0.023769,0.701308,-0.025788
0.310000,-1.403517,0.134929,0.018187,-0.038935,-1.725049,-0.009884,-0.007236,-0.586045,0.285083,0.722530,0.247500,-0.004953,0.079318,-0.284494,-2.389728,2.113982,2.699624,1.504220,0.361914,0.479555,-1.048655,-12.643433,3.615159,0.333718,5.266938,-0.023537,0.703633,-0.027538
0.320000,-1.403821,0.135003,0.018937,-0.038847,-1.725064,-0.009883,-0.007554,-0.610042,0.306480,0.749652,0.262699,-0.001250,0.084149,-0.295025,-2.408925,2.165267,2.724010,1.535383,0.378763,0.486335,-1.057308,-12.660227,3.652308,0.342662,5.271426,-0.023274,0.705824,-0.029313
0.330000,-1.404646,0.135225,0.020908,-0.038611,-1.725104,-0.009879,-0.008471,-0.634223,0.328388,0.777010,0.278208,0.002622,0.089045,-0.305640,-2.426372,2.216080,2.746835,1.566094,0.395787,0.492770,-1.065310,-12.674932,3.688549,0.351602,5.274961,-0.022981,0.707876,-0.031111
0.340000,-1.406390,0.135778,0.025105,-0.038113,-1.725175,-0.009865,-0.010513,-0.658570,0.350802,0.804589,0.294021,0.006665,0.094004,-0.316332,-2.442021,2.266365,2.768056,1.596317,0.412975,0.498844,-1.072644,-12.687493,3.723831,0.360533,5.277524,-0.022658,0.709785,-0.032931
0.350000,-1.406824,0.135922,0.026060,-0.037990,-1.725187,-0.009860,-0.010900,-0.683064,0.373715,0.832371,0.310134,0.010881,0.099022,-0.327093,-2.455822,2.316069,2.787629,1.626018,0.430314,0.504541,-1.079293,-12.697858,3.758102,0.369447,5.279098,-0.022302,0.711545,-0.034772
0.360000,-1.408234,0.136423,0.029030,-0.037592,-1.725223,-0.009840,-0.012210,-0.707686,0.397123,0.860341,0.326541,0.015272,0.104095,-0.337917,-2.467729,2.365135,2.805514,1.655163,0.447793,0.509846,-1.085241,-12.705976,3.791310,0.378336,5.279666,-0.021915,0.713153,-0.036634
0.370000,-1.410656,0.137387,0.034448,-0.036862,-1.725269,-0.009798,-0.014576,-0.732418,0.421018,0.888482,0.343237,0.019837,0.109219,-0.348798,-2.477697,2.413509,2.821670,1.683718,0.465398,0.514745,-1.090472,-12.711796,3.823404,0.387192,5.279213,-0.021495,0.714605,-0.038514
0.380000,-1.410947,0.137508,0.035048,-0.036768,-1.725272,-0.009792,-0.014806,-0.757240,0.445393,0.916775,0.360216,0.024580,0.114390,-0.359727,-2.485682,2.461133,2.836059,1.711648,0.483116,0.519222,-1.094969,-12.715271,3.854334,0.396008,5.277725,-0.021042,0.715895,-0.040411
0.390000,-1.413094,0.138457,0.039220,-0.035994,-1.725285,-0.009746,-0.016554,-0.782132,0.470241,0.945203,0.377470,0.029500,0.119603,-0.370697,-2.491641,2.507953,2.848643,1.738920,0.500934,0.523262,-1.098719,-12.716356,3.884050,0.404775,5.275187,-0.020556,0.717021,-0.042325
0.400000,-1.416165,0.139966,0.045803,-0.034684,-1.725293,-0.009668,-0.019257,-0.807073,0.495552,0.973748,0.394994,0.034598,0.124855,-0.381701,-2.495536,2.553913,2.859387,1.765501,0.518838,0.526851,-1.101706,-12.715006,3.912501,0.413486,5.271589,-0.020036,0.717978,-0.044253
0.410000,-1.416165,0.139966,0.045803,-0.034684,-1.725293,-0.009668,-0.019257,-0.832043,0.521319,1.002390,0.412780,0.039876,0.130140,-0.392731,-2.497326,2.598957,2.868255,1.791356,0.536813,0.529975,-1.103918,-12.711181,3.939639,0.422132,5.266917,-0.019482,0.718762,-0.046194
0.420000,-1.419237,0.141582,0.051564,-0.033298,-1.725270,-0.009574,-0.021605,-0.857020,0.547531,1.031113,0.430821,0.045335,0.135454,-0.403780,-2.496977,2.643030,2.875215,1.816454,0.554846,0.532620,-1.105341,-12.704839,3.965414,0.430706,5.261162,-0.018894,0.719371,-0.048147
0.430000,-1.421748,0.143001,0.057120,-0.032045,-1.725253,-0.009490,-0.023761,-0.881982,0.574180,1.059895,0.449109,0.050973,0.140793,-0.414838,-2.494452,2.686076,2.880237,1.840762,0.572921,0.534771,-1.105963,-12.695945,3.989778,0.439197,5.254316,-0.018271,0.719799,-0.050109
0.440000,-1.421748,0.143001,0.057120,-0.032045,-1.725253,-0.009490,-0.023761,-0.906909,0.601253,1.088717,0.467637,0.056793,0.146150,-0.425899,-2.489720,2.728040,2.883290,1.864248,0.591023,0.536416,-1.105772,-12.684463,4.012686,0.447598,5.246371,-0.017614,0.720045,-0.052079
0.450000,-1.425912,0.145465,0.065878,-0.029913,-1.725187,-0.009333,-0.027029,-0.931777,0.628740,1.117561,0.486394,0.062794,0.151521,-0.436954,-2.482751,2.768868,2.884347,1.886880,0.609137,0.537542,-1.104758,-12.670360,4.034089,0.455901,5.237319,-0.016921,0.720104,-0.054056
0.460000,-1.429498,0.147706,0.073333,-0.028000,-1.725100,-0.009185,-0.029850,-0.956564,0.656630,1.146404,0.505374,0.068976,0.156901,-0.447994,-2.473517,2.808507,2.883382,1.908629,0.627247,0.538135,-1.102910,-12.653607,4.053943,0.464095,5.227156,-0.016193,0.719974,-0.056036
0.470000,-1.429498,0.147706,0.073333,-0.028000,-1.725100,-0.009185,-0.029850,-0.981247,0.684910,1.175228,0.524567,0.075339,0.162284,-0.459012,-2.461991,2.846901,2.880371,1.929464,0.645338,0.538184,-1.100218,-12.634175,4.072202,0.472173,5.215878,-0.015430,0.719652,-0.058019
0.480000,-1.434582,0.151009,0.082490,-0.025246,-1.724960,-0.008956,-0.033451,-1.005804,0.713568,1.204012,0.543963,0.081882,0.167664,-0.469998,-2.448151,2.883998,2.875292,1.949355,0.663392,0.537676,-1.096675,-12.612040,4.088824,0.480125,5.203481,-0.014630,0.719135,-0.060002
0.490000,-1.438281,0.153508,0.089262,-0.023196,-1.724839,-0.008747,-0.036109,-1.030210,0.742590,1.232734,0.563554,0.088607,0.173037,-0.480945,-2.431975,2.919745,2.868124,1.968273,0.681395,0.536601,-1.092273,-12.587179,4.103765,0.487942,5.189966,-0.013796,0.718421,-0.061983
0.500000,-1.438281,0.153508,0.089262,-0.023196,-1.724839,-0.008747,-0.036109,-1.054443,0.771963,1.261374,0.583329,0.095510,0.178396,-0.491844,-2.413445,2.954092,2.858849,1.986191,0.699328,0.534946,-1.087003,-12.559572,4.116985,0.495616,5.175331,-0.012925,0.717507,-0.063959
0.510000,-1.445011,0.158211,0.100938,-0.019396,-1.724576,-0.008245,-0.040693,-1.078479,0.801672,1.289911,0.603278,0.102593,0.183736,-0.502685,-2.392545,2.986987,2.847450,2.003082,0.717175,0.532702,-1.080861,-12.529203,4.128443,0.503136,5.159578,-0.012019,0.716391,-0.065929
0.520000,-1.448664,0.160831,0.107228,-0.017327,-1.724410,-0.007885,-0.043087,-1.102294,0.831703,1.318323,0.623391,0.109854,0.189050,-0.513461,-2.369262,3.018379,2.833914,2.018918,0.734919,0.529858,-1.073841,-12.496057,4.138099,0.510493,5.142710,-0.011077,0.715072,-0.067891
0.530000,-1.450172,0.161930,0.109696,-0.016450,-1.724336,-0.007750,-0.044049,-1.125864,0.862040,1.346589,0.643656,0.117292,0.194333,-0.524162,-2.343586,3.048220,2.818227,2.033675,0.752544,0.526405,-1.065938,-12.460124,4.145917,0.517678,5.124730,-0.010099,0.713547,-0.069841
0.540000,-1.457331,0.167275,0.122636,-0.012210,-1.724715,-0.006954,-0.048820,-1.149166,0.892667,1.374688,0.664064,0.124905,0.199579,-0.534780,-2.315508,3.076462,2.800381,2.047327,0.770031,0.522334,-1.057148,-12.421394,4.151860,0.524681,5.105644,-0.009085,0.711815,-0.071776
0.550000,-1.460754,0.169843,0.128056,-0.010263,-1.724500,-0.006493,-0.050827,-1.172174,0.923569,1.402597,0.684603,0.132692,0.204780,-0.545305,-2.285023,3.103057,2.780366,2.059851,0.787363,0.517637,-1.047470,-12.379862,4.155892,0.531493,5.085458,-0.008036,0.709875,-0.073696
0.560000,-1.462502,0.171178,0.130624,-0.009229,-1.724376,-0.006296,-0.051850,-1.194866,0.954728,1.430295,0.705261,0.140652,0.209931,-0.555729,-2.252129,3.127959,2.758176,2.071224,0.804523,0.512305,-1.036900,-12.335526,4.157980,0.538103,5.064181,-0.006952,0.707726,-0.075596
0.570000,-1.471715,0.178413,0.146587,-0.003607,-1.724437,-0.005144,-0.057812,-1.217217,0.986128,1.457760,0.726027,0.148783,0.215026,-0.566043,-2.216826,3.151124,2.733809,2.081425,0.821493,0.506331,-1.025439,-12.288387,4.158093,0.544503,5.041822,-0.005833,0.705366,-0.077474
0.580000,-1.474677,0.180727,0.150731,-0.001887,-1.724068,-0.004745,-0.059364,-1.239203,1.017751,1.484971,0.746890,0.157082,0.220058,-0.576238,-2.179119,3.172508,2.707261,2.090432,0.838255,0.499709,-1.013085,-12.238448,4.156200,0.550683,5.018393,-0.004678,0.702795,-0.079328
0.590000,-1.478722,0.183933,0.155848,0.000527,-1.723655,-0.004268,-0.061524,-1.260799,1.049578,1.511906,0.767836,0.165548,0.225020,-0.586305,-2.139012,3.192068,2.678534,2.098227,0.854791,0.492433,-0.999840,-12.185715,4.152271,0.556632,4.993904,-0.003489,0.700012,-0.081154
0.600000,-1.488294,0.191711,0.170341,0.006388,-1.723278,-0.002946,-0.067077,-1.281983,1.081592,1.538542,0.788854,0.174178,0.229907,-0.596235,-2.096515,3.209764,2.647631,2.104792,0.871084,0.484497,-0.985705,-12.130199,4.146280,0.562340,4.968370,-0.002266,0.697017,-0.082950
0.610000,-1.490546,0.193518,0.173242,0.007675,-1.722977,-0.002587,-0.068176,-1.302730,1.113774,1.564858,0.809932,0.182969,0.234710,-0.606019,-2.051640,3.225556,2.614556,2.110107,0.887115,0.475896,-0.970683,-12.071912,4.138202,0.567799,4.941805,-0.001009,0.693811,-0.084711
0.620000,-1.496265,0.198198,0.180457,0.011144,-1.722328,-0.001838,-0.071021,-1.323016,1.146103,1.590833,0.831056,0.191920,0.239424,-0.615648,-2.004402,3.239405,2.579316,2.114159,0.902867,0.466628,-0.954779,-12.010869,4.128011,0.572997,4.914225,0.000281,0.690393,-0.086436
0.630000,-1.507071,0.207282,0.197022,0.017907,-1.721441,-0.000302,-0.077009,-1.342818,1.178562,1.616445,0.852215,0.201027,0.244043,-0.625114,-1.954820,3.251276,2.541922,2.116931,0.918322,0.456688,-0.937995,-11.947091,4.115687,0.577925,4.885649,0.001605,0.686763,-0.088122
0.640000,-1.508331,0.208326,0.198661,0.018646,-1.721227,-0.000102,-0.077606,-1.362112,1.211129,1.641671,0.873395,0.210286,0.248558,-0.634408,-1.902914,3.261133,2.502384,2.118411,0.933462,0.446074,-0.920338,-11.880598,4.101209,0.582573,4.856095,0.002961,0.682922,-0.089764
0.650000,-1.516003,0.214782,0.208296,0.023365,-1.720162,0.000896,-0.081275,-1.380876,1.243784,1.666492,0.894583,0.219696,0.252964,-0.643521,-1.848708,3.268943,2.460717,2.118585,0.948268,0.434784,-0.901814,-11.811416,4.084559,0.586930,4.825583,0.004349,0.678871,-0.091360
0.660000,-1.528058,0.225200,0.226114,0.031012,-1.718777,0.002713,-0.087623,-1.399086,1.276508,1.690886,0.915767,0.229252,0.257254,-0.652445,-1.792230,3.274674,2.416936,2.117443,0.962724,0.422816,-0.882430,-11.739573,4.065720,0.590987,4.794133,0.005769,0.674612,-0.092906
0.670000,-1.528058,0.225200,0.226114,0.031012,-1.718777,0.002713,-0.087623,-1.416720,1.309278,1.714831,0.936932,0.238950,0.261421,-0.661170,-1.733508,3.278297,2.371060,2.114975,0.976812,0.410172,-0.862195,-11.665100,4.044677,0.594735,4.761770,0.007220,0.670144,-0.094399
0.680000,-1.537943,0.233708,0.238112,0.037155,-1.717811,0.004035,-0.092060,-1.433756,1.342074,1.738307,0.958066,0.248788,0.265457,-0.669688,-1.672577,3.279781,2.323110,2.111173,0.990513,0.396850,-0.841118,-11.588031,4.021418,0.598161,4.728515,0.008701,0.665470,-0.095836
0.690000,-1.551208,0.245442,0.256523,0.045689,-1.716718,0.006130,-0.098717,-1.450172,1.374874,1.761293,0.979155,0.258761,0.269358,-0.677992,-1.609471,3.279102,2.273109,2.106029,1.003811,0.382853,-0.819209,-11.508403,3.995933,0.601258,4.694395,0.010211,0.660591,-0.097213
0.700000,-1.551208,0.245442,0.256523,0.045689,-1.716718,0.006130,-0.098717,-1.465946,1.407656,1.783769,1.000187,0.268864,0.273114,-0.686073,-1.544230,3.276235,2.221080,2.099538,1.016688,0.368183,-0.796479,-11.426256,3.968212,0.604014,4.659435,0.011751,0.655510,-0.098527
0.710000,-1.565134,0.257865,0.274563,0.054708,-1.715635,0.008277,-0.105189,-1.481057,1.440398,1.805715,1.021146,0.279094,0.276721,-0.693922,-1.476894,3.271157,2.167053,2.091696,1.029127,0.352841,-0.772940,-11.341633,3.938249,0.606419,4.623663,0.013318,0.650228,-0.099773
0.720000,-1.576478,0.267968,0.287757,0.061899,-1.713331,0.010136,-0.110203,-1.495484,1.473079,1.827110,1.042021,0.289447,0.280171,-0.701531,-1.407510,3.263846,2.111055,2.082498,1.041111,0.336832,-0.748605,-11.254581,3.906040,0.608465,4.587105,0.014913,0.644747,-0.100949
0.730000,-1.576478,0.267968,0.287757,0.061899,-1.713331,0.010136,-0.110203,-1.509207,1.505675,1.847936,1.062796,0.299917,0.283458,-0.708894,-1.336123,3.254284,2.053118,2.071945,1.052623,0.320160,-0.723488,-11.165146,3.871580,0.610140,4.549792,0.016534,0.639070,-0.102051
0.740000,-1.593287,0.283004,0.305888,0.072647,-1.711796,0.012468,-0.117098,-1.522206,1.538165,1.868173,1.083459,0.310499,0.286574,-0.716001,-1.262784,3.242454,1.993277,2.060035,1.063647,0.302830,-0.697603,-11.073381,3.834871,0.611435,4.511754,0.018181,0.633200,-0.103076
0.750000,-1.603720,0.292438,0.317724,0.079367,-1.710215,0.014152,-0.121426,-1.534462,1.570524,1.887801,1.103997,0.321190,0.289514,-0.722846,-1.187546,3.228341,1.931566,2.046769,1.074165,0.284849,-0.670966,-10.979339,3.795913,0.612341,4.473021,0.019852,0.627140,-0.104018
0.760000,-1.605482,0.294033,0.319660,0.080509,-1.709963,0.014405,-0.122136,-1.545957,1.602731,1.906804,1.124395,0.331983,0.292271,-0.729421,-1.110465,3.211932,1.868024,2.032151,1.084163,0.266223,-0.643594,-10.883077,3.754711,0.612847,4.433626,0.021548,0.620892,-0.104876
0.770000,-1.623468,0.310474,0.341034,0.092229,-1.708523,0.017229,-0.129521,-1.556672,1.634763,1.925162,1.144640,0.342873,0.294839,-0.735718,-1.031598,3.193216,1.802690,2.016185,1.093624,0.246960,-0.615504,-10.784655,3.711269,0.612944,4.393601,0.023266,0.614460,-0.105645
0.780000,-1.632730,0.318926,0.351114,0.098209,-1.706628,0.018684,-0.133257,-1.566589,1.666596,1.942858,1.164719,0.353855,0.297211,-0.741731,-0.951006,3.172185,1.735607,1.998875,1.102532,0.227068,-0.586714,-10.684133,3.665595,0.612622,4.352980,0.025006,0.607847,-0.106322
0.790000,-1.638352,0.324056,0.356960,0.101853,-1.705691,0.019481,-0.135422,-1.575692,1.698207,1.959874,1.184617,0.364924,0.299380,-0.747452,-0.868752,3.148830,1.666817,1.980228,1.110873,0.206556,-0.557243,-10.581575,3.617700,0.611872,4.311797,0.026766,0.601057,-0.106903
0.800000,-1.655422,0.339954,0.376931,0.113313,-1.704534,0.022297,-0.142163,-1.583964,1.729572,1.976194,1.204323,0.376073,0.301342,-0.752875,-0.784903,3.123148,1.596367,1.960253,1.118631,0.185436,-0.527111,-10.477048,3.567595,0.610684,4.270088,0.028547,0.594094,-0.107383
0.810000,-1.663229,0.347111,0.385002,0.118300,-1.702546,0.023749,-0.145267,-1.591390,1.760670,1.991801,1.223822,0.387296,0.303089,-0.757994,-0.699526,3.095137,1.524305,1.938959,1.125792,0.163717,-0.496339,-10.370621,3.515294,0.609049,4.227887,0.030346,0.586962,-0.107761
0.820000,-1.671064,0.354347,0.392881,0.123476,-1.701131,0.024872,-0.148229,-1.597955,1.791475,2.006680,1.243102,0.398588,0.304616,-0.762802,-0.612692,3.064795,1.450680,1.916357,1.132341,0.141412,-0.464949,-10.262363,3.460814,0.606959,4.185230,0.032162,0.579664,-0.108031
0.830000,-1.688924,0.371284,0.414430,0.135797,-1.699190,0.027500,-0.155398,-1.603644,1.821965,2.020815,1.262150,0.409943,0.305917,-0.767293,-0.524472,3.032124,1.375543,1.892460,1.138265,0.118532,-0.432962,-10.152348,3.404172,0.604404,4.142156,0.033995,0.572205,-0.108191
0.840000,-1.692993,0.375039,0.418579,0.138405,-1.698115,0.028210,-0.156997,-1.608444,1.852118,2.034191,1.280951,0.421354,0.306987,-0.771462,-0.434943,2.997129,1.298948,1.867280,1.143550,0.095092,-0.400402,-10.040650,3.345390,0.601374,4.098700,0.035843,0.564590,-0.108236
0.850000,-1.701073,0.382664,0.427117,0.143964,-1.696482,0.029305,-0.160063,-1.612343,1.881908,2.046794,1.299495,0.432814,0.307819,-0.775301,-0.344180,2.959815,1.220949,1.840834,1.148183,0.071106,-0.367293,-9.927345,3.284488,0.597863,4.054901,0.037705,0.556822,-0.108164
0.860000,-1.719492,0.400722,0.451962,0.157344,-1.693913,0.032286,-0.167984,-1.615328,1.911314,2.058610,1.317768,0.444317,0.308409,-0.778807,-0.252263,2.920190,1.141603,1.813137,1.152151,0.046588,-0.333658,-9.812511,3.221493,0.593860,4.010796,0.039580,0.548907,-0.107970
0.870000,-1.723677,0.404693,0.456476,0.160168,-1.692621,0.032987,-0.169756,-1.617388,1.940312,2.069626,1.335758,0.455857,0.308751,-0.781974,-0.159272,2.878264,1.060969,1.784206,1.155442,0.021555,-0.299525,-9.696229,3.156429,0.589359,3.966423,0.041467,0.540850,-0.107652
0.880000,-1.734094,0.414712,0.467556,0.167532,-1.690275,0.034387,-0.173885,-1.618513,1.968879,2.079829,1.353452,0.467426,0.308840,-0.784798,-0.065289,2.834051,0.979105,1.754062,1.158045,-0.003977,-0.264917,-9.578580,3.089326,0.584349,3.921821,0.043363,0.532654,-0.107205
0.890000,-1.753011,0.433523,0.491177,0.181611,-1.687292,0.037429,-0.181887,-1.618694,1.996993,2.089208,1.370839,0.479018,0.308671,-0.787273,0.029602,2.787564,0.896074,1.722723,1.159948,-0.029992,-0.229863,-9.459646,3.020214,0.578825,3.877029,0.045269,0.524326,-0.106626
0.900000,-1.757286,0.437642,0.495447,0.184581,-1.686075,0.038148,-0.183650,-1.617921,2.024630,2.097751,1.387907,0.490625,0.308240,-0.789395,0.125315,2.738821,0.811938,1.690212,1.161140,-0.056470,-0.194389,-9.339511,2.949125,0.572777,3.832085,0.047182,0.515871,-0.105913
0.910000,-1.770043,0.450144,0.508315,0.193884,-1.683428,0.039926,-0.188597,-1.616187,2.051769,2.105447,1.404643,0.502241,0.307542,-0.791161,0.221763,2.687839,0.726761,1.656551,1.161611,-0.083393,-0.158522,-9.218261,2.876094,0.566199,3.787028,0.049102,0.507292,-0.105061
0.920000,-1.787174,0.467435,0.528351,0.206923,-1.680918,0.042638,-0.195485,-1.613486,2.078387,2.112286,1.421038,0.513857,0.306572,-0.792566,0.318857,2.634641,0.640608,1.621764,1.161351,-0.110741,-0.122293,-9.095981,2.801157,0.559082,3.741897,0.051027,0.498597,-0.104069
0.930000,-1.789351,0.469576,0.530602,0.208466,-1.680377,0.043062,-0.196391,-1.609810,2.104462,2.118259,1.437079,0.525468,0.305327,-0.793606,0.416509,2.579250,0.553548,1.585875,1.160352,-0.138495,-0.085729,-8.972759,2.724353,0.551421,3.696730,0.052956,0.489790,-0.102931
0.940000,-1.804430,0.484874,0.547490,0.220020,-1.678353,0.045313,-0.202059,-1.605156,2.129972,2.123357,1.452755,0.537064,0.303802,-0.794280,0.514627,2.521690,0.465646,1.548911,1.158603,-0.166633,-0.048860,-8.848683,2.645720,0.543209,3.651566,0.054887,0.480877,-0.101647
0.950000,-1.824021,0.505145,0.570807,0.235316,-1.674269,0.048824,-0.210319,-1.599518,2.154896,2.127572,1.468057,0.548640,0.301994,-0.794584,0.613119,2.461988,0.376974,1.510899,1.156098,-0.195133,-0.011717,-8.723841,2.565302,0.534438,3.606443,0.056820,0.471863,-0.100212
0.960000,-1.824021,0.505145,0.570807,0.235316,-1.674269,0.048824,-0.210319,-1.592893,2.179212,2.130897,1.482973,0.560186,0.299900,-0.794514,0.711893,2.400175,0.287601,1.471867,1.152829,-0.223974,0.025671,-8.598324,2.483142,0.525103,3.561400,0.058752,0.462753,-0.098625
0.970000,-1.841376,0.522905,0.588048,0.248653,-1.670837,0.051368,-0.216701,-1.585280,2.202899,2.133324,1.497494,0.571696,0.297515,-0.794070,0.810856,2.336282,0.197598,1.431844,1.148789,-0.253133,0.063272,-8.472220,2.399286,0.515198,3.516473,0.060683,0.453554,-0.096881
0.980000,-1.856617,0.539087,0.605768,0.260935,-1.668146,0.054109,-0.223024,-1.576676,2.225938,2.134848,1.511610,0.583162,0.294837,-0.793249,0.909914,2.270342,0.107038,1.390860,1.143972,-0.282584,0.101054,-8.345620,2.313780,0.504718,3.471701,0.062611,0.444271,-0.094980
0.990000,-1.856617,0.539087,0.605768,0.260935,-1.668146,0.054109,-0.223024,-1.567082,2.248306,2.135465,1.525311,0.594576,0.291863,-0.792049,1.008971,2.202390,0.015993,1.348948,1.138372,-0.312306,0.138987,-8.218614,2.226673,0.493656,3.427120,0.064534,0.434910,-0.092917
1.000000,-1.876160,0.560144,0.628318,0.277048,-1.664623,0.057021,-0.230706,-1.556497,2.269985,2.135168,1.538589,0.605930,0.288591,-0.790469,1.107933,2.132464,-0.075461,1.306138,1.131984,-0.342272,0.177037,-8.091293,2.138017,0.482009,3.382766,0.066453,0.425476,-0.090692
1.010000,-1.891386,0.576668,0.645266,0.289504,-1.659966,0.059865,-0.237160,-1.544923,2.290955,2.133956,1.551434,0.617215,0.285018,-0.788508,1.206705,2.060603,-0.167251,1.262464,1.124804,-0.372458,0.215173,-7.963747,2.047863,0.469771,3.338676,0.068364,0.415975,-0.088302
1.020000,-1.891386,0.576668,0.645266,0.289504,-1.659966,0.059865,-0.237160,-1.532363,2.311197,2.131823,1.563838,0.628426,0.281142,-0.786166,1.305192,1.986849,-0.259301,1.217960,1.116829,-0.402837,0.253361,-7.836066,1.956265,0.456939,3.294885,0.070267,0.406413,-0.085745
1.030000,-1.910619,0.597851,0.665236,0.305632,-1.655922,0.062479,-0.244371,-1.518819,2.330692,2.128770,1.575793,0.639552,0.276961,-0.783441,1.403297,1.911245,-0.351534,1.172659,1.108055,-0.433383,0.291568,-7.708340,1.863278,0.443509,3.251427,0.072161,0.396796,-0.083019
1.040000,-1.925501,0.614763,0.681926,0.318524,-1.652222,0.065007,-0.250499,-1.504297,2.349422,2.124793,1.587292,0.650587,0.272474,-0.780335,1.500925,1.833836,-0.443875,1.126598,1.098481,-0.464069,0.329761,-7.580659,1.768959,0.429478,3.208335,0.074044,0.387129,-0.080122
1.050000,-1.925501,0.614763,0.681926,0.318524,-1.652222,0.065007,-0.250499,-1.488801,2.367369,2.119892,1.598325,0.661522,0.267680,-0.776846,1.597982,1.754669,-0.536246,1.079813,1.088105,-0.494868,0.367907,-7.453113,1.673367,0.414841,3.165644,0.075916,0.377418,-0.077053
1.060000,-1.946375,0.638882,0.704157,0.336844,-1.647002,0.068110,-0.258538,-1.472337,2.384516,2.114068,1.608888,0.672349,0.262577,-0.772976,1.694373,1.673792,-0.628570,1.032340,1.076926,-0.525751,0.405971,-7.325789,1.576561,0.399598,3.123385,0.077774,0.367669,-0.073810
1.070000,-1.956725,0.651097,0.715499,0.345997,-1.644146,0.069978,-0.262914,-1.454913,2.400845,2.107321,1.618972,0.683060,0.257165,-0.768727,1.790002,1.591256,-0.720768,0.984216,1.064945,-0.556690,0.443920,-7.198775,1.478601,0.383745,3.081590,0.079617,0.357887,-0.070392
1.080000,-1.960798,0.656024,0.720029,0.349768,-1.643094,0.070566,-0.264532,-1.436537,2.416341,2.099652,1.628572,0.693648,0.251443,-0.764098,1.884778,1.507113,-0.812764,0.935480,1.052163,-0.587657,0.481720,-7.072160,1.379550,0.367282,3.040289,0.081446,0.348078,-0.066798
1.090000,-1.979032,0.678733,0.742437,0.367174,-1.638779,0.073512,-0.271821,-1.417218,2.430987,2.091065,1.637682,0.704103,0.245412,-0.759092,1.978605,1.421416,-0.904479,0.886169,1.038581,-0.618622,0.519337,-6.946027,1.279471,0.350206,2.999512,0.083257,0.338247,-0.063027
1.100000,-1.989051,0.691250,0.753921,0.376452,-1.635020,0.075517,-0.276366,-1.396965,2.444769,2.081563,1.646296,0.714419,0.239071,-0.753711,2.071393,1.334223,-0.995834,0.836324,1.024201,-0.649556,0.556737,-6.820464,1.178429,0.332518,2.959287,0.085050,0.328401,-0.059079
1.110000,-1.994902,0.698746,0.760393,0.382093,-1.633090,0.076390,-0.278831,-1.375790,2.457672,2.071149,1.654408,0.724588,0.232420,-0.747957,2.163049,1.245588,-1.086751,0.785983,1.009028,-0.680428,0.593886,-6.695553,1.076490,0.314216,2.919641,0.086825,0.318544,-0.054953
1.120000,-2.012209,0.721883,0.781798,0.399737,-1.628034,0.078813,-0.286052,-1.353704,2.469681,2.059828,1.662015,0.734600,0.225462,-0.741833,2.253484,1.155572,-1.177152,0.735185,0.993065,-0.711210,0.630750,-6.571377,0.973719,0.295301,2.880601,0.088579,0.308682,-0.050648
1.130000,-2.019697,0.731905,0.789822,0.407038,-1.624991,0.080218,-0.289565,-1.330720,2.480783,2.047606,1.669112,0.744449,0.218196,-0.735342,2.342608,1.064233,-1.266959,0.683972,0.976316,-0.741869,0.667294,-6.448018,0.870186,0.275774,2.842192,0.090312,0.298820,-0.046164
1.140000,-2.028685,0.744393,0.799081,0.416271,-1.621847,0.081492,-0.293356,-1.306852,2.490966,2.034489,1.675695,0.754126,0.210625,-0.728488,2.430335,0.971634,-1.356094,0.632383,0.958789,-0.772376,0.703486,-6.325555,0.765958,0.255636,2.804438,0.092023,0.288964,-0.041502
1.150000,-2.044482,0.767597,0.817973,0.433631,-1.616805,0.083810,-0.300003,-1.282113,2.500216,2.020484,1.681760,0.763625,0.202749,-0.721273,2.516576,0.877838,-1.444479,0.580459,0.940490,-0.802700,0.739290,-6.204067,0.661105,0.234888,2.767361,0.093711,0.279119,-0.036662
1.160000,-2.047889,0.772551,0.821331,0.437095,-1.615262,0.084469,-0.301715,-1.256520,2.508522,2.005599,1.687304,0.772936,0.194571,-0.713702,2.601249,0.782908,-1.532037,0.528241,0.921425,-0.832809,0.774675,-6.083631,0.555697,0.213533,2.730985,0.095375,0.269289,-0.031644
1.170000,-2.056081,0.785079,0.829852,0.446140,-1.612095,0.085634,-0.305132,-1.230088,2.515874,1.989843,1.692324,0.782053,0.186093,-0.705779,2.684268,0.686911,-1.618690,0.475770,0.901604,-0.862672,0.809606,-5.964322,0.449805,0.191573,2.695329,0.097014,0.259480,-0.026449
1.180000,-2.072198,0.811186,0.850761,0.465172,-1.606591,0.087833,-0.312183,-1.202835,2.522261,1.973225,1.696819,0.790968,0.177317,-0.697510,2.765553,0.589912,-1.704363,0.423088,0.881035,-0.892258,0.844050,-5.846212,0.343501,0.169012,2.660411,0.098627,0.249697,-0.021078
1.190000,-2.073749,0.813712,0.852506,0.466906,-1.605768,0.088137,-0.313022,-1.174777,2.527672,1.955756,1.700786,0.799674,0.168247,-0.688898,2.845025,0.491981,-1.788980,0.370235,0.859729,-0.921535,0.877974,-5.729374,0.236858,0.145854,2.626251,0.100213,0.239945,-0.015531
1.200000,-2.082690,0.828971,0.863056,0.477578,-1.601671,0.089438,-0.317076,-1.145934,2.532100,1.937446,1.704224,0.808163,0.158886,-0.679950,2.922604,0.393186,-1.872464,0.317253,0.837697,-0.950471,0.911347,-5.613878,0.129947,0.122102,2.592864,0.101772,0.230228,-0.009811
1.210000,-2.095760,0.852914,0.882344,0.494720,-1.596457,0.091110,-0.323253,-1.116325,2.535536,1.918306,1.707131,0.816428,0.149238,-0.670671,2.998216,0.293598,-1.954741,0.264184,0.814950,-0.979036,0.944136,-5.499790,0.022843,0.097763,2.560266,0.103303,0.220551,-0.003918
1.220000,-2.097143,0.855494,0.884158,0.496471,-1.595615,0.091368,-0.324074,-1.085970,2.537972,1.898351,1.709508,0.824462,0.139306,-0.661067,3.071786,0.193287,-2.035738,0.211068,0.791501,-1.007196,0.976308,-5.387177,-0.084380,0.072840,2.528470,0.104805,0.210919,0.002145
1.230000,-2.106413,0.873745,0.897279,0.509055,-1.590729,0.092608,-0.328698,-1.054889,2.539402,1.877592,1.711353,0.832258,0.129094,-0.651145,3.143243,0.092326,-2.115382,0.157948,0.767364,-1.034921,1.007833,-5.276102,-0.191650,0.047341,2.497490,0.106277,0.201335,0.008377
1.240000,-2.117698,0.897810,0.915617,0.525768,-1.584687,0.093954,-0.334977,-1.023105,2.539819,1.856043,1.712666,0.839809,0.118607,-0.640911,3.212518,-0.009212,-2.193599,0.104863,0.742553,-1.062179,1.038680,-5.166626,-0.298890,0.021272,2.467336,0.107720,0.191805,0.014776
1.250000,-2.117698,0.897810,0.915617,0.525768,-1.584687,0.093954,-0.334977,-0.990639,2.539217,1.833720,1.713450,0.847109,0.107850,-0.630372,3.279544,-0.111253,-2.270319,0.051856,0.717084,-1.088939,1.068818,-5.058809,-0.406028,-0.005361,2.438018,0.109132,0.182332,0.021339
1.260000,-2.127705,0.921530,0.932037,0.541796,-1.577828,0.095126,-0.340695,-0.957514,2.537594,1.810637,1.713704,0.854151,0.096829,-0.619534,3.344256,-0.213723,-2.345472,-0.001034,0.690972,-1.115168,1.098218,-4.952708,-0.512987,-0.032549,2.409544,0.110513,0.172921,0.028063
1.270000,-2.133914,0.937502,0.943321,0.552440,-1.573216,0.096163,-0.344698,-0.923754,2.534943,1.786810,1.713429,0.860928,0.085547,-0.608407,3.406592,-0.316546,-2.418989,-0.053765,0.664234,-1.140837,1.126850,-4.848378,-0.619694,-0.060283,2.381922,0.111862,0.163574,0.034946
1.280000,-2.133914,0.937502,0.943321,0.552440,-1.573216,0.096163,-0.344698,-0.889382,2.531263,1.762257,1.712628,0.867435,0.074012,-0.596997,3.466492,-0.419647,-2.490800,-0.106297,0.636888,-1.165912,1.154684,-4.745871,-0.726073,-0.088557,2.355158,0.113180,0.154297,0.041985
1.290000,-2.143144,0.964170,0.961777,0.570131,-1.565661,0.097078,-0.350755,-0.854424,2.526550,1.736994,1.711303,0.873666,0.062229,-0.585313,3.523900,-0.522948,-2.560841,-0.158590,0.608954,-1.190365,1.181694,-4.645237,-0.832051,-0.117359,2.329255,0.114466,0.145093,0.049176
1.300000,-2.147438,0.977640,0.971415,0.578938,-1.561532,0.097736,-0.354107,-0.818904,2.520804,1.711040,1.709457,0.879614,0.050204,-0.573364,3.578761,-0.626374,-2.629044,-0.210604,0.580450,-1.214163,1.207851,-4.546524,-0.937551,-0.146680,2.304218,0.115719,0.135966,0.056517
1.310000,-2.148255,0.980331,0.973322,0.580686,-1.560721,0.097842,-0.354743,-0.782849,2.514023,1.684413,1.707091,0.885275,0.037946,-0.561156,3.631024,-0.729846,-2.695347,-0.262301,0.551397,-1.237277,1.233128,-4.449778,-1.042501,-0.176510,2.280046,0.116940,0.126918,0.064003
1.320000,-2.154976,1.004671,0.990494,0.596610,-1.553506,0.098234,-0.360029,-0.746284,2.506207,1.657133,1.704210,0.890642,0.025459,-0.548701,3.680639,-0.833287,-2.759687,-0.313641,0.521816,-1.259677,1.257500,-4.355042,-1.146826,-0.206838,2.256742,0.118128,0.117954,0.071630
1.330000,-2.158435,1.018350,1.000456,0.605473,-1.548959,0.098823,-0.363319,-0.709236,2.497357,1.629220,1.700818,0.895711,0.012752,-0.536006,3.727562,-0.936619,-2.822002,-0.364586,0.491728,-1.281332,1.280940,-4.262357,-1.250453,-0.237652,2.234303,0.119283,0.109076,0.079395
1.340000,-2.159733,1.023831,1.004460,0.609010,-1.547245,0.099001,-0.364525,-0.671733,2.487474,1.600693,1.696919,0.900477,-0.000168,-0.523082,3.771748,-1.039764,-2.882232,-0.415097,0.461158,-1.302213,1.303424,-4.171760,-1.353307,-0.268940,2.212728,0.120405,0.100287,0.087294
1.350000,-2.165494,1.051542,1.024671,0.627184,-1.538205,0.099096,-0.370625,-0.633801,2.476562,1.571575,1.692516,0.904934,-0.013292,-0.509938,3.813158,-1.142643,-2.940321,-0.465137,0.430127,-1.322292,1.324929,-4.083289,-1.455318,-0.300690,2.192013,0.121494,0.091591,0.095321
1.360000,-2.167376,1.062464,1.032100,0.634070,-1.534225,0.099376,-0.373236,-0.595470,2.464622,1.541887,1.687616,0.909079,-0.026614,-0.496584,3.851754,-1.245179,-2.996211,-0.514670,0.398661,-1.341539,1.345430,-3.996976,-1.556412,-0.332888,2.172154,0.122551,0.082991,0.103472
1.370000,-2.168554,1.070572,1.037295,0.639114,-1.531310,0.099512,-0.375006,-0.556766,2.451658,1.511651,1.682223,0.912908,-0.040123,-0.483029,3.887501,-1.347292,-3.049849,-0.563658,0.366784,-1.359926,1.364907,-3.912853,-1.656518,-0.365522,2.153144,0.123575,0.074488,0.111743
1.380000,-2.171509,1.095303,1.053590,0.654927,-1.522876,0.099137,-0.379765,-0.517720,2.437676,1.480890,1.676343,0.916415,-0.053812,-0.469286,3.920369,-1.448905,-3.101181,-0.612066,0.334522,-1.377426,1.383337,-3.830949,-1.755566,-0.398577,2.134976,0.124566,0.066086,0.120129
1.390000,-2.172184,1.103299,1.058269,0.659736,-1.519724,0.099176,-0.381711,-0.478359,2.422680,1.449627,1.669982,0.919598,-0.067672,-0.455363,3.950329,-1.549939,-3.150158,-0.659859,0.301901,-1.394011,1.400699,-3.751290,-1.853485,-0.432038,2.117643,0.125525,0.057788,0.128623
1.400000,-2.172766,1.111284,1.063031,0.664498,-1.516802,0.099197,-0.383297,-0.438713,2.406677,1.417887,1.663146,0.922453,-0.081692,-0.441272,3.977356,-1.650317,-3.196729,-0.707002,0.268949,-1.409654,1.416975,-3.673901,-1.950206,-0.465891,2.101133,0.126452,0.049594,0.137222
1.410000,-2.174471,1.138740,1.081101,0.681827,-1.507050,0.098104,-0.388050,-0.398812,2.389674,1.385693,1.655842,0.924977,-0.095865,-0.427023,4.001426,-1.749962,-3.240849,-0.753460,0.235692,-1.424330,1.432146,-3.598803,-2.045662,-0.500120,2.085438,0.127348,0.041509,0.145919
1.420000,-2.174781,1.146750,1.086101,0.686561,-1.503911,0.098018,-0.389745,-0.358684,2.371678,1.353070,1.648076,0.927167,-0.110179,-0.412629,4.022522,-1.848796,-3.282473,-0.799202,0.202161,-1.438013,1.446194,-3.526016,-2.139785,-0.534709,2.070545,0.128212,0.033533,0.154708
1.430000,-2.175006,1.159924,1.094034,0.694185,-1.498677,0.097866,-0.392233,-0.318361,2.352698,1.320043,1.639858,0.929020,-0.124625,-0.398099,4.040625,-1.946744,-3.321558,-0.844193,0.168382,-1.450678,1.459103,-3.455558,-2.232508,-0.569643,2.056441,0.129045,0.025670,0.163585
1.440000,-2.174853,1.183671,1.108450,0.708300,-1.489470,0.096303,-0.396165,-0.277872,2.332743,1.286639,1.631193,0.930535,-0.139192,-0.383447,4.055724,-2.043729,-3.358064,-0.888403,0.134386,-1.462300,1.470857,-3.387443,-2.323768,-0.604905,2.043114,0.129847,0.017920,0.172542
1.450000,-2.174693,1.188781,1.111323,0.711159,-1.487301,0.096068,-0.397245,-0.237247,2.311823,1.252882,1.622090,0.931708,-0.153871,-0.368682,4.067808,-2.139676,-3.391953,-0.931800,0.100203,-1.472856,1.481441,-3.321685,-2.413500,-0.640477,2.030547,0.130620,0.010286,0.181575
1.460000,-2.174174,1.201510,1.118619,0.718280,-1.481958,0.095515,-0.399396,-0.196516,2.289949,1.218799,1.612557,0.932539,-0.168650,-0.353818,4.076869,-2.234511,-3.423189,-0.974353,0.065863,-1.482324,1.490843,-3.258294,-2.501642,-0.676343,2.018727,0.131363,0.002769,0.190676
1.470000,-2.173016,1.224835,1.132849,0.732235,-1.472154,0.093803,-0.402696,-0.155709,2.267133,1.184418,1.602602,0.933025,-0.183517,-0.338865,4.082903,-2.328159,-3.451739,-1.016034,0.031397,-1.490680,1.499049,-3.197279,-2.588133,-0.712485,2.007636,0.132077,-0.004629,0.199839
1.480000,-2.172821,1.227355,1.134259,0.733681,-1.471040,0.093673,-0.403181,-0.114858,2.243386,1.149765,1.592236,0.933167,-0.198463,-0.323837,4.085910,-2.420549,-3.477571,-1.056813,-0.003164,-1.497903,1.506048,-3.138647,-2.672912,-0.748885,1.997256,0.132764,-0.011906,0.209058
1.490000,-2.171459,1.242360,1.142603,0.742308,-1.464550,0.092646,-0.405576,-0.073991,2.218722,1.114867,1.581466,0.932962,-0.213475,-0.308744,4.085890,-2.511608,-3.500658,-1.096663,-0.037787,-1.503974,1.511831,-3.082402,-2.755921,-0.785524,1.987571,0.133422,-0.019061,0.218326
1.500000,-2.169207,1.265237,1.156037,0.756428,-1.454354,0.090607,-0.408632,-0.033140,2.193154,1.079752,1.570303,0.932411,-0.228543,-0.293600,4.082849,-2.601266,-3.520973,-1.135555,-0.072441,-1.508870,1.516388,-3.028546,-2.837104,-0.822385,1.978561,0.134054,-0.026093,0.227636
1.510000,-2.169207,1.265237,1.156037,0.756428,-1.454354,0.090607,-0.408632,0.007666,2.166697,1.044447,1.558755,0.931513,-0.243653,-0.278417,4.076793,-2.689454,-3.538492,-1.173464,-0.107092,-1.512575,1.519713,-2.977081,-2.916405,-0.859448,1.970207,0.134660,-0.033001,0.236983
1.520000,-2.166765,1.282300,1.164971,0.766528,-1.446775,0.088950,-0.411200,0.048396,2.139365,1.008982,1.546833,0.930269,-0.258794,-0.263206,4.067735,-2.776101,-3.553196,-1.210365,-0.141709,-1.515069,1.521797,-2.928006,-2.993771,-0.896695,1.962488,0.135241,-0.039782,0.246358
1.530000,-2.163696,1.301836,1.175406,0.778698,-1.437569,0.086854,-0.413411,0.089021,2.111175,0.973383,1.534548,0.928679,-0.273954,-0.247981,4.055686,-2.861143,-3.565064,-1.246233,-0.176259,-1.516335,1.522635,-2.881316,-3.069148,-0.934106,1.955385,0.135797,-0.046437,0.255755
1.540000,-2.163696,1.301836,1.175406,0.778698,-1.437569,0.086854,-0.413411,0.129510,2.082142,0.937680,1.521909,0.926744,-0.289121,-0.232753,4.040663,-2.944512,-3.574082,-1.281043,-0.210707,-1.516357,1.522224,-2.837008,-3.142488,-0.971662,1.948874,0.136330,-0.052964,0.265167
1.550000,-2.160052,1.320776,1.184738,0.790408,-1.428785,0.084524,-0.415685,0.169834,2.052284,0.901902,1.508927,0.924465,-0.304281,-0.217536,4.022686,-3.026144,-3.580237,-1.314774,-0.245020,-1.515119,1.520561,-2.795075,-3.213740,-1.009343,1.942936,0.136840,-0.059363,0.274587
1.560000,-2.156597,1.337164,1.192703,0.800845,-1.420768,0.082496,-0.417296,0.209963,2.021619,0.866076,1.495613,0.921843,-0.319423,-0.202342,4.001776,-3.105977,-3.583519,-1.347403,-0.279165,-1.512606,1.517643,-2.755507,-3.282860,-1.047131,1.937547,0.137329,-0.065631,0.284008
1.570000,-2.156597,1.337164,1.192703,0.800845,-1.420768,0.082496,-0.417296,0.249869,1.990165,0.830231,1.481979,0.918882,-0.334533,-0.187183,3.977958,-3.183949,-3.583919,-1.378909,-0.313109,-1.508805,1.513470,-2.718297,-3.349800,-1.085005,1.932685,0.137796,-0.071769,0.293422
1.580000,-2.151590,1.357420,1.201656,0.813620,-1.411059,0.079412,-0.419480,0.289523,1.957940,0.794397,1.468035,0.915581,-0.349599,-0.172073,3.951259,-3.260001,-3.581433,-1.409273,-0.346817,-1.503703,1.508043,-2.683431,-3.414519,-1.122945,1.928326,0.138244,-0.077776,0.302823
1.590000,-2.148110,1.370697,1.207507,0.822245,-1.404239,0.077348,-0.420473,0.328895,1.924965,0.758603,1.453793,0.911945,-0.364608,-0.157022,3.921710,-3.334073,-3.576060,-1.438474,-0.380255,-1.497289,1.501364,-2.650898,-3.476975,-1.160933,1.924447,0.138673,-0.083651,0.312203
1.600000,-2.148110,1.370697,1.207507,0.822245,-1.404239,0.077348,-0.420473,0.367957,1.891259,0.722876,1.439266,0.907976,-0.379545,-0.142045,3.889341,-3.406111,-3.567800,-1.466495,-0.413390,-1.489551,1.493436,-2.620682,-3.537129,-1.198947,1.921025,0.139084,-0.089394,0.321555
1.610000,-2.141693,1.392051,1.215929,0.836284,-1.393399,0.073529,-0.422122,0.406681,1.856842,0.687247,1.424464,0.903677,-0.394399,-0.127154,3.854190,-3.476060,-3.556658,-1.493319,-0.446189,-1.480480,1.484264,-2.592768,-3.594944,-1.236968,1.918035,0.139479,-0.095003,0.330871
1.620000,-2.138308,1.402526,1.219884,0.843433,-1.387798,0.071604,-0.422644,0.445041,1.821737,0.651743,1.409399,0.899052,-0.409155,-0.112360,3.816293,-3.543866,-3.542638,-1.518929,-0.478617,-1.470068,1.473853,-2.567139,-3.650384,-1.274976,1.915454,0.139857,-0.100479,0.340146
1.630000,-2.136946,1.406632,1.221404,0.846198,-1.385610,0.071008,-0.422855,0.483007,1.785965,0.616394,1.394085,0.894105,-0.423800,-0.097677,3.775691,-3.609480,-3.525752,-1.543309,-0.510640,-1.458306,1.462210,-2.543775,-3.703418,-1.312952,1.913257,0.140221,-0.105820,0.349370
1.640000,-2.131156,1.422845,1.226968,0.857604,-1.377089,0.067417,-0.423621,0.520554,1.749548,0.581228,1.378533,0.888840,-0.438321,-0.083116,3.732426,-3.672853,-3.506011,-1.566446,-0.542227,-1.445189,1.449344,-2.522658,-3.754012,-1.350875,1.911420,0.140572,-0.111027,0.358538
1.650000,-2.127429,1.432671,1.230167,0.864563,-1.371766,0.065381,-0.423949,0.557656,1.712508,0.546274,1.362756,0.883261,-0.452704,-0.068690,3.686544,-3.733937,-3.483431,-1.588326,-0.573343,-1.430711,1.435263,-2.503767,-3.802140,-1.388727,1.909918,0.140910,-0.116099,0.367642
1.660000,-2.125165,1.438416,1.231967,0.868611,-1.368670,0.064227,-0.424119,0.594285,1.674869,0.511559,1.346767,0.877373,-0.466935,-0.054411,3.638091,-3.792689,-3.458029,-1.608937,-0.603956,-1.414868,1.419980,-2.487078,-3.847773,-1.426487,1.908727,0.141236,-0.121035,0.376675
1.670000,-2.117805,1.455365,1.236544,0.881298,-1.359218,0.059294,-0.424482,0.630418,1.636654,0.477113,1.330577,0.871181,-0.481001,-0.040290,3.587116,-3.849067,-3.429826,-1.628268,-0.634033,-1.397656,1.403505,-2.472570,-3.890888,-1.464137,1.907822,0.141552,-0.125835,0.385630
1.680000,-2.115456,1.460731,1.238065,0.885154,-1.356263,0.058102,-0.424573,0.666028,1.597888,0.442963,1.314201,0.864692,-0.494888,-0.026340,3.533673,-3.903029,-3.398847,-1.646307,-0.663542,-1.379074,1.385852,-2.460218,-3.931462,-1.501658,1.907179,0.141859,-0.130500,0.394500
1.690000,-2.112238,1.467750,1.239921,0.890317,-1.352328,0.056251,-0.424656,0.701091,1.558594,0.409136,1.297651,0.857911,-0.508583,-0.012573,3.477814,-3.954538,-3.365118,-1.663045,-0.692451,-1.359122,1.367036,-2.449996,-3.969476,-1.539029,1.906774,0.142158,-0.135028,0.403278
1.700000,-2.104285,1.483185,1.243084,0.902406,-1.343043,0.051335,-0.424600,0.735584,1.518797,0.375660,1.280940,0.850843,-0.522071,0.001000,3.419596,-4.003558,-3.328668,-1.678475,-0.720730,-1.337798,1.347072,-2.441880,-4.004910,-1.576234,1.906583,0.142450,-0.139419,0.411957
1.710000,-2.102587,1.486438,1.243787,0.904868,-1.341144,0.050536,-0.424585,0.769483,1.478523,0.342563,1.264082,0.843496,-0.535339,0.014368,3.359077,-4.050057,-3.289530,-1.692589,-0.748346,-1.315105,1.325977,-2.435841,-4.037750,-1.613253,1.906582,0.142737,-0.143674,0.420530
1.720000,-2.098246,1.494377,1.245351,0.911012,-1.336495,0.048194,-0.424506,0.802765,1.437796,0.309870,1.247088,0.835876,-0.548373,0.027520,3.296316,-4.094002,-3.247739,-1.705380,-0.775270,-1.291046,1.303769,-2.431853,-4.067982,-1.650068,1.906746,0.143018,-0.147791,0.428992
1.730000,-2.089465,1.508294,1.246974,0.922715,-1.327558,0.042828,-0.423765,0.835409,1.396643,0.277608,1.229974,0.827991,-0.561159,0.040444,3.231376,-4.135366,-3.203332,-1.716843,-0.801471,-1.265625,1.280468,-2.429886,-4.095594,-1.686661,1.907054,0.143296,-0.151772,0.437334
1.740000,-2.087629,1.511195,1.247385,0.925057,-1.325754,0.042027,-0.423631,0.867393,1.355089,0.245803,1.212752,0.819847,-0.573685,0.053129,3.164320,-4.174122,-3.156351,-1.726974,-0.826921,-1.238846,1.256093,-2.429911,-4.120578,-1.723014,1.907481,0.143572,-0.155614,0.445551
1.750000,-2.081937,1.519659,1.248335,0.932179,-1.320468,0.038851,-0.423151,0.898696,1.313160,0.214481,1.195435,0.811452,-0.585936,0.065566,3.095214,-4.210246,-3.106838,-1.735769,-0.851590,-1.210715,1.230667,-2.431899,-4.142928,-1.759111,1.908005,0.143846,-0.159319,0.453637
1.760000,-2.072533,1.531778,1.248657,0.943159,-1.312047,0.033403,-0.421846,0.929297,1.270884,0.183666,1.178036,0.802815,-0.597899,0.077743,3.024124,-4.243717,-3.054840,-1.743226,-0.875451,-1.181242,1.204212,-2.435819,-4.162638,-1.794935,1.908603,0.144120,-0.162887,0.461585
1.770000,-2.071550,1.533038,1.248726,0.944271,-1.311174,0.032968,-0.421734,0.959178,1.228286,0.153384,1.160570,0.793943,-0.609561,0.089650,2.951121,-4.274517,-3.000405,-1.749344,-0.898476,-1.150434,1.176752,-2.441639,-4.179707,-1.830469,1.909254,0.144395,-0.166316,0.469388
1.780000,-2.064211,1.541639,1.248711,0.952371,-1.305333,0.028488,-0.420552,0.988320,1.185393,0.123658,1.143049,0.784845,-0.620908,0.101278,2.876274,-4.302628,-2.943585,-1.754123,-0.920639,-1.118301,1.148311,-2.449329,-4.194134,-1.865696,1.909935,0.144672,-0.169608,0.477042
1.790000,-2.054153,1.551933,1.247798,0.962676,-1.297400,0.022947,-0.418797,1.016704,1.142233,0.094512,1.125488,0.775530,-0.631927,0.112616,2.799656,-4.328037,-2.884433,-1.757563,-0.941912,-1.084855,1.118917,-2.458855,-4.205921,-1.900601,1.910626,0.144952,-0.172761,0.484541
1.800000,-2.054153,1.551933,1.247798,0.962676,-1.297400,0.022947,-0.418797,1.044313,1.098833,0.065970,1.107898,0.766007,-0.642605,0.123656,2.721339,-4.350734,-2.823005,-1.759666,-0.962272,-1.050108,1.088595,-2.470185,-4.215074,-1.935170,1.911305,0.145237,-0.175776,0.491877
1.810000,-2.045116,1.560083,1.246458,0.971180,-1.291171,0.017992,-0.417338,1.071130,1.055219,0.038052,1.090294,0.756285,-0.652929,0.134388,2.641399,-4.370708,-2.759361,-1.760435,-0.981694,-1.014074,1.057374,-2.483286,-4.221599,-1.969386,1.911953,0.145526,-0.178653,0.499048
1.820000,-2.035506,1.567621,1.244401,0.979817,-1.284506,0.012684,-0.415309,1.097141,1.011418,0.010782,1.072689,0.746373,-0.662887,0.144803,2.559912,-4.387955,-2.693561,-1.759874,-1.000154,-0.976768,1.025283,-2.498124,-4.225504,-2.003236,1.912550,0.145822,-0.181392,0.506046
1.830000,-2.035506,1.567621,1.244401,0.979817,-1.284506,0.012684,-0.415309,1.122329,0.967459,-0.015819,1.055097,0.736282,-0.672465,0.154894,2.476955,-4.402469,-2.625670,-1.757987,-1.017629,-0.938207,0.992352,-2.514665,-4.226801,-2.036705,1.913077,0.146125,-0.183992,0.512866
1.840000,-2.025105,1.574352,1.241064,0.988184,-1.278405,0.007164,-0.413392,1.146680,0.923369,-0.041731,1.037530,0.726021,-0.681651,0.164650,2.392608,-4.414251,-2.555752,-1.754780,-1.034098,-0.898407,0.958612,-2.532876,-4.225503,-2.069781,1.913515,0.146437,-0.186454,0.519505
1.850000,-2.016228,1.579740,1.238417,0.995475,-1.273039,0.002305,-0.411250,1.170181,0.879174,-0.066934,1.020001,0.715600,-0.690433,0.174066,2.306949,-4.423302,-2.483876,-1.750261,-1.049539,-0.857388,0.924094,-2.552721,-4.221624,-2.102450,1.913846,0.146758,-0.188777,0.525956
1.860000,-2.016228,1.579740,1.238417,0.995475,-1.273039,0.002305,-0.411250,1.192819,0.834903,-0.091409,1.002524,0.705030,-0.698799,0.183132,2.220059,-4.429626,-2.410112,-1.744436,-1.063933,-0.815169,0.888831,-2.574166,-4.215182,-2.134700,1.914053,0.147089,-0.190962,0.532216
1.870000,-2.002482,1.586423,1.233004,1.005602,-1.265795,-0.004859,-0.408375,1.214582,0.790582,-0.115136,0.985112,0.694321,-0.706736,0.191842,2.132021,-4.433229,-2.334532,-1.737316,-1.077260,-0.771772,0.852857,-2.597176,-4.206198,-2.166519,1.914119,0.147432,-0.193008,0.538279
1.880000,-1.994976,1.589921,1.230564,1.011450,-1.261632,-0.008981,-0.406399,1.235459,0.746238,-0.138099,0.967778,0.683485,-0.714234,0.200189,2.042916,-4.434120,-2.257211,-1.728908,-1.089503,-0.727219,0.816207,-2.621715,-4.194691,-2.197895,1.914028,0.147787,-0.194915,0.544142
1.890000,-1.994976,1.589921,1.230564,1.011450,-1.261632,-0.008981,-0.406399,1.255440,0.701899,-0.160280,0.950534,0.672531,-0.721281,0.208167,1.952829,-4.432311,-2.178224,-1.719225,-1.100644,-0.681534,0.778914,-2.647748,-4.180685,-2.228819,1.913764,0.148155,-0.196684,0.549801
1.900000,-1.980806,1.594930,1.224436,1.021207,-1.254646,-0.016390,-0.403024,1.274516,0.657592,-0.181664,0.933394,0.661472,-0.727865,0.215768,1.861843,-4.427817,-2.097649,-1.708278,-1.110667,-0.634742,0.741016,-2.675240,-4.164206,-2.259279,1.913314,0.148538,-0.198315,0.555251
1.910000,-1.974079,1.597049,1.221760,1.025899,-1.251492,-0.019938,-0.401185,1.292677,0.613343,-0.202233,0.916369,0.650318,-0.733975,0.222987,1.770044,-4.420652,-2.015567,-1.696080,-1.119557,-0.586869,0.702548,-2.704154,-4.145281,-2.289265,1.912661,0.148935,-0.199807,0.560489
1.920000,-1.971553,1.597831,1.220893,1.027754,-1.250241,-0.021362,-0.400438,1.309917,0.569179,-0.221975,0.899472,0.639081,-0.739602,0.229819,1.677516,-4.410838,-1.932058,-1.682643,-1.127301,-0.537942,0.663548,-2.734456,-4.123939,-2.318770,1.911794,0.149348,-0.201160,0.565512
1.930000,-1.956653,1.600854,1.212717,1.036359,-1.244253,-0.028770,-0.396939,1.326228,0.525126,-0.240875,0.882716,0.627772,-0.744734,0.236258,1.584347,-4.398394,-1.847206,-1.667984,-1.133885,-0.487990,0.624053,-2.766108,-4.100211,-2.347783,1.910698,0.149778,-0.202375,0.570317
1.940000,-1.950192,1.602179,1.210287,1.040777,-1.241359,-0.032352,-0.394992,1.341604,0.481211,-0.258919,0.866112,0.616403,-0.749362,0.242300,1.490622,-4.383344,-1.761096,-1.652117,-1.139297,-0.437042,0.584103,-2.799075,-4.074129,-2.376298,1.909363,0.150226,-0.203452,0.574900
1.950000,-1.946455,1.602876,1.209031,1.043422,-1.239609,-0.034579,-0.393804,1.356040,0.437460,-0.276096,0.849674,0.604986,-0.753475,0.247940,1.396428,-4.365716,-1.673812,-1.635059,-1.143526,-0.385129,0.543735,-2.833321,-4.045729,-2.404307,1.907777,0.150692,-0.204391,0.579258
1.960000,-1.931600,1.604452,1.200979,1.051563,-1.234074,-0.042098,-0.390088,1.369532,0.393897,-0.292395,0.833411,0.593532,-0.757065,0.253174,1.301853,-4.345536,-1.585444,-1.616828,-1.146564,-0.332283,0.502990,-2.868809,-4.015046,-2.431803,1.905928,0.151177,-0.205192,0.583390
1.970000,-1.927830,1.604776,1.199604,1.053983,-1.232435,-0.044014,-0.389021,1.382077,0.350549,-0.307805,0.817337,0.582055,-0.760121,0.258000,1.206984,-4.322836,-1.496078,-1.597441,-1.148401,-0.278538,0.461908,-2.905504,-3.982118,-2.458780,1.903808,0.151682,-0.205855,0.587292
1.980000,-1.920805,1.605203,1.196596,1.058208,-1.229702,-0.047931,-0.386973,1.393672,0.307440,-0.322317,0.801462,0.570564,-0.762635,0.262413,1.111909,-4.297649,-1.405806,-1.576917,-1.149031,-0.223926,0.420527,-2.943370,-3.946984,-2.485232,1.901406,0.152207,-0.206380,0.590962
1.990000,-1.907030,1.605578,1.190158,1.065932,-1.224775,-0.055348,-0.382857,1.404315,0.264596,-0.335921,0.785799,0.559074,-0.764599,0.266410,1.016716,-4.270009,-1.314717,-1.555278,-1.148446,-0.168484,0.378891,-2.982369,-3.909686,-2.511155,1.898715,0.152754,-0.206768,0.594400
2.000000,-1.904468,1.605600,1.189295,1.067544,-1.223724,-0.056563,-0.382128,1.414006,0.222040,-0.348611,0.770357,0.547596,-0.766005,0.269990,0.921491,-4.239955,-1.222903,-1.532544,-1.146642,-0.112248,0.337038,-3.022467,-3.870266,-2.536544,1.895726,0.153323,-0.207019,0.597602
2.010000,-1.895689,1.605592,1.185599,1.072586,-1.220872,-0.060998,-0.379707,1.422745,0.179797,-0.360380,0.755148,0.536141,-0.766844,0.273151,0.826323,-4.207526,-1.130458,-1.508736,-1.143616,-0.055255,0.295012,-3.063628,-3.828768,-2.561395,1.892432,0.153914,-0.207133,0.600567
2.020000,-1.881473,1.605233,1.179174,1.080108,-1.216710,-0.068153,-0.375673,1.430533,0.137889,-0.371220,0.740182,0.524723,-0.767110,0.275891,0.731300,-4.172762,-1.037473,-1.483877,-1.139363,0.002456,0.252853,-3.105814,-3.785238,-2.585705,1.888827,0.154528,-0.207110,0.603295
2.030000,-1.880109,1.605151,1.178693,1.080863,-1.216240,-0.068762,-0.375320,1.437371,0.096341,-0.381129,0.725470,0.513354,-0.766795,0.278208,0.636509,-4.135708,-0.944045,-1.457992,-1.133883,0.060847,0.210603,-3.148991,-3.739721,-2.609472,1.884905,0.155167,-0.206951,0.605784
2.040000,-1.869969,1.604510,1.173579,1.085553,-1.213587,-0.073451,-0.373081,1.443263,0.055175,-0.390101,0.711022,0.502046,-0.765893,0.280103,0.542036,-4.096409,-0.850266,-1.431103,-1.127175,0.119876,0.168304,-3.193122,-3.692266,-2.632694,1.880661,0.155829,-0.206657,0.608033
2.050000,-1.855491,1.603108,1.166978,1.092198,-1.209815,-0.080787,-0.369057,1.448212,0.014413,-0.398134,0.696848,0.490810,-0.764398,0.281574,0.447969,-4.054913,-0.756233,-1.403237,-1.119241,0.179502,0.125999,-3.238171,-3.642923,-2.655368,1.876090,0.156517,-0.206227,0.610042
2.060000,-1.855491,1.603108,1.166978,1.092198,-1.209815,-0.080787,-0.369057,1.452222,-0.025923,-0.405226,0.682958,0.479661,-0.762303,0.282623,0.354393,-4.011268,-0.662040,-1.374419,-1.110081,0.239683,0.083728,-3.284104,-3.591740,-2.677496,1.871189,0.157229,-0.205662,0.611811
2.070000,-1.843811,1.601581,1.161217,1.096989,-1.206771,-0.086091,-0.366627,1.455300,-0.065812,-0.411375,0.669360,0.468609,-0.759604,0.283249,0.261396,-3.965526,-0.567783,-1.344676,-1.099699,0.300376,0.041536,-3.330884,-3.538771,-2.699076,1.865955,0.157968,-0.204963,0.613339
2.080000,-1.830354,1.599462,1.154734,1.102312,-1.203545,-0.093087,-0.362900,1.457450,-0.105233,-0.416582,0.656064,0.457667,-0.756296,0.283453,0.169061,-3.917740,-0.473558,-1.314035,-1.088100,0.361537,-0.000537,-3.378476,-3.484067,-2.720108,1.860386,0.158733,-0.204131,0.614626
2.090000,-1.830354,1.599462,1.154734,1.102312,-1.203545,-0.093087,-0.362900,1.458681,-0.144167,-0.420846,0.643079,0.446847,-0.752373,0.283238,0.077473,-3.867964,-0.379462,-1.282524,-1.075289,0.423121,-0.042448,-3.426844,-3.427682,-2.740595,1.854479,0.159524,-0.203165,0.615672
2.100000,-1.815845,1.596867,1.146871,1.107376,-1.200129,-0.099908,-0.359808,1.459000,-0.182593,-0.424171,0.630414,0.436161,-0.747833,0.282604,-0.013284,-3.816254,-0.285589,-1.250174,-1.061273,0.485083,-0.084154,-3.475954,-3.369670,-2.760537,1.848234,0.160343,-0.202067,0.616479
2.110000,-1.803293,1.593908,1.141490,1.112059,-1.197067,-0.106715,-0.356244,1.458415,-0.220492,-0.426558,0.618076,0.425621,-0.742672,0.281555,-0.103127,-3.762668,-0.192036,-1.217011,-1.046059,0.547375,-0.125615,-3.525769,-3.310087,-2.779936,1.841651,0.161189,-0.200838,0.617047
2.120000,-1.803293,1.593908,1.141490,1.112059,-1.197067,-0.106715,-0.356244,1.456937,-0.257846,-0.428012,0.606073,0.415240,-0.736886,0.280092,-0.191974,-3.707265,-0.098898,-1.183069,-1.029656,0.609951,-0.166789,-3.576257,-3.248989,-2.798796,1.834729,0.162063,-0.199478,0.617377
2.130000,-1.803293,1.593908,1.141490,1.112059,-1.197067,-0.106715,-0.356244,1.454576,-0.294637,-0.428536,0.594414,0.405028,-0.730473,0.278219,-0.279744,-3.650106,-0.006270,-1.148376,-1.012076,0.672763,-0.207633,-3.627380,-3.186432,-2.817120,1.827470,0.162964,-0.197988,0.617469
2.140000,-1.791518,1.590970,1.135768,1.115986,-1.194256,-0.112255,-0.353714,1.451342,-0.330848,-0.428137,0.583106,0.394998,-0.723430,0.275939,-0.366356,-3.591254,0.085753,-1.112965,-0.993328,0.735762,-0.248107,-3.679106,-3.122474,-2.834912,1.819875,0.163894,-0.196369,0.617326
2.150000,-1.774654,1.587034,1.125281,1.120611,-1.191033,-0.120775,-0.349647,1.447249,-0.366462,-0.426821,0.572155,0.385162,-0.715757,0.273257,-0.451733,-3.530771,0.177078,-1.076867,-0.973426,0.798900,-0.288170,-3.731398,-3.057174,-2.852175,1.811946,0.164852,-0.194623,0.616949
2.160000,-1.774654,1.587034,1.125281,1.120611,-1.191033,-0.120775,-0.349647,1.442308,-0.401464,-0.424595,0.561568,0.375530,-0.707452,0.270176,-0.535795,-3.468722,0.267610,-1.040117,-0.952383,0.862126,-0.327782,-3.784224,-2.990590,-2.868916,1.803685,0.165839,-0.192750,0.616340
2.170000,-1.760008,1.582662,1.117360,1.124806,-1.187989,-0.128559,-0.346106,1.436533,-0.435837,-0.421469,0.551353,0.366114,-0.698515,0.266701,-0.618468,-3.405173,0.357257,-1.002745,-0.930214,0.925390,-0.366902,-3.837549,-2.922782,-2.885139,1.795096,0.166855,-0.190751,0.615500
2.180000,-1.746664,1.577884,1.111160,1.128730,-1.185099,-0.135963,-0.342433,1.429938,-0.469567,-0.417450,0.541514,0.356925,-0.688945,0.262838,-0.699674,-3.340190,0.445927,-0.964788,-0.906935,0.988642,-0.405491,-3.891339,-2.853808,-2.900850,1.786184,0.167900,-0.188629,0.614433
2.190000,-1.746664,1.577884,1.111160,1.128730,-1.185099,-0.135963,-0.342433,1.422539,-0.502641,-0.412550,0.532057,0.347975,-0.678742,0.258592,-0.779342,-3.273843,0.533530,-0.926278,-0.882562,1.051830,-0.443509,-3.945560,-2.783730,-2.916057,1.776951,0.168973,-0.186384,0.613139
2.200000,-1.732103,1.572044,1.104775,1.132934,-1.181945,-0.143385,-0.339071,1.414351,-0.535044,-0.406780,0.522988,0.339274,-0.667908,0.253968,-0.857398,-3.206200,0.619975,-0.887251,-0.857114,1.114902,-0.480918,-4.000178,-2.712608,-2.930766,1.767403,0.170076,-0.184017,0.611623
2.210000,-1.720752,1.567092,1.099905,1.136041,-1.179681,-0.149172,-0.336278,1.405391,-0.566765,-0.400151,0.514312,0.330833,-0.656444,0.248973,-0.933772,-3.137331,0.705175,-0.847742,-0.830611,1.177807,-0.517680,-4.055161,-2.640502,-2.944985,1.757545,0.171208,-0.181530,0.609886
2.220000,-1.720752,1.567092,1.099905,1.136041,-1.179681,-0.149172,-0.336278,1.395676,-0.597791,-0.392676,0.506033,0.322662,-0.644352,0.243614,-1.008395,-3.067306,0.789041,-0.807786,-0.803072,1.240492,-0.553757,-4.110474,-2.567474,-2.958721,1.747383,0.172369,-0.178926,0.607931
2.230000,-1.705386,1.559484,1.093883,1.140174,-1.176660,-0.156397,-0.333157,1.385223,-0.628111,-0.384370,0.498156,0.314772,-0.631634,0.237898,-1.081198,-2.996197,0.871488,-0.767420,-0.774518,1.302904,-0.589113,-4.166086,-2.493584,-2.971984,1.736924,0.173559,-0.176204,0.605762
2.240000,-1.696794,1.554614,1.091042,1.142463,-1.174971,-0.160444,-0.331224,1.374052,-0.657714,-0.375246,0.490685,0.307172,-0.618294,0.231832,-1.152117,-2.924077,0.952431,-0.726679,-0.744972,1.364991,-0.623712,-4.221963,-2.418894,-2.984782,1.726174,0.174778,-0.173368,0.603382
2.250000,-1.696794,1.554614,1.091042,1.142463,-1.174971,-0.160444,-0.331224,1.362181,-0.686592,-0.365321,0.483623,0.299872,-0.604334,0.225424,-1.221088,-2.851018,1.031787,-0.685602,-0.714458,1.426700,-0.657517,-4.278073,-2.343465,-2.997124,1.715141,0.176025,-0.170419,0.600795
2.260000,-1.678661,1.545004,1.083005,1.146879,-1.171770,-0.168827,-0.327667,1.349630,-0.714735,-0.354611,0.476973,0.292883,-0.589760,0.218682,-1.288048,-2.777093,1.109475,-0.644224,-0.682999,1.487977,-0.690496,-4.334383,-2.267357,-3.009021,1.703831,0.177302,-0.167359,0.598004
2.270000,-1.673129,1.541320,1.081328,1.148249,-1.170699,-0.171363,-0.326546,1.336420,-0.742134,-0.343132,0.470738,0.286212,-0.574575,0.211614,-1.352938,-2.702377,1.185414,-0.602584,-0.650621,1.548768,-0.722613,-4.390862,-2.190633,-3.020483,1.692255,0.178607,-0.164190,0.595012
2.280000,-1.670392,1.539463,1.080573,1.148981,-1.170199,-0.172806,-0.325932,1.322571,-0.768782,-0.330902,0.464921,0.279870,-0.558784,0.204229,-1.415699,-2.626943,1.259527,-0.560718,-0.617350,1.609022,-0.753836,-4.447477,-2.113353,-3.031521,1.680419,0.179941,-0.160915,0.591825
2.290000,-1.656223,1.530697,1.074806,1.152364,-1.167879,-0.179280,-0.323337,1.308106,-0.794673,-0.317941,0.459524,0.273865,-0.542394,0.196537,-1.476275,-2.550867,1.331737,-0.518664,-0.583214,1.668683,-0.784132,-4.504197,-2.035577,-3.042145,1.668333,0.181302,-0.157535,0.588445
2.300000,-1.649290,1.525628,1.072744,1.154040,-1.166666,-0.182352,-0.322031,1.293046,-0.819800,-0.304268,0.454548,0.268206,-0.525411,0.188547,-1.534612,-2.474223,1.401971,-0.476461,-0.548240,1.727699,-0.813472,-4.560991,-1.957367,-3.052367,1.656006,0.182692,-0.154053,0.584878
2.310000,-1.645312,1.522548,1.071772,1.155063,-1.165975,-0.184224,-0.321263,1.277414,-0.844157,-0.289902,0.449994,0.262900,-0.507840,0.180268,-1.590658,-2.397085,1.470155,-0.434147,-0.512458,1.786016,-0.841823,-4.617828,-1.878782,-3.062200,1.643448,0.184109,-0.150472,0.581128
2.320000,-1.632127,1.512942,1.067338,1.158272,-1.163947,-0.190071,-0.319030,1.261233,-0.867741,-0.274865,0.445865,0.257957,-0.489690,0.171710,-1.644365,-2.319531,1.536220,-0.391759,-0.475898,1.843582,-0.869158,-4.674677,-1.799882,-3.071655,1.630669,0.185553,-0.146793,0.577199
2.330000,-1.628169,1.509652,1.066380,1.159223,-1.163290,-0.191588,-0.318397,1.244526,-0.890548,-0.259177,0.442159,0.253382,-0.470969,0.162885,-1.695683,-2.241633,1.600097,-0.349336,-0.438590,1.900343,-0.895448,-4.731507,-1.720727,-3.080745,1.617680,0.187024,-0.143020,0.573096
2.340000,-1.623032,1.505224,1.065325,1.160538,-1.162461,-0.193764,-0.317565,1.227319,-0.912574,-0.242863,0.438878,0.249185,-0.451684,0.153801,-1.744568,-2.163468,1.661721,-0.306917,-0.400567,1.956247,-0.920665,-4.788288,-1.641375,-3.089482,1.604490,0.188521,-0.139155,0.568823
2.350000,-1.609182,1.493763,1.061441,1.163990,-1.160447,-0.199452,-0.315560,1.209635,-0.933817,-0.225943,0.436021,0.245371,-0.431844,0.144471,-1.790977,-2.085110,1.721028,-0.264539,-0.361859,2.011240,-0.944783,-4.844991,-1.561885,-3.097882,1.591110,0.190045,-0.135202,0.564387
2.360000,-1.606687,1.491423,1.060992,1.164607,-1.160054,-0.200295,-0.315232,1.191500,-0.954276,-0.208442,0.433587,0.241948,-0.411459,0.134906,-1.834870,-2.006634,1.777956,-0.222241,-0.322502,2.065271,-0.967778,-4.901586,-1.482316,-3.105955,1.577553,0.191594,-0.131162,0.559792
2.370000,-1.600460,1.485529,1.059949,1.166256,-1.159129,-0.202768,-0.314390,1.172938,-0.973950,-0.190384,0.431576,0.238921,-0.390538,0.125116,-1.876209,-1.928115,1.832447,-0.180062,-0.282528,2.118288,-0.989625,-4.958044,-1.402723,-3.113718,1.563829,0.193168,-0.127040,0.555042
2.380000,-1.588752,1.474610,1.057514,1.169319,-1.157458,-0.207323,-0.312900,1.153975,-0.992839,-0.171793,0.429986,0.236297,-0.369093,0.115113,-1.914958,-1.849626,1.884444,-0.138038,-0.241972,2.170240,-1.010302,-5.014336,-1.323163,-3.121184,1.549950,0.194767,-0.122839,0.550144
2.390000,-1.587525,1.473380,1.057330,1.169636,-1.157276,-0.207714,-0.312772,1.134639,-1.010943,-0.152695,0.428815,0.234082,-0.347134,0.104910,-1.951083,-1.771242,1.933893,-0.096210,-0.200869,2.221075,-1.029786,-5.070433,-1.243693,-3.128367,1.535928,0.196390,-0.118561,0.545103
2.400000,-1.580261,1.465948,1.056375,1.171600,-1.156245,-0.210206,-0.312044,1.114954,-1.028263,-0.133115,0.428062,0.232280,-0.324671,0.094517,-1.984555,-1.693036,1.980742,-0.054613,-0.159256,2.270744,-1.048058,-5.126307,-1.164367,-3.135282,1.521775,0.198036,-0.114209,0.539925
2.410000,-1.568982,1.454498,1.054473,1.174635,-1.154710,-0.214084,-0.311020,1.094947,-1.044803,-0.113080,0.427723,0.230896,-0.301719,0.083949,-2.015345,-1.615080,2.024943,-0.013286,-0.117169,2.319195,-1.065097,-5.181930,-1.085240,-3.141944,1.507504,0.199705,-0.109789,0.534615
2.420000,-1.567800,1.453212,1.054346,1.174952,-1.154544,-0.214414,-0.310932,1.074647,-1.060565,-0.092616,0.427796,0.229936,-0.278288,0.073216,-2.043429,-1.537446,2.066449,0.027733,-0.074646,2.366381,-1.080887,-5.237276,-1.006365,-3.148368,1.493127,0.201396,-0.105302,0.529178
2.430000,-1.560837,1.445465,1.053759,1.176914,-1.153601,-0.216497,-0.310468,1.054079,-1.075552,-0.071751,0.428278,0.229404,-0.254391,0.062331,-2.068782,-1.460206,2.105216,0.068408,-0.031723,2.412251,-1.095409,-5.292316,-0.927795,-3.154571,1.478656,0.203109,-0.100754,0.523621
2.440000,-1.550182,1.433603,1.052583,1.179956,-1.152180,-0.219656,-0.309887,1.033271,-1.089769,-0.050512,0.429164,0.229302,-0.230043,0.051307,-2.091385,-1.383429,2.141203,0.108701,0.011560,2.456759,-1.108648,-5.347024,-0.849581,-3.160566,1.464104,0.204842,-0.096146,0.517950
2.450000,-1.549064,1.432277,1.052533,1.180281,-1.152028,-0.219920,-0.309835,1.012251,-1.103221,-0.028927,0.430452,0.229635,-0.205256,0.040158,-2.111220,-1.307186,2.174373,0.148576,0.055166,2.499857,-1.120590,-5.401375,-0.771775,-3.166370,1.449484,0.206596,-0.091484,0.512170
2.460000,-1.542413,1.424286,1.052307,1.182292,-1.151146,-0.221642,-0.309558,0.991047,-1.115913,-0.007025,0.432136,0.230405,-0.180045,0.028896,-2.128273,-1.231546,2.204690,0.187997,0.099054,2.541498,-1.131223,-5.455342,-0.694424,-3.171999,1.434810,0.208369,-0.086772,0.506287
2.470000,-1.532420,1.412102,1.051889,1.185369,-1.149792,-0.224043,-0.309230,0.969686,-1.127852,0.015167,0.434212,0.231616,-0.154426,0.017533,-2.142531,-1.156575,2.232121,0.226929,0.143186,2.581637,-1.140533,-5.508900,-0.617579,-3.177469,1.420094,0.210160,-0.082012,0.500308
2.480000,-1.532420,1.412102,1.051889,1.185369,-1.149792,-0.224043,-0.309230,0.948196,-1.139044,0.037618,0.436674,0.233269,-0.128413,0.006085,-2.153985,-1.082341,2.256636,0.265335,0.187520,2.620228,-1.148511,-5.562023,-0.541287,-3.182797,1.405349,0.211969,-0.077210,0.494239
2.490000,-1.525226,1.402598,1.052285,1.187766,-1.148811,-0.225463,-0.309066,0.926606,-1.149499,0.060299,0.439518,0.235366,-0.102021,-0.005437,-2.162629,-1.008910,2.278209,0.303181,0.232018,2.657229,-1.155147,-5.614689,-0.465594,-3.187997,1.390589,0.213795,-0.072370,0.488086
2.500000,-1.516040,1.390245,1.052797,1.190953,-1.147499,-0.227069,-0.308965,0.904944,-1.159223,0.083182,0.442738,0.237909,-0.075268,-0.017018,-2.168457,-0.936344,2.296815,0.340432,0.276638,2.692596,-1.160435,-5.666871,-0.390546,-3.193088,1.375827,0.215636,-0.067495,0.481855
2.510000,-1.516040,1.390245,1.052797,1.190953,-1.147499,-0.227069,-0.308965,0.883237,-1.168225,0.106236,0.446327,0.240899,-0.048169,-0.028645,-2.171469,-0.864709,2.312433,0.377055,0.321339,2.726286,-1.164366,-5.718548,-0.316186,-3.198085,1.361076,0.217493,-0.062591,0.475553
2.520000,-1.507544,1.377897,1.054134,1.194198,-1.146254,-0.228142,-0.309004,0.861514,-1.176517,0.129431,0.450279,0.244336,-0.020742,-0.040305,-2.171667,-0.794065,2.325045,0.413016,0.366080,2.758260,-1.166936,-5.769696,-0.242558,-3.203004,1.346349,0.219365,-0.057662,0.469185
2.530000,-1.501191,1.368276,1.055428,1.196794,-1.145276,-0.228726,-0.309137,0.839804,-1.184107,0.152737,0.454587,0.248221,0.006996,-0.051984,-2.169054,-0.724472,2.334635,0.448283,0.410820,2.788477,-1.168141,-5.820292,-0.169704,-3.207863,1.331660,0.221249,-0.052712,0.462759
2.540000,-1.501191,1.368276,1.055428,1.196794,-1.145276,-0.228726,-0.309137,0.818133,-1.191006,0.176123,0.459245,0.252552,0.035027,-0.063668,-2.163638,-0.655990,2.341192,0.482824,0.455517,2.816898,-1.167980,-5.870315,-0.097663,-3.212679,1.317023,0.223146,-0.047746,0.456280
2.550000,-1.493579,1.355981,1.057698,1.200229,-1.144055,-0.229188,-0.309625,0.796531,-1.197227,0.199560,0.464244,0.257331,0.063334,-0.075344,-2.155429,-0.588676,2.344706,0.516606,0.500130,2.843487,-1.166449,-5.919743,-0.026476,-3.217466,1.302449,0.225054,-0.042769,0.449755
2.560000,-1.487834,1.346417,1.059563,1.202996,-1.143053,-0.229418,-0.310250,0.775025,-1.202780,0.223017,0.469577,0.262555,0.091897,-0.086997,-2.144438,-0.522587,2.345170,0.549600,0.544617,2.868206,-1.163551,-5.968555,0.043819,-3.222243,1.287954,0.226973,-0.037785,0.443190
2.570000,-1.487834,1.346417,1.059563,1.202996,-1.143053,-0.229418,-0.310250,0.753642,-1.207678,0.246464,0.475236,0.268223,0.120698,-0.098615,-2.130682,-0.457775,2.342582,0.581776,0.588936,2.891020,-1.159286,-6.016730,0.113187,-3.227026,1.273549,0.228901,-0.032799,0.436593
2.580000,-1.480200,1.332854,1.062797,1.207059,-1.141630,-0.229570,-0.311488,0.732411,-1.211935,0.269869,0.481212,0.274334,0.149717,-0.110183,-2.114179,-0.394295,2.336939,0.613103,0.633045,2.911896,-1.153658,-6.064250,0.181591,-3.231831,1.259247,0.230837,-0.027816,0.429968
2.590000,-1.475840,1.324753,1.064914,1.209567,-1.140733,-0.229561,-0.312376,0.711358,-1.215564,0.293203,0.487498,0.280884,0.178936,-0.121688,-2.094949,-0.332196,2.328246,0.643554,0.676903,2.930800,-1.146670,-6.111094,0.248998,-3.236674,1.245062,0.232780,-0.022841,0.423324
2.600000,-1.475840,1.324753,1.064914,1.209567,-1.140733,-0.229561,-0.312376,0.690512,-1.218579,0.316434,0.494083,0.287872,0.208333,-0.133116,-2.073015,-0.271529,2.316507,0.673101,0.720469,2.947703,-1.138328,-6.157244,0.315374,-3.241573,1.231007,0.234730,-0.017879,0.416665
2.610000,-1.469017,1.311340,1.068790,1.213831,-1.139118,-0.229082,-0.314307,0.669898,-1.220995,0.339533,0.500960,0.295294,0.237890,-0.144455,-2.048404,-0.212341,2.301730,0.701716,0.763700,2.962573,-1.128640,-6.202682,0.380689,-3.246543,1.217095,0.236685,-0.012935,0.409998
2.620000,-1.465809,1.304687,1.070918,1.216003,-1.138280,-0.228554,-0.315268,0.649544,-1.222826,0.362469,0.508118,0.303146,0.267585,-0.155689,-2.021145,-0.154677,2.283928,0.729375,0.806556,2.975383,-1.117614,-6.247390,0.444912,-3.251600,1.203337,0.238644,-0.008014,0.403331
2.630000,-1.463962,1.300722,1.072267,1.217321,-1.137773,-0.228132,-0.315879,0.629475,-1.224088,0.385211,0.515547,0.311425,0.297397,-0.166807,-1.991268,-0.098580,2.263113,0.756051,0.848995,2.986106,-1.105259,-6.291352,0.508015,-3.256761,1.189747,0.240606,-0.003122,0.396669
2.640000,-1.458738,1.288954,1.076555,1.221352,-1.136115,-0.226255,-0.318081,0.609718,-1.224798,0.407731,0.523239,0.320126,0.327307,-0.177794,-1.958809,-0.044094,2.239304,0.781720,0.890977,2.994715,-1.091586,-6.334550,0.569969,-3.262040,1.176337,0.242569,0.001738,0.390018
2.650000,-1.456556,1.283788,1.078608,1.223207,-1.135381,-0.225322,-0.318990,0.590299,-1.224970,0.429997,0.531182,0.329244,0.357292,-0.188639,-1.923804,0.008742,2.212520,0.806359,0.932461,3.001188,-1.076608,-6.376970,0.630750,-3.267455,1.163118,0.244534,0.006558,0.383384
2.660000,-1.454473,1.278666,1.080745,1.225085,-1.134637,-0.224260,-0.319952,0.571242,-1.224623,0.451981,0.539366,0.338775,0.387331,-0.199326,-1.886291,0.059892,2.182785,0.829945,0.973406,3.005502,-1.060338,-6.418597,0.690333,-3.273019,1.150104,0.246498,0.011336,0.376775
2.670000,-1.450122,1.267274,1.085786,1.229406,-1.132751,-0.221149,-0.322605,0.552573,-1.223772,0.473653,0.547781,0.348712,0.417402,-0.209845,-1.846313,0.109317,2.150123,0.852458,1.013773,3.007636,-1.042790,-6.459415,0.748695,-3.278749,1.137306,0.248460,0.016064,0.370196
2.680000,-1.448791,1.263534,1.087623,1.230900,-1.132147,-0.220153,-0.323355,0.534316,-1.222436,0.494984,0.556415,0.359050,0.447483,-0.220182,-1.803914,0.156985,2.114564,0.873875,1.053523,3.007571,-1.023982,-6.499412,0.805813,-3.284659,1.124735,0.250419,0.020738,0.363653
2.690000,-1.447067,1.258575,1.090059,1.232900,-1.131295,-0.218602,-0.324531,0.516495,-1.220633,0.515944,0.565258,0.369783,0.477553,-0.230325,-1.759141,0.202864,2.076138,0.894179,1.092617,3.005289,-1.003930,-6.538573,0.861667,-3.290763,1.112404,0.252375,0.025353,0.357153
2.700000,-1.443189,1.246341,1.096539,1.238046,-1.128873,-0.213976,-0.327865,0.499133,-1.218379,0.536507,0.574299,0.380903,0.507589,-0.240261,-1.712041,0.246925,2.034881,0.913350,1.131016,3.000775,-0.982652,-6.576887,0.916238,-3.297077,1.100322,0.254325,0.029903,0.350701
2.710000,-1.442480,1.243933,1.097927,1.239116,-1.128418,-0.213146,-0.328409,0.482254,-1.215694,0.556642,0.583525,0.392403,0.537569,-0.249978,-1.662668,0.289139,1.990828,0.931370,1.168681,2.994014,-0.960169,-6.614341,0.969508,-3.303614,1.088502,0.256269,0.034384,0.344303
2.720000,-1.440742,1.237939,1.101321,1.241786,-1.127141,-0.210691,-0.330055,0.465880,-1.212596,0.576323,0.592926,0.404276,0.567469,-0.259464,-1.611075,0.329481,1.944020,0.948224,1.205577,2.984994,-0.936502,-6.650925,1.021462,-3.310387,1.076954,0.258206,0.038789,0.337965
2.730000,-1.438024,1.227314,1.107825,1.246727,-1.124545,-0.205591,-0.333356,0.450033,-1.209104,0.595522,0.602490,0.416515,0.597269,-0.268708,-1.557317,0.367928,1.894498,0.963896,1.241666,2.973704,-0.911672,-6.686627,1.072082,-3.317411,1.065688,0.260133,0.043114,0.331693
2.740000,-1.437743,1.226148,1.108576,1.247295,-1.124277,-0.205072,-0.333675,0.434734,-1.205238,0.614213,0.612204,0.429110,0.626944,-0.277698,-1.501452,0.404459,1.842307,0.978372,1.276911,2.960135,-0.885703,-6.721438,1.121357,-3.324698,1.054716,0.262051,0.047353,0.325493
2.750000,-1.436076,1.219186,1.112987,1.250707,-1.122521,-0.201659,-0.335764,0.420004,-1.201015,0.632369,0.622057,0.442053,0.656471,-0.286422,-1.443542,0.439055,1.787496,0.991639,1.311278,2.944281,-0.858620,-6.755348,1.169274,-3.332260,1.044045,0.263958,0.051502,0.319370
2.760000,-1.434043,1.208926,1.120053,1.255950,-1.119351,-0.195561,-0.339406,0.405863,-1.196457,0.649963,0.632037,0.455335,0.685829,-0.294870,-1.383648,0.471699,1.730113,1.003684,1.344732,2.926135,-0.830447,-6.788349,1.215820,-3.340110,1.033688,0.265853,0.055555,0.313330
2.770000,-1.434043,1.208926,1.120053,1.255950,-1.119351,-0.195561,-0.339406,0.392331,-1.191581,0.666971,0.642131,0.468948,0.714994,-0.303031,-1.321834,0.502376,1.670211,1.014496,1.377239,2.905694,-0.801212,-6.820432,1.260987,-3.348260,1.023652,0.267734,0.059507,0.307378
2.780000,-1.432610,1.201070,1.125627,1.260187,-1.116608,-0.190677,-0.342222,0.379426,-1.186409,0.683367,0.652327,0.482880,0.743943,-0.310894,-1.258168,0.531075,1.607844,1.024067,1.408765,2.882957,-0.770941,-6.851591,1.304766,-3.356720,1.013947,0.269600,0.063352,0.301520
2.790000,-1.431269,1.191159,1.133372,1.265838,-1.112952,-0.183748,-0.346088,0.367167,-1.180960,0.699128,0.662612,0.497123,0.772653,-0.318450,-1.192717,0.557785,1.543071,1.032386,1.439278,2.857923,-0.739664,-6.881818,1.347149,-3.365502,1.004583,0.271451,0.067087,0.295761
2.800000,-1.431269,1.191159,1.133372,1.265838,-1.112952,-0.183748,-0.346088,0.355572,-1.175253,0.714229,0.672974,0.511666,0.801101,-0.325688,-1.125551,0.582497,1.475951,1.039447,1.468748,2.830595,-0.707411,-6.911108,1.388130,-3.374616,0.995567,0.273284,0.070705,0.290105
2.810000,-1.429961,1.181359,1.140927,1.271662,-1.109003,-0.176540,-0.349934,0.344656,-1.169310,0.728647,0.683401,0.526498,0.829265,-0.332598,-1.056742,0.605208,1.406545,1.045243,1.497143,2.800975,-0.674211,-6.939454,1.427705,-3.384071,0.986908,0.275099,0.074202,0.284558
2.820000,-1.429292,1.173875,1.147212,1.276350,-1.105748,-0.170563,-0.353049,0.334437,-1.163149,0.742360,0.693879,0.541608,0.857121,-0.339172,-0.986363,0.625912,1.334917,1.049768,1.524433,2.769071,-0.640097,-6.966853,1.465868,-3.393877,0.978614,0.276895,0.077574,0.279126
2.830000,-1.429292,1.173875,1.147212,1.276350,-1.105748,-0.170563,-0.353049,0.324929,-1.156792,0.755345,0.704396,0.556986,0.884646,-0.345400,-0.914491,0.644608,1.261134,1.053020,1.550591,2.734889,-0.605100,-6.993299,1.502619,-3.404043,0.970692,0.278670,0.080814,0.273811
2.840000,-1.428390,1.164338,1.155020,1.282518,-1.101214,-0.162635,-0.357039,0.316147,-1.150257,0.767582,0.714940,0.572620,0.911819,-0.351274,-0.841200,0.661298,1.185264,1.054994,1.575588,2.698439,-0.569255,-7.018790,1.537954,-3.414575,0.963150,0.280423,0.083919,0.268620
2.850000,-1.428036,1.158099,1.160524,1.286781,-1.097997,-0.156910,-0.359845,0.308105,-1.143566,0.779050,0.725496,0.588498,0.938615,-0.356785,-0.766571,0.675984,1.107377,1.055690,1.599397,2.659732,-0.532595,-7.043322,1.571874,-3.425483,0.955994,0.282153,0.086884,0.263556
2.860000,-1.428036,1.158099,1.160524,1.286781,-1.097997,-0.156910,-0.359845,0.300816,-1.136737,0.789730,0.736054,0.604608,0.965013,-0.361926,-0.690680,0.688672,1.027546,1.055106,1.621994,2.618781,-0.495155,-7.066893,1.604379,-3.436772,0.949233,0.283859,0.089703,0.258625
2.870000,-1.427481,1.147805,1.169566,1.294042,-1.092092,-0.146970,-0.364554,0.294291,-1.129792,0.799601,0.746598,0.620938,0.990991,-0.366688,-0.613611,0.699368,0.945845,1.053244,1.643352,2.575602,-0.456971,-7.089501,1.635471,-3.448449,0.942871,0.285539,0.092374,0.253830
2.880000,-1.427267,1.141737,1.175151,1.298603,-1.088392,-0.140955,-0.367357,0.288543,-1.122750,0.808647,0.757118,0.637475,1.016525,-0.371065,-0.535444,0.708083,0.862350,1.050105,1.663450,2.530212,-0.418079,-7.111145,1.665153,-3.460519,0.936914,0.287194,0.094891,0.249175
2.890000,-1.427242,1.140731,1.176093,1.299368,-1.087814,-0.139932,-0.367820,0.283582,-1.115631,0.816848,0.767601,0.654207,1.041595,-0.375050,-0.456263,0.714827,0.777138,1.045691,1.682264,2.482628,-0.378517,-7.131824,1.693428,-3.472988,0.931370,0.288820,0.097249,0.244665
2.900000,-1.427088,1.130755,1.185526,1.307121,-1.080750,-0.128628,-0.372863,0.279418,-1.108454,0.824189,0.778032,0.671121,1.066178,-0.378635,-0.376151,0.719615,0.690289,1.040008,1.699774,2.432873,-0.338323,-7.151538,1.720301,-3.485859,0.926242,0.290418,0.099446,0.240303
2.910000,-1.427047,1.125843,1.190361,1.311197,-1.077512,-0.123469,-0.375124,0.276059,-1.101238,0.830654,0.788401,0.688203,1.090253,-0.381816,-0.295195,0.722461,0.601885,1.033060,1.715959,2.380969,-0.297534,-7.170287,1.745778,-3.499136,0.921535,0.291986,0.101476,0.236092
2.920000,-1.427029,1.122902,1.193244,1.313630,-1.075657,-0.120249,-0.376497,0.273514,-1.094004,0.836227,0.798693,0.705440,1.113797,-0.384586,-0.213479,0.723385,0.512008,1.024854,1.730800,2.326939,-0.256191,-7.188073,1.769865,-3.512822,0.917255,0.293523,0.103336,0.232037
2.930000,-1.427010,1.114140,1.201828,1.320994,-1.068927,-0.109559,-0.380996,0.271790,-1.086771,0.840894,0.808898,0.722819,1.136791,-0.386940,-0.131091,0.722405,0.420743,1.015398,1.744280,2.270811,-0.214332,-7.204897,1.792569,-3.526918,0.913405,0.295029,0.105022,0.228141
2.940000,-1.427004,1.110297,1.205712,1.324402,-1.066226,-0.105280,-0.382781,0.270892,-1.079556,0.844642,0.819001,0.740325,1.159214,-0.388873,-0.048118,0.719543,0.328174,1.004699,1.756383,2.212613,-0.171998,-7.220761,1.813899,-3.541427,0.909990,0.296501,0.106530,0.224406
2.950000,-1.427003,1.106461,1.209550,1.327769,-1.063366,-0.100561,-0.384665,0.270828,-1.072380,0.847458,0.828992,0.757946,1.181044,-0.390380,0.035352,0.714824,0.234390,0.992769,1.767093,2.152375,-0.129229,-7.235668,1.833864,-3.556347,0.907012,0.297939,0.107856,0.220836
2.960000,-1.427035,1.097938,1.218200,1.335519,-1.056154,-0.089008,-0.389291,0.271600,-1.065260,0.849330,0.838857,0.775667,1.202261,-0.391457,0.119230,0.708272,0.139478,0.979617,1.776396,2.090128,-0.086066,-7.249621,1.852473,-3.571680,0.904475,0.299341,0.108997,0.217434
2.970000,-1.427044,1.095135,1.221156,1.338200,-1.054165,-0.085722,-0.390591,0.273212,-1.058214,0.850247,0.848584,0.793474,1.222846,-0.392101,0.203428,0.699915,0.043527,0.965257,1.784279,2.025906,-0.042551,-7.262623,1.869737,-3.587424,0.902382,0.300708,0.109950,0.214203
2.980000,-1.427063,1.090469,1.226008,1.342603,-1.050216,-0.079317,-0.393014,0.275668,-1.051261,0.850200,0.858162,0.811353,1.242779,-0.392308,0.287855,0.689782,-0.053371,0.949701,1.790732,1.959745,0.001274,-7.274678,1.885667,-3.603577,0.900736,0.302037,0.110712,0.211144
2.990000,-1.427116,1.082201,1.234813,1.350756,-1.042750,-0.067122,-0.397628,0.278969,-1.044419,0.849180,0.867578,0.829289,1.262041,-0.392076,0.372424,0.677905,-0.151125,0.932964,1.795744,1.891682,0.045367,-7.285791,1.900276,-3.620136,0.899537,0.303328,0.111279,0.208261
3.000000,-1.427124,1.080384,1.236823,1.352621,-1.041438,-0.064866,-0.398477,0.283117,-1.037703,0.847178,0.876821,0.847268,1.280613,-0.391401,0.457043,0.664317,-0.249644,0.915060,1.799306,1.821755,0.089686,-7.295967,1.913576,-3.637099,0.898788,0.304580,0.111649,0.205555
3.010000,-1.427147,1.074935,1.242765,1.358123,-1.036511,-0.056994,-0.401283,0.288110,-1.031132,0.844187,0.885879,0.865275,1.298476,-0.390282,0.541623,0.649051,-0.348832,0.896006,1.801411,1.750006,0.134188,-7.305210,1.925579,-3.654460,0.898491,0.305792,0.111819,0.203029
3.020000,-1.427176,1.066887,1.251696,1.366567,-1.028501,-0.044355,-0.405824,0.293949,-1.024722,0.840201,0.894741,0.883296,1.315613,-0.388717,0.626075,0.632146,-0.448597,0.875821,1.802053,1.676477,0.178831,-7.313527,1.936300,-3.672214,0.898646,0.306963,0.111786,0.200684
3.030000,-1.427175,1.066003,1.252711,1.367529,-1.027782,-0.043169,-0.406252,0.300632,-1.018489,0.835215,0.903396,0.901316,1.332006,-0.386706,0.710309,0.613638,-0.548843,0.854521,1.801227,1.601212,0.223570,-7.320924,1.945754,-3.690355,0.899253,0.308091,0.111548,0.198522
3.040000,-1.427144,1.059818,1.259642,1.374142,-1.021046,-0.032977,-0.409632,0.308155,-1.012450,0.829224,0.911832,0.919320,1.347637,-0.384246,0.794235,0.593568,-0.649475,0.832127,1.798930,1.524257,0.268364,-7.327407,1.953954,-3.708877,0.900314,0.309177,0.111102,0.196545
3.050000,-1.427117,1.052893,1.267713,1.382004,-1.013503,-0.021434,-0.413620,0.316516,-1.006618,0.822226,0.920038,0.937295,1.362491,-0.381338,0.877765,0.571976,-0.750397,0.808658,1.795160,1.445658,0.313169,-7.332984,1.960917,-3.727771,0.901827,0.310219,0.110448,0.194753
3.060000,-1.427117,1.052893,1.267713,1.382004,-1.013503,-0.021434,-0.413620,0.325710,-1.001010,0.814216,0.928005,0.955224,1.376550,-0.377983,0.960810,0.548905,-0.851513,0.784137,1.789916,1.365466,0.357941,-7.337660,1.966658,-3.747030,0.903793,0.311217,0.109582,0.193149
3.070000,-1.427028,1.048588,1.272704,1.386921,-1.008679,-0.014201,-0.415913,0.335733,-0.995640,0.805195,0.935721,0.973093,1.389800,-0.374179,1.043283,0.524400,-0.952725,0.758585,1.783198,1.283730,0.402637,-7.341445,1.971194,-3.766642,0.906210,0.312169,0.108504,0.191732
3.080000,-1.426809,1.040971,1.281633,1.396086,-0.998893,0.000379,-0.420680,0.346576,-0.990522,0.795162,0.943177,0.990888,1.402225,-0.369930,1.125095,0.498506,-1.053938,0.732026,1.775009,1.200503,0.447215,-7.344345,1.974541,-3.786599,0.909078,0.313074,0.107211,0.190504
3.090000,-1.426788,1.040135,1.282667,1.397132,-0.997992,0.001779,-0.421120,0.358234,-0.985670,0.784117,0.950362,1.008593,1.413810,-0.365235,1.206160,0.471271,-1.155053,0.704484,1.765351,1.115837,0.491631,-7.346369,1.976715,-3.806888,0.912395,0.313933,0.105702,0.189465
3.100000,-1.426513,1.035092,1.288596,1.403347,-0.991615,0.011102,-0.423918,0.370699,-0.981097,0.772061,0.957266,1.026195,1.424542,-0.360097,1.286392,0.442741,-1.255973,0.675983,1.754231,1.029789,0.535842,-7.347526,1.977736,-3.827497,0.916158,0.314744,0.103977,0.188617
3.110000,-1.426015,1.027596,1.297468,1.412905,-0.981422,0.025875,-0.428416,0.383962,-0.976815,0.758997,0.963881,1.043678,1.434406,-0.354518,1.365706,0.412968,-1.356601,0.646550,1.741653,0.942414,0.579805,-7.347823,1.977619,-3.848415,0.920367,0.315506,0.102034,0.187958
3.120000,-1.426015,1.027596,1.297468,1.412905,-0.981422,0.025875,-0.428416,0.398013,-0.972837,0.744929,0.970197,1.061028,1.443390,-0.348501,1.444018,0.382002,-1.456841,0.616210,1.727625,0.853771,0.623477,-7.347271,1.976384,-3.869626,0.925017,0.316220,0.099873,0.187489
3.130000,-1.425379,1.022581,1.303037,1.419324,-0.974242,0.035852,-0.431195,0.412843,-0.969175,0.729860,0.976205,1.078230,1.451481,-0.342049,1.521245,0.349894,-1.556594,0.584992,1.712156,0.763918,0.666817,-7.345878,1.974048,-3.891116,0.930107,0.316883,0.097493,0.187209
3.140000,-1.424314,1.015934,1.310279,1.428121,-0.964385,0.049536,-0.435085,0.428438,-0.965839,0.713797,0.981897,1.095271,1.458668,-0.335165,1.597305,0.316699,-1.655765,0.552924,1.695257,0.672916,0.709782,-7.343654,1.970629,-3.912869,0.935633,0.317495,0.094894,0.187120
3.150000,-1.424178,1.015108,1.311216,1.429246,-0.963343,0.051009,-0.435514,0.444789,-0.962841,0.696745,0.987264,1.112135,1.464940,-0.327853,1.672117,0.282469,-1.754256,0.520033,1.676937,0.580826,0.752330,-7.340608,1.966147,-3.934869,0.941591,0.318057,0.092075,0.187219
3.160000,-1.423084,1.010100,1.316374,1.435892,-0.955623,0.061365,-0.438148,0.461881,-0.960190,0.678712,0.992298,1.128810,1.470285,-0.320118,1.745602,0.247261,-1.851972,0.486351,1.657211,0.487712,0.794420,-7.336751,1.960620,-3.957099,0.947978,0.318567,0.089037,0.187507
3.170000,-1.421168,1.002610,1.323976,1.446166,-0.944225,0.076633,-0.442199,0.479701,-0.957896,0.659706,0.996991,1.145280,1.474694,-0.311965,1.817681,0.211129,-1.948818,0.451906,1.636091,0.393637,0.836011,-7.332092,1.954067,-3.979541,0.954790,0.319024,0.085781,0.187982
3.180000,-1.421168,1.002610,1.323976,1.446166,-0.944225,0.076633,-0.442199,0.498234,-0.955967,0.639735,1.001336,1.161531,1.478158,-0.303398,1.888280,0.174132,-2.044698,0.416729,1.613594,0.298667,0.877063,-7.326642,1.946507,-4.002175,0.962022,0.319428,0.082306,0.188644
3.190000,-1.419023,0.995871,1.330352,1.455224,-0.933766,0.090241,-0.445289,0.517466,-0.954413,0.618812,1.005326,1.177551,1.480667,-0.294423,1.957322,0.136327,-2.139519,0.380853,1.589735,0.202867,0.917536,-7.320411,1.937959,-4.024982,0.969669,0.319779,0.078614,0.189492
3.200000,-1.416510,0.989118,1.336456,1.464476,-0.923335,0.103563,-0.448512,0.537381,-0.953241,0.596945,1.008953,1.193326,1.482215,-0.285047,2.024734,0.097772,-2.233188,0.344309,1.564534,0.106305,0.957389,-7.313410,1.928442,-4.047941,0.977727,0.320076,0.074704,0.190523
3.210000,-1.416510,0.989118,1.336456,1.464476,-0.923335,0.103563,-0.448512,0.557961,-0.952458,0.574148,1.012212,1.208842,1.482793,-0.275276,2.090445,0.058526,-2.325611,0.307129,1.538007,0.009050,0.996585,-7.305649,1.917976,-4.071032,0.986190,0.320318,0.070580,0.191737
3.220000,-1.413257,0.981447,1.343024,1.474737,-0.911048,0.118758,-0.451561,0.579190,-0.952070,0.550433,1.015096,1.224086,1.482396,-0.265116,2.154385,0.018650,-2.416698,0.269346,1.510177,-0.088830,1.035085,-7.297140,1.906580,-4.094231,0.995052,0.320506,0.066241,0.193132
3.230000,-1.410444,0.975476,1.348014,1.482823,-0.901831,0.129709,-0.453940,0.601049,-0.952085,0.525814,1.017599,1.239046,1.481017,-0.254574,2.216486,-0.021796,-2.506357,0.230994,1.481064,-0.187265,1.072851,-7.287894,1.894273,-4.117516,1.004308,0.320638,0.061691,0.194705
3.240000,-1.410444,0.975476,1.348014,1.482823,-0.901831,0.129709,-0.453940,0.623519,-0.952506,0.500306,1.019715,1.253707,1.478651,-0.243658,2.276681,-0.062751,-2.594501,0.192107,1.450690,-0.286184,1.109846,-7.277921,1.881075,-4.140864,1.013951,0.320715,0.056929,0.196456
3.250000,-1.405866,0.966878,1.354602,1.494071,-0.888086,0.146040,-0.456869,0.646582,-0.953340,0.473924,1.021441,1.268059,1.475293,-0.232377,2.334908,-0.104154,-2.681041,0.152719,1.419080,-0.385515,1.146035,-7.267233,1.867004,-4.164251,1.023976,0.320736,0.051959,0.198382
3.260000,-1.402843,0.961743,1.358368,1.500890,-0.879806,0.155467,-0.458726,0.670218,-0.954589,0.446685,1.022770,1.282089,1.470940,-0.220738,2.391103,-0.145944,-2.765889,0.112864,1.386258,-0.485187,1.181381,-7.255841,1.852080,-4.187651,1.034375,0.320700,0.046782,0.200480
3.270000,-1.402843,0.961743,1.358368,1.500890,-0.879806,0.155467,-0.458726,0.694404,-0.956259,0.418606,1.023698,1.295785,1.465589,-0.208749,2.445207,-0.188057,-2.848962,0.072578,1.352251,-0.585126,1.215849,-7.243757,1.836322,-4.211038,1.045143,0.320608,0.041402,0.202748
3.280000,-1.397286,0.953208,1.364187,1.512084,-0.865484,0.171724,-0.461315,0.719122,-0.958350,0.389706,1.024221,1.309134,1.459238,-0.196421,2.497163,-0.230431,-2.930175,0.031895,1.317084,-0.685260,1.249407,-7.230992,1.819748,-4.234388,1.056271,0.320460,0.035820,0.205183
3.290000,-1.394254,0.948977,1.366904,1.517768,-0.858654,0.179318,-0.462757,0.744348,-0.960867,0.360003,1.024336,1.322126,1.451884,-0.183761,2.546914,-0.273004,-3.009445,-0.009149,1.280788,-0.785514,1.282021,-7.217558,1.802379,-4.257672,1.067753,0.320254,0.030041,0.207783
3.300000,-1.392993,0.947288,1.367948,1.520016,-0.855830,0.182471,-0.463221,0.770060,-0.963811,0.329517,1.024038,1.334750,1.443528,-0.170780,2.594408,-0.315713,-3.086693,-0.050518,1.243389,-0.885814,1.313659,-7.203466,1.784232,-4.280863,1.079581,0.319991,0.024066,0.210545
3.310000,-1.386891,0.939705,1.372172,1.530135,-0.842060,0.197664,-0.465325,0.796236,-0.967181,0.298269,1.023326,1.346994,1.434168,-0.157488,2.639593,-0.358495,-3.161839,-0.092176,1.204919,-0.986085,1.344289,-7.188729,1.765326,-4.303935,1.091748,0.319671,0.017899,0.213466
3.320000,-1.384040,0.936366,1.374023,1.534700,-0.836590,0.203534,-0.466271,0.822852,-0.970980,0.266280,1.022195,1.358848,1.423806,-0.143895,2.682422,-0.401288,-3.234805,-0.134087,1.165408,-1.086252,1.373881,-7.173357,1.745680,-4.326857,1.104246,0.319293,0.011544,0.216542
3.330000,-1.381816,0.933849,1.375293,1.538050,-0.831911,0.208592,-0.466845,0.849884,-0.975207,0.233573,1.020644,1.370302,1.412443,-0.130010,2.722848,-0.444027,-3.305518,-0.176215,1.124889,-1.186240,1.402407,-7.157364,1.725311,-4.349601,1.117067,0.318858,0.005005,0.219771
3.340000,-1.373864,0.925490,1.379073,1.549328,-0.816358,0.224952,-0.468842,0.877309,-0.979861,0.200170,1.018671,1.381346,1.400081,-0.115846,2.760828,-0.486652,-3.373903,-0.218525,1.083394,-1.285972,1.429838,-7.140760,1.704239,-4.372137,1.130203,0.318365,-0.001715,0.223148
3.350000,-1.371374,0.922990,1.380178,1.552711,-0.812052,0.229370,-0.469381,0.905101,-0.984940,0.166095,1.016273,1.391970,1.386723,-0.101414,2.796320,-0.529098,-3.439889,-0.260978,1.040956,-1.385375,1.456146,-7.123558,1.682481,-4.394437,1.143646,0.317815,-0.008611,0.226670
3.360000,-1.367123,0.918811,1.381952,1.558257,-0.804611,0.236924,-0.470082,0.933235,-0.990443,0.131372,1.013451,1.402165,1.372374,-0.086724,2.829286,-0.571304,-3.503407,-0.303540,0.997611,-1.484371,1.481305,-7.105770,1.660055,-4.416469,1.157388,0.317207,-0.015679,0.230334
3.370000,-1.358872,0.911257,1.384507,1.568198,-0.790368,0.251088,-0.471329,0.961687,-0.996366,0.096026,1.010203,1.411922,1.357036,-0.071788,2.859691,-0.613207,-3.564390,-0.346174,0.953394,-1.582884,1.505291,-7.087408,1.636977,-4.438203,1.171420,0.316542,-0.022915,0.234136
3.380000,-1.357949,0.910423,1.384826,1.569303,-0.789075,0.252313,-0.471459,0.990429,-1.002707,0.060084,1.006527,1.421233,1.340716,-0.056618,2.887500,-0.654746,-3.622773,-0.388844,0.908341,-1.680839,1.528080,-7.068483,1.613267,-4.459608,1.185733,0.315819,-0.030313,0.238072
3.390000,-1.352264,0.905374,1.386505,1.575752,-0.780055,0.261005,-0.471994,1.019437,-1.009461,0.023571,1.002426,1.430089,1.323419,-0.041226,2.912684,-0.695860,-3.678493,-0.431513,0.862489,-1.778160,1.549648,-7.049010,1.588941,-4.480653,1.200320,0.315039,-0.037869,0.242138
3.400000,-1.343005,0.897769,1.388231,1.585406,-0.765751,0.274422,-0.472592,1.048683,-1.016624,-0.013486,0.997897,1.438483,1.305153,-0.025625,2.935214,-0.736487,-3.731490,-0.474146,0.815874,-1.874772,1.569974,-7.028998,1.564015,-4.501306,1.215171,0.314202,-0.045578,0.246330
3.410000,-1.341965,0.896926,1.388441,1.586474,-0.764374,0.275661,-0.472650,1.078141,-1.024191,-0.051059,0.992943,1.446407,1.285924,-0.009827,2.955065,-0.776567,-3.781707,-0.516707,0.768536,-1.970598,1.589038,-7.008461,1.538506,-4.521537,1.230277,0.313309,-0.053433,0.250644
3.420000,-1.335499,0.891813,1.389333,1.592751,-0.754713,0.284567,-0.472908,1.107784,-1.032156,-0.089120,0.987563,1.453854,1.265741,0.006156,2.972214,-0.816041,-3.829089,-0.559160,0.720513,-2.065564,1.606820,-6.987411,1.512431,-4.541312,1.245631,0.312358,-0.061431,0.255075
3.430000,-1.325027,0.884080,1.389861,1.602220,-0.740102,0.297457,-0.473330,1.137585,-1.040512,-0.127641,0.981760,1.460817,1.244613,0.022310,2.986642,-0.854849,-3.873582,-0.601469,0.671844,-2.159594,1.623302,-6.965861,1.485806,-4.560601,1.261223,0.311352,-0.069564,0.259619
3.440000,-1.325027,0.884080,1.389861,1.602220,-0.740102,0.297457,-0.473330,1.167517,-1.049253,-0.166592,0.975534,1.467290,1.222549,0.038622,2.998332,-0.892933,-3.915136,-0.643600,0.622570,-2.252615,1.638467,-6.943822,1.458647,-4.579371,1.277044,0.310289,-0.077828,0.264272
3.450000,-1.315389,0.877124,1.390090,1.610378,-0.726992,0.308739,-0.473161,1.197552,-1.058371,-0.205943,0.968888,1.473268,1.199560,0.055079,3.007269,-0.930236,-3.953705,-0.685517,0.572731,-2.344552,1.652301,-6.921307,1.430969,-4.597590,1.293086,0.309171,-0.086216,0.269030
3.460000,-1.306334,0.870945,1.389599,1.617526,-0.715429,0.318321,-0.473080,1.227662,-1.067857,-0.245666,0.961823,1.478745,1.175658,0.071668,3.013443,-0.966700,-3.989243,-0.727186,0.522367,-2.435332,1.664789,-6.898330,1.402789,-4.615226,1.309339,0.307998,-0.094721,0.273887
3.470000,-1.306334,0.870945,1.389599,1.617526,-0.715429,0.318321,-0.473080,1.257821,-1.077705,-0.285728,0.954344,1.483716,1.150854,0.088375,3.016843,-1.002270,-4.021708,-0.768572,0.471521,-2.524882,1.675917,-6.874901,1.374120,-4.632248,1.325795,0.306769,-0.103339,0.278839
3.480000,-1.294385,0.862878,1.388763,1.626454,-0.700561,0.330187,-0.472382,1.287999,-1.087903,-0.326100,0.946452,1.488175,1.125160,0.105186,3.017464,-1.036890,-4.051061,-0.809643,0.420233,-2.613129,1.685674,-6.851034,1.344978,-4.648623,1.342446,0.305487,-0.112061,0.283882
3.490000,-1.284561,0.856470,1.387516,1.633335,-0.689140,0.339022,-0.471936,1.318170,-1.098442,-0.366749,0.938151,1.492120,1.098591,0.122088,3.015303,-1.070508,-4.077267,-0.850363,0.368546,-2.700002,1.694051,-6.826741,1.315378,-4.664320,1.359282,0.304150,-0.120882,0.289011
3.500000,-1.284561,0.856470,1.387516,1.633335,-0.689140,0.339022,-0.471936,1.348305,-1.109313,-0.407645,0.929445,1.495546,1.071160,0.139067,3.010360,-1.103069,-4.100292,-0.890700,0.316502,-2.785430,1.701037,-6.802036,1.285334,-4.679308,1.376294,0.302760,-0.129795,0.294221
3.510000,-1.270063,0.847109,1.385219,1.642831,-0.672180,0.351709,-0.470600,1.378377,-1.120504,-0.448755,0.920337,1.498450,1.042882,0.156109,3.002637,-1.134523,-4.120104,-0.930622,0.264143,-2.869343,1.706626,-6.776931,1.254861,-4.693554,1.393475,0.301318,-0.138792,0.299507
3.520000,-1.262420,0.842322,1.383606,1.647549,-0.663905,0.357632,-0.469946,1.408358,-1.132003,-0.490047,0.910832,1.500829,1.013773,0.173200,2.992139,-1.164818,-4.136678,-0.970096,0.211513,-2.951672,1.710810,-6.751438,1.223971,-4.707029,1.410815,0.299823,-0.147867,0.304865
3.530000,-1.260877,0.841357,1.383272,1.648488,-0.662253,0.358764,-0.469802,1.438220,-1.143800,-0.531489,0.900935,1.502681,0.983849,0.190325,2.978874,-1.193904,-4.149989,-1.009091,0.158655,-3.032348,1.713586,-6.725571,1.192680,-4.719702,1.428307,0.298277,-0.157013,0.310289
3.540000,-1.246662,0.832520,1.379805,1.656710,-0.646416,0.369675,-0.467772,1.467935,-1.155881,-0.573047,0.890650,1.504002,0.953126,0.207472,2.962852,-1.221735,-4.160015,-1.047575,0.105612,-3.111305,1.714949,-6.699343,1.161000,-4.731541,1.445942,0.296681,-0.166222,0.315776
3.550000,-1.238395,0.827487,1.377416,1.661241,-0.638135,0.375222,-0.466744,1.497477,-1.168235,-0.614689,0.879984,1.504793,0.921623,0.224624,2.944087,-1.248263,-4.166738,-1.085518,0.052427,-3.188475,1.714898,-6.672766,1.128945,-4.742518,1.463711,0.295034,-0.175487,0.321319
3.560000,-1.235044,0.825450,1.376414,1.663045,-0.634732,0.377368,-0.466275,1.526817,-1.180847,-0.656382,0.868940,1.505051,0.889357,0.241770,2.922595,-1.273442,-4.170144,-1.122890,-0.000858,-3.263794,1.713430,-6.645854,1.096528,-4.752603,1.481607,0.293338,-0.184800,0.326914
3.570000,-1.219126,0.816003,1.370676,1.671032,-0.618585,0.387745,-0.463983,1.555929,-1.193704,-0.698092,0.857526,1.504776,0.856347,0.258893,2.898395,-1.297229,-4.170220,-1.159662,-0.054197,-3.337199,1.710548,-6.618620,1.063761,-4.761767,1.499622,0.291594,-0.194155,0.332557
3.580000,-1.210123,0.810627,1.367359,1.675414,-0.610451,0.392435,-0.462628,1.584785,-1.206791,-0.739786,0.845747,1.503967,0.822613,0.275981,2.871507,-1.319580,-4.166958,-1.195805,-0.107548,-3.408625,1.706253,-6.591078,1.030658,-4.769981,1.517748,0.289802,-0.203543,0.338242
3.590000,-1.204757,0.807363,1.365434,1.678001,-0.605502,0.395112,-0.461653,1.613359,-1.220095,-0.781431,0.833610,1.502625,0.788175,0.293018,2.841956,-1.340455,-4.160352,-1.231290,-0.160868,-3.478012,1.700549,-6.563240,0.997230,-4.777219,1.535977,0.287963,-0.212956,0.343965
3.600000,-1.185956,0.796070,1.357624,1.686472,-0.588146,0.404811,-0.458444,1.641624,-1.233600,-0.822993,0.821121,1.500750,0.753053,0.309992,2.809769,-1.359813,-4.150399,-1.266091,-0.214114,-3.545300,1.693439,-6.535120,0.963491,-4.783453,1.554302,0.286079,-0.222388,0.349720
3.610000,-1.180404,0.792627,1.355433,1.688945,-0.583349,0.407138,-0.457297,1.669554,-1.247291,-0.864439,0.808288,1.498342,0.717269,0.326887,2.774974,-1.377618,-4.137102,-1.300180,-0.267243,-3.610430,1.684930,-6.506731,0.929451,-4.788656,1.572715,0.284149,-0.231829,0.355503
3.620000,-1.171294,0.786828,1.351944,1.692987,-0.575454,0.410886,-0.455381,1.697124,-1.261153,-0.905735,0.795117,1.495405,0.680844,0.343690,2.737603,-1.393832,-4.120464,-1.333533,-0.320211,-3.673344,1.675029,-6.478087,0.895124,-4.792803,1.591210,0.282176,-0.241273,0.361309
3.630000,-1.154515,0.776093,1.344900,1.700041,-0.560510,0.418400,-0.451758,1.724306,-1.275168,-0.946848,0.781617,1.491938,0.643802,0.360387,2.697690,-1.408420,-4.100493,-1.366122,-0.372977,-3.733987,1.663746,-6.449203,0.860521,-4.795870,1.609780,0.280160,-0.250711,0.367134
3.640000,-1.150850,0.773688,1.343424,1.701591,-0.557698,0.419553,-0.451078,1.751077,-1.289321,-0.987745,0.767795,1.487945,0.606164,0.376965,2.655271,-1.421350,-4.077198,-1.397924,-0.425497,-3.792304,1.651090,-6.420090,0.825654,-4.797831,1.628417,0.278103,-0.260135,0.372972
