123yjm/Brainco_identification/data/revoarm_filtered_data_condnum_56.12_0618.csv
time,q0,q1,q2,q3,q4,q5,q6,qd0,qd1,qd2,qd3,qd4,qd5,qd6,qdd0,qdd1,qdd2,qdd3,qdd4,qdd5,qdd6,tau0,tau1,tau2,tau3,tau4,tau5,tau6
0.000000,-1.399418,0.134390,-0.000417,-0.040944,-1.724313,-0.009894,-0.000108,0.002526,-0.000812,0.002255,0.000185,-0.000053,-0.000060,-0.000661,0.000000,0.000000,0.000000,0.000000,0.000000,0.000000,0.000000,-10.072306,1.566729,0.022701,4.097738,-0.006926,0.495092,0.003758
0.010000,-1.399418,0.134390,-0.000417,-0.040944,-1.724313,-0.009894,-0.000108,0.002445,-0.000866,0.001762,0.000082,-0.000052,-0.000103,-0.000782,-0.008948,-0.004772,-0.054168,-0.010901,-0.000240,-0.003953,-0.011243,-10.071730,1.566438,0.022307,4.097727,-0.006936,0.495085,0.004161
0.020000,-1.399398,0.134385,-0.000417,-0.040945,-1.724313,-0.009894,-0.000108,0.002347,-0.000907,0.001172,-0.000033,-0.000058,-0.000140,-0.000886,-0.010624,-0.003147,-0.055972,-0.010667,-0.001446,-0.003129,-0.010194,-10.070810,1.566014,0.021883,4.097718,-0.006945,0.495070,0.004665
0.030000,-1.399391,0.134383,-0.000417,-0.040945,-1.724313,-0.009894,-0.000108,0.002233,-0.000929,0.000643,-0.000132,-0.000081,-0.000165,-0.000986,-0.012131,-0.000733,-0.041629,-0.007674,-0.003705,-0.001800,-0.010273,-10.070329,1.565791,0.021635,4.098039,-0.006961,0.495071,0.005126
0.040000,-1.399381,0.134380,-0.000417,-0.040945,-1.724313,-0.009894,-0.000108,0.002105,-0.000922,0.000339,-0.000187,-0.000132,-0.000176,-0.001092,-0.013162,0.002348,-0.010739,-0.001859,-0.006867,-0.000011,-0.011352,-10.071085,1.566102,0.021770,4.099003,-0.006990,0.495110,0.005390
0.050000,-1.399357,0.134374,-0.000410,-0.040944,-1.724314,-0.009894,-0.000110,0.001969,-0.000882,0.000428,-0.000169,-0.000218,-0.000166,-0.001213,-0.013500,0.005880,0.036717,0.006721,-0.010734,0.002142,-0.013506,-10.073863,1.567276,0.022483,4.100896,-0.007039,0.495209,0.005296
0.060000,-1.399352,0.134372,-0.000408,-0.040944,-1.724315,-0.009894,-0.000111,0.001835,-0.000804,0.001074,-0.000052,-0.000346,-0.000133,-0.001362,-0.013075,0.009555,0.100428,0.017882,-0.015082,0.004510,-0.017085,-10.079423,1.569633,0.023951,4.103971,-0.007114,0.495388,0.004689
0.070000,-1.399341,0.134369,-0.000399,-0.040942,-1.724316,-0.009894,-0.000114,0.001708,-0.000691,0.002437,0.000189,-0.000520,-0.000075,-0.001555,-0.012026,0.012991,0.179770,0.031308,-0.019688,0.006896,-0.022759,-10.088480,1.573482,0.026330,4.108450,-0.007218,0.495670,0.003417
0.080000,-1.399322,0.134363,-0.000351,-0.040936,-1.724320,-0.009895,-0.000127,0.001594,-0.000545,0.004669,0.000574,-0.000740,0.000005,-0.001817,-0.010741,0.015763,0.273800,0.046552,-0.024343,0.009066,-0.031523,-10.101702,1.579129,0.029749,4.114523,-0.007354,0.496074,0.001350
0.090000,-1.399320,0.134363,-0.000343,-0.040935,-1.724320,-0.009895,-0.000129,0.001493,-0.000375,0.007913,0.001120,-0.001007,0.000106,-0.002185,-0.009900,0.017436,0.381236,0.063050,-0.028875,0.010769,-0.044658,-10.119693,1.586878,0.034308,4.122357,-0.007525,0.496625,-0.001621
0.100000,-1.399308,0.134359,-0.000267,-0.040924,-1.724327,-0.009895,-0.000149,0.001396,-0.000196,0.012294,0.001835,-0.001318,0.000221,-0.002710,-0.010480,0.017623,0.500419,0.080129,-0.033164,0.011756,-0.063642,-10.143000,1.597038,0.040078,4.132104,-0.007732,0.497348,-0.005572
0.110000,-1.399297,0.134354,-0.000090,-0.040902,-1.724343,-0.009895,-0.000192,0.001283,-0.000023,0.017921,0.002722,-0.001670,0.000341,-0.003458,-0.013748,0.016038,0.629275,0.097041,-0.037141,0.011811,-0.090023,-10.172099,1.609925,0.047101,4.143916,-0.007973,0.498271,-0.010539
0.120000,-1.399297,0.134354,-0.000090,-0.040902,-1.724343,-0.009895,-0.000192,0.001121,0.000125,0.024879,0.003776,-0.002061,0.000457,-0.004511,-0.021222,0.012556,0.765296,0.112994,-0.040792,0.010778,-0.125254,-10.207393,1.625866,0.055394,4.157955,-0.008248,0.499428,-0.016516
0.130000,-1.399292,0.134350,0.000138,-0.040871,-1.724362,-0.009895,-0.000248,0.000859,0.000228,0.033227,0.004982,-0.002486,0.000557,-0.005963,-0.034610,0.007273,0.905550,0.127202,-0.044145,0.008590,-0.170513,-10.249207,1.645203,0.064946,4.174403,-0.008554,0.500856,-0.023443
0.140000,-1.399294,0.134347,0.000481,-0.040825,-1.724387,-0.009893,-0.000330,0.000429,0.000270,0.042990,0.006320,-0.002943,0.000629,-0.007921,-0.055718,0.000556,1.046742,0.138936,-0.047252,0.005288,-0.226515,-10.297781,1.668282,0.075728,4.193476,-0.008889,0.502592,-0.031210
0.150000,-1.399294,0.134347,0.000481,-0.040825,-1.724387,-0.009893,-0.000330,-0.000255,0.000239,0.054162,0.007761,-0.003431,0.000662,-0.010494,-0.086348,-0.006926,1.185329,0.147589,-0.050168,0.001042,-0.293357,-10.353260,1.695455,0.087693,4.215424,-0.009248,0.504681,-0.039659
0.160000,-1.399307,0.134345,0.001003,-0.040752,-1.724421,-0.009889,-0.000457,-0.001298,0.000132,0.066697,0.009272,-0.003947,0.000649,-0.013788,-0.128174,-0.014183,1.317708,0.152739,-0.052921,-0.003852,-0.370395,-10.415690,1.727066,0.100781,4.240533,-0.009628,0.507164,-0.048583
0.170000,-1.399328,0.134345,0.001546,-0.040676,-1.724454,-0.009884,-0.000588,-0.002819,-0.000044,0.080516,0.010816,-0.004489,0.000585,-0.017901,-0.182624,-0.019918,1.440466,0.154210,-0.055490,-0.008980,-0.456194,-10.485014,1.763443,0.114922,4.269127,-0.010024,0.510085,-0.057740
0.180000,-1.399328,0.134345,0.001546,-0.040676,-1.724454,-0.009884,-0.000588,-0.004951,-0.000267,0.095506,0.012356,-0.005057,0.000470,-0.022912,-0.250758,-0.022563,1.550680,0.152136,-0.057780,-0.013835,-0.548557,-10.561065,1.804884,0.130045,4.301553,-0.010430,0.513482,-0.066859
0.190000,-1.399385,0.134346,0.002498,-0.040542,-1.724509,-0.009875,-0.000823,-0.007834,-0.000496,0.111530,0.013858,-0.005645,0.000309,-0.028873,-0.333166,-0.020351,1.646256,0.147007,-0.059606,-0.017861,-0.644643,-10.643574,1.851643,0.146075,4.338174,-0.010843,0.517391,-0.075660
0.200000,-1.399451,0.134348,0.003218,-0.040454,-1.724547,-0.009870,-0.001000,-0.011614,-0.000674,0.128431,0.015296,-0.006249,0.000113,-0.035805,-0.429885,-0.011401,1.726265,0.139708,-0.060692,-0.020497,-0.741174,-10.732177,1.903920,0.162943,4.379350,-0.011256,0.521839,-0.083862
0.210000,-1.399451,0.134348,0.003218,-0.040454,-1.724547,-0.009870,-0.001000,-0.016432,-0.000724,0.146055,0.016653,-0.006859,-0.000101,-0.043696,-0.540349,0.006164,1.791247,0.131538,-0.060674,-0.021243,-0.834708,-10.826424,1.961849,0.180586,4.425418,-0.011666,0.526850,-0.091209
0.220000,-1.399640,0.134355,0.004684,-0.040294,-1.724618,-0.009866,-0.001435,-0.022421,-0.000550,0.164256,0.017927,-0.007462,-0.000312,-0.052499,-0.663369,0.034098,1.843430,0.124215,-0.059123,-0.019717,-0.921962,-10.925803,2.025491,0.198951,4.476673,-0.012067,0.532438,-0.097477
0.230000,-1.399784,0.134360,0.005567,-0.040207,-1.724656,-0.009866,-0.001717,-0.029699,-0.000042,0.182923,0.019137,-0.008041,-0.000496,-0.062135,-0.797154,0.073907,1.886826,0.119841,-0.055586,-0.015708,-1.000151,-11.029760,2.094832,0.217993,4.533339,-0.012457,0.538609,-0.102493
0.240000,-1.399852,0.134362,0.005941,-0.040170,-1.724671,-0.009866,-0.001839,-0.038364,0.000928,0.201993,0.020324,-0.008574,-0.000626,-0.072502,-0.939368,0.126741,1.927173,0.120850,-0.049630,-0.009221,-1.067286,-11.137730,2.169780,0.237680,4.595554,-0.012834,0.545366,-0.106145
0.250000,-1.400244,0.134386,0.007870,-0.039988,-1.724748,-0.009870,-0.002610,-0.048486,0.002493,0.221467,0.021554,-0.009034,-0.000680,-0.083481,-1.087229,0.193298,1.971676,0.129909,-0.040901,-0.000500,-1.122418,-11.249163,2.250173,0.257987,4.663340,-0.013200,0.552708,-0.108386
0.260000,-1.400472,0.134401,0.008838,-0.039898,-1.724783,-0.009871,-0.002972,-0.060108,0.004794,0.241426,0.022922,-0.009392,-0.000636,-0.094950,-1.237636,0.273772,2.028572,0.149794,-0.029191,0.009969,-1.165777,-11.363558,2.335788,0.278895,4.736587,-0.013557,0.560632,-0.109236
0.270000,-1.400734,0.134422,0.009851,-0.039801,-1.724817,-0.009873,-0.003370,-0.073239,0.007969,0.262038,0.024550,-0.009618,-0.000481,-0.106797,-1.387341,0.367832,2.106502,0.183217,-0.014491,0.021491,-1.198787,-11.480486,2.426349,0.300383,4.815044,-0.013911,0.569140,-0.108776
0.280000,-1.401473,0.134519,0.012459,-0.039552,-1.724901,-0.009880,-0.004588,-0.087855,0.012150,0.283556,0.026586,-0.009682,-0.000207,-0.118926,-1.533128,0.474646,2.213754,0.232636,0.002954,0.033214,-1.223958,-11.599612,2.521539,0.322425,4.898300,-0.014270,0.578238,-0.107145
0.290000,-1.401769,0.134563,0.013384,-0.039459,-1.724927,-0.009882,-0.004964,-0.103902,0.017462,0.306313,0.029202,-0.009559,0.000184,-0.131276,-1.672020,0.592937,2.357421,0.300038,0.022615,0.044212,-1.244646,-11.720710,2.621018,0.344982,4.985795,-0.014646,0.587941,-0.104523
0.300000,-1.402205,0.134637,0.014656,-0.039325,-1.724962,-0.009883,-0.005514,-0.121296,0.024009,0.330705,0.032587,-0.009229,0.000678,-0.143819,-1.801478,0.721089,2.542551,0.386729,0.043675,0.053589,-1.264710,-11.843666,2.724428,0.367994,5.076820,-0.015051,0.598272,-0.101113
0.310000,-1.403517,0.134929,0.018187,-0.038935,-1.725049,-0.009884,-0.007236,-0.139931,0.031883,0.357164,0.036937,-0.008685,0.001255,-0.156570,-1.919591,0.857259,2.771372,0.493142,0.065052,0.060598,-1.288091,-11.968472,2.831409,0.391375,5.170540,-0.015499,0.609266,-0.097134
0.320000,-1.403821,0.135003,0.018937,-0.038847,-1.725064,-0.009883,-0.007554,-0.159688,0.041154,0.386132,0.042450,-0.007928,0.001890,-0.169581,-2.025234,0.999516,3.042675,0.618691,0.085466,0.064764,-1.318344,-12.095209,2.941596,0.415006,5.266019,-0.016002,0.620965,-0.092796
0.330000,-1.404646,0.135225,0.020908,-0.038611,-1.725104,-0.009879,-0.008471,-0.180436,0.051874,0.418018,0.049311,-0.006976,0.002551,-0.182937,-2.118186,1.145971,3.351418,0.761689,0.103535,0.065995,-1.358184,-12.224022,3.054628,0.438731,5.362257,-0.016570,0.633419,-0.088289
0.340000,-1.406390,0.135778,0.025105,-0.038113,-1.725175,-0.009865,-0.010513,-0.202051,0.064074,0.453161,0.057683,-0.005858,0.003210,-0.196745,-2.199175,1.294903,3.688622,0.919357,0.117907,0.064677,-1.409075,-12.355086,3.170143,0.462359,5.458232,-0.017210,0.646677,-0.083770
0.350000,-1.406824,0.135922,0.026060,-0.037990,-1.725187,-0.009860,-0.010900,-0.224420,0.077772,0.491790,0.067698,-0.004618,0.003844,-0.211118,-2.269862,1.444851,4.041590,1.087930,0.127426,0.061723,-1.470931,-12.488564,3.287770,0.485662,5.552942,-0.017920,0.660783,-0.079353
0.360000,-1.408234,0.136423,0.029030,-0.037592,-1.725223,-0.009840,-0.012210,-0.247448,0.092971,0.533992,0.079442,-0.003309,0.004444,-0.226163,-2.332740,1.594681,4.394470,1.262855,0.131298,0.058589,-1.541962,-12.624559,3.407119,0.508375,5.645450,-0.018691,0.675768,-0.075108
0.370000,-1.410656,0.137387,0.034448,-0.036862,-1.725269,-0.009798,-0.014576,-0.271074,0.109665,0.579680,0.092955,-0.001992,0.005016,-0.241958,-2.390950,1.743614,4.729155,1.439073,0.129264,0.057223,-1.618704,-12.763079,3.527771,0.530204,5.734921,-0.019506,0.691640,-0.071055
0.380000,-1.410947,0.137508,0.035048,-0.036768,-1.725272,-0.009792,-0.014806,-0.295267,0.127843,0.628576,0.108224,-0.000724,0.005588,-0.258537,-2.448048,1.891214,5.026488,1.611364,0.121749,0.059960,-1.696248,-12.903991,3.649265,0.550834,5.820650,-0.020334,0.708378,-0.067170
0.390000,-1.413094,0.138457,0.039220,-0.035994,-1.725285,-0.009746,-0.016554,-0.320035,0.147490,0.680210,0.125182,0.000443,0.006215,-0.275882,-2.507709,2.037337,5.267699,1.774700,0.109965,0.069357,-1.768654,-13.046994,3.771088,0.569938,5.902082,-0.021139,0.725923,-0.063389
0.400000,-1.416165,0.139966,0.045803,-0.034684,-1.725293,-0.009668,-0.019257,-0.345422,0.168590,0.733930,0.143718,0.001475,0.006976,-0.293910,-2.573423,2.182062,5.435975,1.924597,0.095956,0.087982,-1.829521,-13.191603,3.892669,0.587188,5.978820,-0.021872,0.744172,-0.059620
0.410000,-1.416165,0.139966,0.045803,-0.034684,-1.725293,-0.009668,-0.019257,-0.371504,0.191131,0.788929,0.163674,0.002362,0.007975,-0.312473,-2.648202,2.325592,5.518018,2.057408,0.082561,0.118165,-1.872650,-13.337150,4.013385,0.602279,6.050617,-0.022482,0.762977,-0.055753
0.420000,-1.419237,0.141582,0.051564,-0.033298,-1.725270,-0.009574,-0.021605,-0.398386,0.215102,0.844290,0.184866,0.003127,0.009339,-0.331363,-2.734321,2.468157,5.505450,2.170542,0.073286,0.161742,-1.892731,-13.482803,4.132563,0.614942,6.117367,-0.022914,0.782145,-0.051672
0.430000,-1.421748,0.143001,0.057120,-0.032045,-1.725253,-0.009490,-0.023761,-0.426190,0.240494,0.899038,0.207085,0.003828,0.011210,-0.350328,-2.833137,2.609933,5.395876,2.262596,0.072089,0.219803,-1.885964,-13.627599,4.249504,0.624966,6.179084,-0.023116,0.801440,-0.047270
0.440000,-1.421748,0.143001,0.057120,-0.032045,-1.725253,-0.009490,-0.023761,-0.455048,0.267300,0.952207,0.230118,0.004568,0.013735,-0.369083,-2.944978,2.750967,5.193500,2.333394,0.083066,0.292492,-1.850557,-13.770493,4.363505,0.632216,6.235879,-0.023046,0.820596,-0.042458
0.450000,-1.425912,0.145465,0.065878,-0.029913,-1.725187,-0.009333,-0.027029,-0.485090,0.295513,1.002908,0.253753,0.005490,0.017059,-0.387339,-3.069128,2.891152,4.909189,2.383953,0.110076,0.378863,-1.787023,-13.910417,4.473885,0.636651,6.287941,-0.022674,0.839327,-0.037174
0.460000,-1.429498,0.147706,0.073333,-0.028000,-1.725100,-0.009185,-0.029850,-0.516431,0.325123,1.050391,0.277797,0.006770,0.021312,-0.404823,-3.203893,3.030219,4.559981,2.416376,0.156318,0.476842,-1.698265,-14.046340,4.580020,0.638332,6.335508,-0.021991,0.857344,-0.031393
0.470000,-1.429498,0.147706,0.073333,-0.028000,-1.725100,-0.009185,-0.029850,-0.549168,0.356118,1.094108,0.302080,0.008616,0.026596,-0.421304,-3.346739,3.167763,4.168087,2.433699,0.223895,0.583276,-1.589431,-14.177326,4.681369,0.637424,6.378850,-0.021009,0.874367,-0.025127
0.480000,-1.434582,0.151009,0.082490,-0.025246,-1.724960,-0.008956,-0.033451,-0.583366,0.388479,1.133753,0.326471,0.011248,0.032978,-0.436612,-3.494483,3.303295,3.759475,2.439700,0.313420,0.694107,-1.467556,-14.302581,4.777498,0.634198,6.418248,-0.019766,0.890149,-0.018426
0.490000,-1.438281,0.153508,0.089262,-0.023196,-1.724839,-0.008747,-0.036109,-0.619057,0.422184,1.169297,0.350875,0.014884,0.040478,-0.450655,-3.643516,3.436298,3.362129,2.438691,0.423713,0.804639,-1.341030,-14.421484,4.868096,0.629010,6.453975,-0.018328,0.904486,-0.011375
0.500000,-1.438281,0.153508,0.089262,-0.023196,-1.724839,-0.008747,-0.036109,-0.656236,0.457205,1.200996,0.375244,0.019722,0.049071,-0.463432,-3.790051,3.566290,3.004086,2.435277,0.551629,0.909876,-1.218922,-14.533604,4.952978,0.622287,6.486278,-0.016780,0.917235,-0.004088
0.510000,-1.445011,0.158211,0.100938,-0.019396,-1.724576,-0.008245,-0.040693,-0.694858,0.493509,1.229379,0.399580,0.025917,0.058676,-0.475034,-3.930361,3.692870,2.711337,2.434120,0.692078,1.004912,-1.110218,-14.638692,5.032074,0.614493,6.515362,-0.015225,0.928313,0.003304
0.520000,-1.448664,0.160831,0.107228,-0.017327,-1.724410,-0.007885,-0.043087,-0.734843,0.531062,1.255222,0.423927,0.033564,0.069169,-0.485637,-4.061011,3.815752,2.505694,2.439678,0.838244,1.085318,-1.023031,-14.736654,5.105412,0.606100,6.541368,-0.013778,0.937709,0.010661
0.530000,-1.450172,0.161930,0.109696,-0.016450,-1.724336,-0.007750,-0.044049,-0.776078,0.569824,1.279493,0.448374,0.042682,0.080382,-0.495494,-4.179061,3.934767,2.402787,2.455944,0.982026,1.147493,-0.963847,-14.827512,5.173082,0.597545,6.564360,-0.012550,0.945474,0.017847
0.540000,-1.457331,0.167275,0.122636,-0.012210,-1.724715,-0.006954,-0.048820,-0.818425,0.609757,1.303278,0.473046,0.053204,0.092119,-0.504914,-4.282231,4.049840,2.410349,2.486182,1.114668,1.188945,-0.936873,-14.911343,5.235199,0.589200,6.584302,-0.011640,0.951713,0.024738
0.550000,-1.460754,0.169843,0.128056,-0.010263,-1.724500,-0.006493,-0.050827,-0.861723,0.650821,1.327700,0.498097,0.064975,0.104161,-0.514232,-4.369020,4.160933,2.527009,2.532677,1.227536,1.208471,-0.943562,-14.988216,5.291856,0.581337,6.601053,-0.011128,0.956572,0.031233
0.560000,-1.462502,0.171178,0.130624,-0.009229,-1.724376,-0.006296,-0.051850,-0.905805,0.692976,1.353818,0.523699,0.077755,0.116288,-0.523785,-4.438765,4.267970,2.741797,2.596514,1.312944,1.206240,-0.982357,-15.058124,5.343077,0.574106,6.614350,-0.011060,0.960222,0.037257
0.570000,-1.471715,0.178413,0.146587,-0.003607,-1.724437,-0.005144,-0.057812,-0.950498,0.736181,1.382536,0.550028,0.091234,0.128286,-0.533879,-4.491647,4.370744,3.034536,2.677415,1.364968,1.183749,-1.048711,-15.120917,5.388773,0.567522,6.623810,-0.011446,0.962838,0.042763
0.580000,-1.474677,0.180727,0.150731,-0.001887,-1.724068,-0.004745,-0.059364,-0.995638,0.780391,1.414509,0.577248,0.105054,0.139963,-0.544759,-4.528626,4.468828,3.377204,2.773646,1.380125,1.143695,-1.135395,-15.176244,5.428704,0.561469,6.628934,-0.012256,0.964581,0.047733
0.590000,-1.478722,0.183933,0.155848,0.000527,-1.723655,-0.004268,-0.061524,-1.041071,0.825557,1.450080,0.605500,0.118837,0.151160,-0.556587,-4.551312,4.561489,3.736247,2.882034,1.357858,1.089740,-1.233083,-15.223512,5.462460,0.555717,6.629121,-0.013419,0.965584,0.052169
0.600000,-1.488294,0.191711,0.170341,0.006388,-1.723278,-0.002946,-0.067077,-1.086664,0.871621,1.489234,0.634888,0.132211,0.161758,-0.569421,-4.561782,4.647634,4.075665,2.998094,1.300774,1.026228,-1.331177,-15.261862,5.489443,0.549951,6.623693,-0.014834,0.965936,0.056086
0.610000,-1.490546,0.193518,0.173242,0.007675,-1.722977,-0.002587,-0.068176,-1.132307,0.918510,1.531593,0.665462,0.144852,0.171684,-0.583210,-4.562349,4.725791,4.360555,3.116278,1.214616,0.957841,-1.418794,-15.290168,5.508886,0.543816,6.611929,-0.016373,0.965675,0.059504
0.620000,-1.496265,0.198198,0.180457,0.011144,-1.722328,-0.001838,-0.071021,-1.177911,0.966136,1.576445,0.697214,0.156504,0.180915,-0.597797,-4.555311,4.794129,4.560682,3.230321,1.107947,0.889252,-1.485828,-15.307068,5.519875,0.536962,6.593112,-0.017896,0.964783,0.062435
0.630000,-1.507071,0.207282,0.197022,0.017907,-1.721441,-0.000302,-0.077009,-1.223413,1.014392,1.622807,0.730069,0.167011,0.189469,-0.612927,-4.542709,4.850535,4.653629,3.333680,0.991580,0.824792,-1.523952,-15.311020,5.521404,0.529086,6.566583,-0.019262,0.963188,0.064873
0.640000,-1.508331,0.208326,0.198661,0.018646,-1.721227,-0.000102,-0.077606,-1.268765,1.063147,1.669518,0.763887,0.176335,0.197411,-0.628276,-4.526111,4.892736,4.627099,3.420003,0.877775,0.768163,-1.527479,-15.300377,5.512442,0.519981,6.531791,-0.020347,0.960768,0.066793
0.650000,-1.516003,0.214782,0.208296,0.023365,-1.720162,0.000896,-0.081275,-1.313935,1.112247,1.715349,0.798469,0.184566,0.204833,-0.643476,-4.506456,4.918461,4.480081,3.483613,0.779259,0.722216,-1.493953,-15.273487,5.492009,0.509553,6.488348,-0.021052,0.957367,0.068145
0.660000,-1.528058,0.225200,0.226114,0.031012,-1.718777,0.002713,-0.087623,-1.358894,1.161516,1.759119,0.833560,0.191921,0.211855,-0.658155,-4.483966,4.925635,4.222747,3.519955,0.708156,0.688814,-1.424428,-15.228801,5.459256,0.497837,6.436071,-0.021318,0.952801,0.068860
0.670000,-1.528058,0.225200,0.226114,0.031012,-1.718777,0.002713,-0.087623,-1.403614,1.210760,1.799804,0.868868,0.198730,0.218609,-0.671965,-4.458143,4.912583,3.875122,3.525972,0.674894,0.668766,-1.323390,-15.164983,5.413551,0.484983,6.375007,-0.021136,0.946882,0.068858
0.680000,-1.537943,0.233708,0.238112,0.037155,-1.717811,0.004035,-0.092060,-1.448057,1.259768,1.836622,0.904079,0.205418,0.225230,-0.684622,-4.427838,4.878228,3.464742,3.500385,0.687216,0.661840,-1.198332,-15.081011,5.354546,0.471232,6.305444,-0.020545,0.939431,0.068065
0.690000,-1.551208,0.245442,0.256523,0.045689,-1.716718,0.006130,-0.098717,-1.492171,1.308324,1.869098,0.938876,0.212474,0.231846,-0.695931,-4.391385,4.822263,3.023648,3.443862,0.749345,0.666826,-1.059027,-14.976269,5.282233,0.456875,6.227904,-0.019638,0.930294,0.066429
0.700000,-1.551208,0.245442,0.256523,0.045689,-1.716718,0.006130,-0.098717,-1.535885,1.356213,1.897095,0.972956,0.220405,0.238567,-0.705803,-4.346774,4.745269,2.585085,3.359049,0.861386,0.681652,-0.916586,-14.850612,5.196984,0.442209,6.143121,-0.018558,0.919361,0.063935
0.710000,-1.565134,0.257865,0.274563,0.054708,-1.715635,0.008277,-0.105189,-1.579107,1.403230,1.920800,1.006057,0.229702,0.245479,-0.714263,-4.291859,4.648775,2.180336,3.250471,1.019010,0.703537,-0.782382,-14.704407,5.099568,0.427489,6.051996,-0.017486,0.906572,0.060622
0.720000,-1.576478,0.267968,0.287757,0.061899,-1.713331,0.010136,-0.110203,-1.621722,1.449189,1.940701,1.037966,0.240786,0.252637,-0.721451,-4.224551,4.535234,1.835999,3.124293,1.213450,0.729183,-0.666976,-14.538542,4.991141,0.412897,5.955555,-0.016631,0.891934,0.056583
0.730000,-1.576478,0.267968,0.287757,0.061899,-1.713331,0.010136,-0.110203,-1.663598,1.493934,1.957520,1.068542,0.253971,0.260063,-0.727603,-4.143008,4.407928,1.571971,2.987940,1.431888,0.755021,-0.579134,-14.354406,4.873222,0.398517,5.854895,-0.016215,0.875516,0.051975
0.740000,-1.593287,0.283004,0.305888,0.072647,-1.711796,0.012468,-0.117098,-1.704582,1.537347,1.972141,1.097725,0.269423,0.267738,-0.733033,-4.045800,4.270789,1.400215,2.849604,1.658234,0.777495,-0.525046,-14.153832,4.747638,0.384329,5.751123,-0.016451,0.857460,0.046998
0.750000,-1.603720,0.292438,0.317724,0.079367,-1.710215,0.014152,-0.121426,-1.744514,1.579350,1.985524,1.125535,0.287135,0.275612,-0.738104,-3.932037,4.128166,1.324347,2.717655,1.874303,0.793387,-0.507810,-13.939012,4.616451,0.370225,5.645300,-0.017523,0.837968,0.041886
0.760000,-1.605482,0.294033,0.319660,0.080509,-1.709963,0.014405,-0.122136,-1.783223,1.619911,1.998628,1.152078,0.306909,0.283606,-0.743190,-3.801463,3.984546,1.339939,2.600009,2.061297,0.800128,-0.527220,-13.712384,4.481866,0.356026,5.538379,-0.019563,0.817303,0.036883
0.770000,-1.623468,0.310474,0.341034,0.092229,-1.708523,0.017229,-0.129521,-1.820543,1.659041,2.012323,1.177535,0.328361,0.291615,-0.748648,-3.654506,3.844258,1.435451,2.503511,2.201432,0.796058,-0.579855,-13.476500,4.346124,0.341526,5.431154,-0.022626,0.795772,0.032214
0.780000,-1.632730,0.318926,0.351114,0.098209,-1.706628,0.018684,-0.133257,-1.856313,1.696796,2.027337,1.202148,0.350938,0.299527,-0.754787,-3.492267,3.711192,1.593658,2.433405,2.279545,0.780557,-0.659456,-13.233887,4.211396,0.326520,5.324215,-0.026673,0.773712,0.028061
0.790000,-1.638352,0.324056,0.356960,0.101853,-1.705691,0.019481,-0.135422,-1.890388,1.733265,2.044196,1.226203,0.373952,0.307226,-0.761837,-3.316460,3.588550,1.793470,2.392954,2.284477,0.754028,-0.757533,-12.986906,4.079671,0.310848,5.217913,-0.031563,0.751471,0.024543
0.800000,-1.655422,0.339954,0.376931,0.113313,-1.704534,0.022297,-0.142163,-1.922642,1.768567,2.063206,1.250007,0.396628,0.314607,-0.769937,-3.129296,3.478663,2.012016,2.383251,2.210128,0.717695,-0.864147,-12.737628,3.952659,0.294429,5.112345,-0.037040,0.729384,0.021691
0.810000,-1.663229,0.347111,0.385002,0.118300,-1.702546,0.023749,-0.145267,-1.952974,1.802838,2.084437,1.273868,0.418155,0.321580,-0.779120,-2.933322,3.382887,2.226818,2.403241,2.056087,0.673279,-0.968799,-12.487728,3.831717,0.277281,5.007367,-0.042750,0.707754,0.019447
0.820000,-1.671064,0.354347,0.392881,0.123476,-1.701131,0.024872,-0.148229,-1.981309,1.836225,2.107742,1.298072,0.437749,0.328073,-0.789313,-2.731240,3.301590,2.417873,2.449942,1.827818,0.622583,-1.061344,-12.238414,3.717796,0.259542,4.902616,-0.048257,0.686824,0.017656
0.830000,-1.688924,0.371284,0.414430,0.135797,-1.699190,0.027500,-0.155398,-2.007599,1.868870,2.132794,1.322867,0.454711,0.334032,-0.800347,-2.525725,3.234211,2.569391,2.518809,1.536402,0.567100,-1.132846,-11.990392,3.611421,0.241468,4.797565,-0.053070,0.666768,0.016077
0.840000,-1.692993,0.375039,0.418579,0.138405,-1.698115,0.028210,-0.156997,-2.031823,1.900909,2.159130,1.348448,0.468477,0.339415,-0.811970,-2.319258,3.179396,2.670998,2.604202,1.197860,0.507728,-1.176295,-11.743865,3.512702,0.223425,4.691583,-0.056685,0.647669,0.014404
0.850000,-1.701073,0.382664,0.427117,0.143964,-1.696482,0.029305,-0.160063,-2.053984,1.932458,2.186214,1.374951,0.478668,0.344186,-0.823873,-2.114005,3.135174,2.718218,2.699859,0.832079,0.444660,-1.187106,-11.498571,3.421369,0.205866,4.584013,-0.058630,0.629520,0.012288
0.860000,-1.719492,0.400722,0.451962,0.157344,-1.693913,0.032286,-0.167984,-2.074103,1.963612,2.213495,1.402445,0.485119,0.348308,-0.835712,-1.911737,3.099145,2.712176,2.799331,0.461382,0.377494,-1.163364,-11.253848,3.336834,0.189299,4.474242,-0.058508,0.612226,0.009370
0.870000,-1.723677,0.404693,0.456476,0.160168,-1.692621,0.032987,-0.169756,-2.092219,1.994441,2.240458,1.430937,0.487896,0.351736,-0.847140,-1.713803,3.068670,2.658596,2.896320,0.108814,0.305534,-1.105783,-11.008731,3.258269,0.174244,4.361760,-0.056039,0.595614,0.005317
0.880000,-1.734094,0.414712,0.467556,0.167532,-1.690275,0.034387,-0.173885,-2.108379,2.024986,2.266666,1.460372,0.487295,0.354419,-0.857828,-1.521141,3.041033,2.566305,2.984910,-0.203746,0.228221,-1.017404,-10.762047,3.184691,0.161194,4.246212,-0.051093,0.579451,-0.000147
0.890000,-1.753011,0.433523,0.491177,0.181611,-1.687292,0.037429,-0.181887,-2.122642,2.055262,2.291784,1.490636,0.483821,0.356301,-0.867488,-1.334305,3.013576,2.445514,3.059702,-0.457462,0.145606,-0.903100,-10.512532,3.115041,0.150567,4.127414,-0.043709,0.563466,-0.007214
0.900000,-1.757286,0.437642,0.495447,0.184581,-1.686075,0.038148,-0.183650,-2.135066,2.085257,2.315577,1.521566,0.478146,0.357331,-0.875890,-1.153493,2.983810,2.306171,3.115886,-0.638199,0.058757,-0.768974,-10.258926,3.048264,0.142679,4.005359,-0.034097,0.547379,-0.015966
0.910000,-1.770043,0.450144,0.508315,0.193884,-1.683428,0.039926,-0.188597,-2.145712,2.114938,2.337907,1.552953,0.471057,0.357476,-0.882868,-0.978560,2.949494,2.156590,3.149277,-0.737716,-0.030013,-0.621746,-10.000067,2.983366,0.137708,3.880191,-0.022627,0.530925,-0.026368
0.920000,-1.787174,0.467435,0.528351,0.206923,-1.680918,0.042638,-0.195485,-2.154637,2.144247,2.358709,1.584551,0.463392,0.356731,-0.888325,-0.809002,2.908680,2.002421,3.156335,-0.754198,-0.117133,-0.468215,-9.734959,2.919463,0.135689,3.752171,-0.009794,0.513878,-0.038267
0.930000,-1.789351,0.469576,0.530602,0.208466,-1.680377,0.043062,-0.196391,-2.161892,2.173111,2.377956,1.616080,0.455973,0.355133,-0.892232,-0.643914,2.859728,1.845975,3.134191,-0.692031,-0.198026,-0.314838,-9.462830,2.855803,0.136503,3.621624,0.003817,0.496068,-0.051399
0.940000,-1.804430,0.484874,0.547490,0.220020,-1.678353,0.045313,-0.202059,-2.167515,2.201442,2.395628,1.647235,0.449551,0.352770,-0.894622,-0.481932,2.801280,1.685850,3.080666,-0.560825,-0.267575,-0.167451,-9.183155,2.791780,0.139896,3.488900,0.017586,0.477390,-0.065408
0.950000,-1.824021,0.505145,0.570807,0.235316,-1.674269,0.048824,-0.210319,-2.171530,2.229137,2.411673,1.677693,0.444756,0.349782,-0.895581,-0.321178,2.732220,1.516838,2.994293,-0.373864,-0.320763,-0.031100,-8.895673,2.726930,0.145494,3.354334,0.030905,0.457805,-0.079865
0.960000,-1.824021,0.505145,0.570807,0.235316,-1.674269,0.048824,-0.210319,-2.173939,2.256086,2.425965,1.707121,0.442074,0.346355,-0.895244,-0.159224,2.651609,1.330162,2.874338,-0.146252,-0.353354,0.090035,-8.600384,2.660915,0.152833,3.218225,0.043229,0.437331,-0.094301
0.970000,-1.841376,0.522905,0.588048,0.248653,-1.670837,0.051368,-0.216701,-2.174715,2.282169,2.438276,1.735180,0.441831,0.342714,-0.893780,0.006896,2.558654,1.114113,2.720809,0.106912,-0.362537,0.192700,-8.297532,2.593508,0.161396,3.080835,0.054111,0.416031,-0.108228
0.980000,-1.856617,0.539087,0.605768,0.260935,-1.668146,0.054109,-0.223024,-2.173801,2.307259,2.448247,1.761537,0.444212,0.339104,-0.891390,0.180603,2.452700,0.855157,2.534476,0.372031,-0.347407,0.274623,-7.987586,2.524567,0.170653,2.942407,0.063235,0.393990,-0.121173
0.990000,-1.856617,0.539087,0.605768,0.260935,-1.668146,0.054109,-0.223024,-2.171103,2.331223,2.455379,1.785870,0.449272,0.335766,-0.888288,0.365617,2.333282,0.539486,2.316881,0.637948,-0.309248,0.334613,-7.671223,2.454016,0.180103,2.803195,0.070428,0.371301,-0.132698
1.000000,-1.876160,0.560144,0.628318,0.277048,-1.664623,0.057021,-0.230706,-2.166488,2.353925,2.459037,1.807875,0.456971,0.332919,-0.884697,0.565715,2.200228,0.154920,2.070366,0.896240,-0.251560,0.372693,-7.349299,2.381825,0.189315,2.663500,0.075664,0.348047,-0.142432
1.010000,-1.891386,0.576668,0.645266,0.289504,-1.659966,0.059865,-0.237160,-2.159788,2.375228,2.458477,1.827277,0.467197,0.330735,-0.880834,0.784440,2.053824,-0.307001,1.798114,1.140900,-0.179851,0.390246,-7.022837,2.307993,0.197972,2.523708,0.079052,0.324293,-0.150091
1.020000,-1.891386,0.576668,0.645266,0.289504,-1.659966,0.059865,-0.237160,-2.150800,2.395001,2.452897,1.843837,0.479789,0.329322,-0.876892,1.024752,1.894999,-0.848952,1.504217,1.367593,-0.101218,0.390100,-6.693002,2.232524,0.205894,2.384313,0.080821,0.300089,-0.155495
1.030000,-1.910619,0.597851,0.665236,0.305632,-1.655922,0.062479,-0.244371,-2.139293,2.413128,2.441498,1.857361,0.494549,0.328711,-0.873032,1.288685,1.725546,-1.466008,1.193762,1.572736,-0.023750,0.376504,-6.361081,2.155416,0.213071,2.245925,0.081292,0.275474,-0.158590
1.040000,-1.925501,0.614763,0.681926,0.318524,-1.652222,0.065007,-0.250499,-2.125026,2.429512,2.423577,1.867712,0.511244,0.328847,-0.869362,1.577015,1.548312,-2.144345,0.872916,1.752671,0.044179,0.354929,-6.028465,2.076639,0.219665,2.109263,0.080848,0.250495,-0.159450
1.050000,-1.925501,0.614763,0.681926,0.318524,-1.652222,0.065007,-0.250499,-2.107753,2.444094,2.398611,1.874820,0.529602,0.329594,-0.865933,1.888997,1.367330,-2.860696,0.548971,1.903158,0.094651,0.331694,-5.696624,1.996118,0.226014,1.975126,0.079911,0.225224,-0.158288
1.060000,-1.946375,0.638882,0.704157,0.336844,-1.647002,0.068110,-0.258538,-2.087246,2.456859,2.366363,1.878692,0.549307,0.330740,-0.862729,2.222200,1.187848,-3.582789,0.230309,2.019296,0.120901,0.313450,-5.367084,1.913724,0.232611,1.844346,0.078909,0.199775,-0.155443
1.070000,-1.956725,0.651097,0.715499,0.345997,-1.644146,0.069978,-0.262914,-2.063309,2.467851,2.326956,1.879426,0.569988,0.332012,-0.859664,2.572472,1.016206,-4.270910,-0.073759,2.095858,0.117878,0.306576,-5.041397,1.829269,0.240072,1.717739,0.078261,0.174319,-0.151372
1.080000,-1.960798,0.656024,0.720029,0.349768,-1.643094,0.070566,-0.264532,-2.035796,2.477183,2.280944,1.877216,0.591224,0.333098,-0.856597,2.934071,0.859538,-4.880622,-0.353319,2.127953,0.082621,0.316585,-4.721126,1.742509,0.249087,1.596056,0.078351,0.149091,-0.146619
1.090000,-1.979032,0.678733,0.742437,0.367174,-1.638779,0.073512,-0.271821,-2.004628,2.485042,2.229343,1.872359,0.612547,0.333665,-0.853333,3.299962,0.725293,-5.366468,-0.598360,2.111829,0.014420,0.347608,-4.407817,1.653167,0.260368,1.479935,0.079512,0.124386,-0.141786
1.100000,-1.989051,0.691250,0.753921,0.376452,-1.635020,0.075517,-0.276366,-1.969797,2.491689,2.173615,1.865249,0.633461,0.333386,-0.849645,3.662256,0.620599,-5.686371,-0.799452,2.045636,-0.085229,0.402025,-4.102990,1.560971,0.274588,1.369885,0.082017,0.100545,-0.137492
1.110000,-1.994902,0.698746,0.760393,0.382093,-1.633090,0.076390,-0.278831,-1.931382,2.497454,2.115616,1.856370,0.653460,0.331960,-0.845292,4.012779,0.551544,-5.806201,-0.948534,1.930013,-0.212852,0.480283,-3.808124,1.465701,0.292323,1.266281,0.086062,0.077936,-0.134332
1.120000,-2.012209,0.721883,0.781798,0.399737,-1.628034,0.078813,-0.286052,-1.889542,2.502720,2.057491,1.846279,0.672061,0.329129,-0.840039,4.343686,0.522459,-5.703951,-1.039722,1.768394,-0.363335,0.580895,-3.524655,1.367246,0.314006,1.169389,0.091759,0.056928,-0.132833
1.130000,-2.019697,0.731905,0.789822,0.407038,-1.624991,0.080218,-0.289565,-1.844509,2.507903,2.001537,1.835576,0.688828,0.324693,-0.833674,4.648074,0.535312,-5.372897,-1.070014,1.567041,-0.530333,0.700594,-3.253966,1.265658,0.339884,1.079397,0.099134,0.037856,-0.133420
1.140000,-2.028685,0.744393,0.799081,0.416271,-1.621847,0.081492,-0.293356,-1.796580,2.513426,1.950033,1.824878,0.703402,0.318522,-0.826027,4.920515,0.589308,-4.823261,-1.039803,1.334845,-0.706693,0.834586,-2.997377,1.161191,0.369999,0.996463,0.108121,0.020993,-0.136382
1.150000,-2.044482,0.767597,0.817973,0.433631,-1.616805,0.083810,-0.300003,-1.746098,2.519689,1.905072,1.814780,0.715525,0.310560,-0.816983,5.157447,0.680767,-4.082078,-0.953094,1.082960,-0.884851,0.976868,-2.756132,1.054320,0.404175,0.920751,0.118571,0.006526,-0.141851
1.160000,-2.047889,0.772551,0.821331,0.437095,-1.615262,0.084469,-0.301715,-1.693431,2.527041,1.868392,1.805816,0.725061,0.300825,-0.806490,5.357391,0.803306,-3.191256,-0.817385,0.824318,-1.057206,1.120550,-2.531371,0.945726,0.442022,0.852455,0.130257,-0.005471,-0.149794
1.170000,-2.056081,0.785079,0.829852,0.446140,-1.612095,0.085634,-0.305132,-1.638951,2.535755,1.841246,1.798432,0.732011,0.289416,-0.794572,5.520991,0.948302,-2.204097,-0.643239,0.573066,-1.216461,1.258196,-2.324105,0.836257,0.482951,0.791802,0.142886,-0.015041,-0.160011
1.180000,-2.072198,0.811186,0.850761,0.465172,-1.606591,0.087833,-0.312183,-1.583011,2.546007,1.824310,1.792952,0.736522,0.276496,-0.781326,5.650883,1.105557,-1.180760,-0.443599,0.343925,-1.355945,1.382159,-2.135183,0.726853,0.526196,0.739035,0.156113,-0.022353,-0.172145
1.190000,-2.073749,0.813712,0.852506,0.466906,-1.605768,0.088137,-0.313022,-1.525933,2.557866,1.817631,1.789560,0.738890,0.262297,-0.766928,5.751437,1.264069,-0.183315,-0.232943,0.151474,-1.469925,1.484940,-1.965262,0.618464,0.570838,0.694376,0.169564,-0.027690,-0.185698
1.200000,-2.082690,0.828971,0.863056,0.477578,-1.601671,0.089438,-0.317076,-1.467983,2.571289,1.820643,1.788293,0.739552,0.247098,-0.751627,5.828401,1.412803,0.729027,-0.026407,0.009338,-1.553909,1.559572,-1.814781,0.511948,0.615844,0.657978,0.182849,-0.031427,-0.200062
1.210000,-2.095760,0.852914,0.882344,0.494720,-1.596457,0.091110,-0.323253,-1.409365,2.586122,1.832212,1.789032,0.739076,0.231218,-0.735737,5.888483,1.541369,1.503991,0.161059,-0.070698,-1.604931,1.600063,-1.683953,0.407981,0.660096,0.629873,0.195589,-0.034004,-0.214550
1.220000,-2.097143,0.855494,0.884158,0.496471,-1.595615,0.091368,-0.324074,-1.350213,2.602116,1.850723,1.791514,0.738138,0.214999,-0.719626,5.938884,1.640563,2.099354,0.315446,-0.079632,-1.621813,1.601885,-1.572767,0.306974,0.702425,0.609927,0.207430,-0.035888,-0.228435
1.230000,-2.106413,0.873745,0.897279,0.509055,-1.590729,0.092608,-0.328698,-1.290587,2.618934,1.874199,1.795341,0.737484,0.198782,-0.703699,5.986799,1.702748,2.485005,0.424318,-0.012188,-1.605349,1.562488,-1.481004,0.209008,0.741647,0.597812,0.218068,-0.037529,-0.240991
1.240000,-2.117698,0.897810,0.915617,0.525768,-1.584687,0.093954,-0.334977,-1.230477,2.636171,1.900423,1.800000,0.737894,0.182892,-0.688376,6.038872,1.722095,2.644028,0.477370,0.132338,-1.558401,1.481808,-1.408269,0.113802,0.776600,0.592999,0.227256,-0.039321,-0.251534
1.250000,-2.117698,0.897810,0.915617,0.525768,-1.584687,0.093954,-0.334977,-1.169810,2.653375,1.927079,1.804888,0.740130,0.167614,-0.674063,6.100629,1.694728,2.572982,0.466905,0.349448,-1.485858,1.362666,-1.354036,0.020699,0.806173,0.594792,0.234821,-0.041570,-0.259461
1.260000,-2.127705,0.921530,0.932037,0.541796,-1.577828,0.095126,-0.340695,-1.108464,2.670066,1.951883,1.809338,0.744883,0.153175,-0.661123,6.175909,1.618798,2.281538,0.388267,0.629153,-1.394442,1.210969,-1.317690,-0.071308,0.829350,0.602380,0.240666,-0.044459,-0.264281
1.270000,-2.133914,0.937502,0.943321,0.552440,-1.573216,0.096163,-0.344698,-1.046292,2.685751,1.972710,1.812654,0.752713,0.139725,-0.649844,6.266340,1.494507,1.791588,0.240220,0.956170,-1.292330,1.035632,-1.298577,-0.163528,0.845237,0.614935,0.244766,-0.048046,-0.265643
1.280000,-2.133914,0.937502,0.943321,0.552440,-1.573216,0.096163,-0.344698,-0.983138,2.699956,1.987715,1.814143,0.764006,0.127328,-0.640410,6.370931,1.324109,1.135884,0.025246,1.310679,-1.188633,0.848126,-1.296040,-0.257497,0.853100,0.631711,0.247166,-0.052255,-0.263349
1.290000,-2.143144,0.964170,0.961777,0.570131,-1.565661,0.097078,-0.350755,-0.918873,2.712234,1.995428,1.813159,0.778927,0.115953,-0.632881,6.485869,1.111855,0.356183,-0.250279,1.669670,-1.092714,0.661688,-1.309440,-0.354877,0.852390,0.652151,0.247964,-0.056896,-0.257355
1.300000,-2.147438,0.977640,0.971415,0.578938,-1.561532,0.097736,-0.354107,-0.853420,2.722193,1.994838,1.809137,0.797400,0.105474,-0.627176,6.604578,0.863885,-0.499123,-0.576087,2.008769,-1.013453,0.490223,-1.338170,-0.457352,0.842767,0.675981,0.247299,-0.061687,-0.247772
1.310000,-2.148255,0.980331,0.973322,0.580686,-1.560721,0.097842,-0.354743,-0.786781,2.729511,1.985445,1.801637,0.819102,0.095684,-0.623077,6.718108,0.588023,-1.377904,-0.938251,2.304383,-0.958484,0.347048,-1.381639,-0.566504,0.824112,0.703265,0.245336,-0.066292,-0.234844
1.320000,-2.154976,1.004671,0.990494,0.596610,-1.553506,0.098234,-0.360029,-0.719058,2.733953,1.967280,1.790372,0.843487,0.086304,-0.620236,6.815845,0.293462,-2.227620,-1.319684,2.535887,-0.933519,0.243636,-1.439243,-0.683706,0.796521,0.734418,0.242250,-0.070353,-0.218931
1.330000,-2.158435,1.018350,1.000456,0.605473,-1.548959,0.098823,-0.363319,-0.650464,2.735381,1.940893,1.775243,0.869820,0.077013,-0.618204,6.886509,-0.009667,-2.998942,-1.700938,2.687605,-0.941834,0.188529,-1.510333,-0.810013,0.760298,0.770170,0.238214,-0.073535,-0.200476
1.340000,-2.159733,1.023831,1.004460,0.609010,-1.547245,0.099001,-0.364525,-0.581328,2.733760,1.907301,1.756353,0.897239,0.067468,-0.616465,6.919328,-0.310854,-3.649376,-2.061283,2.750297,-0.983972,0.186566,-1.594161,-0.946080,0.715921,0.811481,0.233393,-0.075553,-0.179976
1.350000,-2.165494,1.051542,1.024671,0.627184,-1.538205,0.099096,-0.370625,-0.512078,2.729163,1.867905,1.734017,0.924826,0.057334,-0.614473,6.905259,-0.599841,-4.146530,-2.380005,2.721978,-1.057719,0.238529,-1.689841,-1.092095,0.664011,0.859425,0.227929,-0.076205,-0.157948
1.360000,-2.167376,1.062464,1.032100,0.634070,-1.534225,0.099376,-0.373236,-0.443223,2.721763,1.824371,1.708753,0.951679,0.046313,-0.611694,6.838084,-0.867289,-4.470647,-2.637845,2.607953,-1.158338,0.341252,-1.796314,-1.247746,0.605293,0.915052,0.221948,-0.075387,-0.134899
1.370000,-2.168554,1.070572,1.037295,0.639114,-1.531310,0.099512,-0.375006,-0.375316,2.711818,1.778493,1.681261,0.976985,0.034167,-0.607648,6.715221,-1.105416,-4.616044,-2.818437,2.420085,-1.279046,0.488154,-1.912335,-1.412206,0.540549,0.979251,0.215552,-0.073102,-0.111296
1.380000,-2.171509,1.095303,1.053590,0.654927,-1.522876,0.099137,-0.379765,-0.308918,2.699655,1.732050,1.652385,1.000081,0.020732,-0.601931,6.538151,-1.308533,-4.591253,-2.909628,2.175415,-1.411659,0.670096,-2.036476,-1.584151,0.470589,1.052628,0.208827,-0.069459,-0.087541
1.390000,-2.172184,1.103299,1.058269,0.659736,-1.519724,0.099176,-0.381711,-0.244553,2.685647,1.686667,1.623068,1.020493,0.005934,-0.594246,6.312384,-1.473441,-4.417818,-2.904536,1.894331,-1.547342,0.876434,-2.167155,-1.761814,0.396214,1.135414,0.201843,-0.064655,-0.063962
1.400000,-2.172766,1.111284,1.063031,0.664498,-1.516802,0.099197,-0.383297,-0.182671,2.670186,1.643694,1.594294,1.037967,-0.010214,-0.584403,6.046993,-1.599644,-4.127920,-2.802260,1.598545,-1.677382,1.096100,-2.302680,-1.943064,0.318194,1.227408,0.194663,-0.058952,-0.040799
1.410000,-2.174471,1.138740,1.081101,0.681827,-1.507050,0.098104,-0.388050,-0.123613,2.653654,1.604109,1.567023,1.052464,-0.027614,-0.572324,5.753785,-1.689375,-3.761133,-2.608144,1.309086,-1.793914,1.318586,-2.441310,-2.125521,0.237248,1.327962,0.187347,-0.052651,-0.018206
1.420000,-2.174781,1.146750,1.086101,0.686561,-1.503911,0.098018,-0.389745,-0.067595,2.636398,1.568471,1.542131,1.064149,-0.046093,-0.558031,5.446220,-1.747432,-3.360725,-2.333574,1.044527,-1.890545,1.534716,-2.581321,-2.306689,0.154036,1.435994,0.179956,-0.046058,0.003742
1.430000,-2.175006,1.159924,1.094034,0.694185,-1.498677,0.097866,-0.392233,-0.014689,2.618705,1.536895,1.520351,1.073355,-0.065425,-0.541629,5.138211,-1.780818,-2.969884,-1.995269,0.819575,-1.962802,1.737149,-2.721073,-2.484118,0.069141,1.550050,0.172558,-0.039448,0.025036
1.440000,-2.174853,1.183671,1.108450,0.708300,-1.489470,0.096303,-0.396165,0.035169,2.600782,1.509073,1.502226,1.080540,-0.085349,-0.523288,4.842923,-1.798222,-2.628219,-1.614123,0.644101,-2.008385,1.920591,-2.859071,-2.655557,-0.016932,1.668375,0.165224,-0.033043,0.045718
1.450000,-2.174693,1.188781,1.111323,0.711159,-1.487301,0.096068,-0.397245,0.082169,2.582741,1.484330,1.488069,1.086237,-0.105592,-0.503218,4.571686,-1.809336,-2.368785,-1.213652,0.522647,-2.027179,2.081741,-2.994012,-2.819110,-0.103763,1.789019,0.158034,-0.026982,0.065863
1.460000,-2.174174,1.201510,1.118619,0.718280,-1.481958,0.095515,-0.399396,0.126603,2.564595,1.461698,1.477953,1.090993,-0.125892,-0.481653,4.333111,-1.824076,-2.215819,-0.818197,0.454396,-2.021033,2.219013,-3.124822,-2.973352,-0.191014,1.909947,0.151065,-0.021319,0.085563
1.470000,-2.173016,1.224835,1.132849,0.732235,-1.472154,0.093803,-0.402696,0.168832,2.546260,1.440014,1.471705,1.095325,-0.146013,-0.458837,4.132472,-1.851769,-2.183335,-0.451045,0.433566,-1.993346,2.332109,-3.250667,-3.117419,-0.278431,2.029147,0.144395,-0.016018,0.104917
1.480000,-2.172821,1.227355,1.134259,0.733681,-1.471040,0.093673,-0.403181,0.209252,2.527560,1.418031,1.468932,1.099665,-0.165759,-0.435011,3.971422,-1.900400,-2.274617,-0.132699,0.450164,-1.948518,2.421519,-3.370957,-3.251050,-0.365831,2.144735,0.138088,-0.010971,0.124019
1.490000,-2.171459,1.242360,1.142603,0.742308,-1.464550,0.092646,-0.405576,0.248260,2.508252,1.394521,1.469051,1.104328,-0.184983,-0.410407,3.848037,-1.975995,-2.482647,0.120550,0.491041,-1.891333,2.488053,-3.485323,-3.374570,-0.453095,2.255037,0.132197,-0.006016,0.142955
1.500000,-2.169207,1.265237,1.156037,0.756428,-1.454354,0.090607,-0.408632,0.286213,2.488040,1.368378,1.471343,1.109486,-0.203586,-0.385250,3.757194,-2.082215,-2.791343,0.297582,0.541139,-1.826370,2.532482,-3.593579,-3.488845,-0.540151,2.358647,0.126752,-0.000973,0.161804
1.510000,-2.169207,1.265237,1.156037,0.756428,-1.454354,0.090607,-0.408632,0.323404,2.466607,1.338695,1.475003,1.115151,-0.221511,-0.359757,3.691208,-2.220204,-3.177482,0.392885,0.584858,-1.757500,2.555332,-3.695685,-3.595182,-0.626958,2.454457,0.121760,0.004328,0.180635
1.520000,-2.166765,1.282300,1.164971,0.766528,-1.446775,0.088950,-0.411200,0.360037,2.443636,1.304828,1.479200,1.121183,-0.238736,-0.334143,3.640691,-2.388675,-3.613072,0.406467,0.607441,-1.687524,2.556884,-3.791687,-3.695216,-0.713498,2.541669,0.117205,0.010010,0.199512
1.530000,-2.163696,1.301836,1.175406,0.778698,-1.437569,0.086854,-0.413411,0.396218,2.418834,1.266433,1.483132,1.127300,-0.255261,-0.308620,3.595520,-2.584224,-4.067947,0.343314,0.596258,-1.618004,2.537311,-3.881668,-3.790768,-0.799756,2.619786,0.113048,0.016128,0.218499
1.540000,-2.163696,1.301836,1.175406,0.778698,-1.437569,0.086854,-0.413411,0.431948,2.391951,1.223469,1.486067,1.133108,-0.271096,-0.283397,3.545836,-2.801813,-4.512351,0.212508,0.541914,-1.549282,2.496945,-3.965694,-3.883706,-0.885710,2.688583,0.109233,0.022650,0.237658
1.550000,-2.160052,1.320776,1.184738,0.790408,-1.428785,0.084524,-0.415685,0.467135,2.362797,1.176186,1.487382,1.138138,-0.286247,-0.258681,3.482990,-3.035352,-4.919280,0.026129,0.439056,-1.480699,2.436572,-4.043774,-3.975804,-0.971328,2.748087,0.105693,0.029451,0.257056
1.560000,-2.156597,1.337164,1.192703,0.800845,-1.420768,0.082496,-0.417296,0.501608,2.331244,1.125084,1.486589,1.141889,-0.300710,-0.234666,3.400357,-3.278317,-5.266442,-0.201917,0.286845,-1.410971,2.357706,-4.115818,-4.068612,-1.056556,2.798545,0.102356,0.036322,0.276759
1.570000,-2.156597,1.337164,1.192703,0.800845,-1.420768,0.082496,-0.417296,0.535142,2.297231,1.070857,1.483344,1.143875,-0.314466,-0.211527,3.293958,-3.524329,-5.537682,-0.457011,0.089025,-1.338651,2.262790,-4.181621,-4.163347,-1.141320,2.840402,0.099158,0.042987,0.296833
1.580000,-2.151590,1.357420,1.201656,0.813620,-1.411059,0.079412,-0.419480,0.567487,2.260758,1.014330,1.477449,1.143670,-0.327483,-0.189410,3.162845,-3.767642,-5.723812,-0.724808,-0.146419,-1.262618,2.155275,-4.240846,-4.260813,-1.225522,2.874278,0.096046,0.049125,0.317339
1.590000,-2.148110,1.370697,1.207507,0.822245,-1.404239,0.077348,-0.420473,0.598399,2.221878,0.956381,1.468848,1.140947,-0.339719,-0.168421,3.009214,-4.003498,-5.822823,-0.992018,-0.407973,-1.182503,2.039588,-4.293040,-4.361346,-1.309043,2.900952,0.092989,0.054409,0.338326
1.600000,-2.148110,1.370697,1.207507,0.822245,-1.404239,0.077348,-0.420473,0.627671,2.180688,0.897874,1.457609,1.135510,-0.351133,-0.148618,2.838257,-4.228330,-5.839507,-1.246963,-0.681649,-1.099007,1.920948,-4.337646,-4.464798,-1.391744,2.921338,0.089979,0.058527,0.359825
1.610000,-2.141693,1.392051,1.215929,0.836284,-1.393399,0.073529,-0.422122,0.655164,2.137312,0.839591,1.443908,1.127314,-0.361699,-0.130002,2.657744,-4.439818,-5.784560,-1.479935,-0.952266,-1.014072,1.805082,-4.374053,-4.570555,-1.473478,2.936460,0.087034,0.061220,0.381842
1.620000,-2.138308,1.402526,1.219884,0.843433,-1.387798,0.071604,-0.422644,0.680826,2.091892,0.782182,1.428010,1.116465,-0.371415,-0.112516,2.477378,-4.636805,-5.673270,-1.683367,-1.204854,-0.930896,1.697844,-4.401639,-4.677590,-1.554089,2.947416,0.084196,0.062299,0.404347
1.630000,-2.136946,1.406632,1.221404,0.846198,-1.385610,0.071008,-0.422855,0.704711,2.044576,0.726126,1.410241,1.103216,-0.380317,-0.096045,2.307969,-4.819120,-5.523936,-1.851878,-1.426031,-0.853797,1.604780,-4.419843,-4.784550,-1.633425,2.955324,0.081526,0.061665,0.427274
1.640000,-2.131156,1.422845,1.226968,0.857604,-1.377089,0.067417,-0.423621,0.726985,1.995509,0.671704,1.390972,1.087944,-0.388490,-0.080421,2.160497,-4.987338,-5.356153,-1.982227,-1.605205,-0.787931,1.530693,-4.428230,-4.889853,-1.711340,2.961270,0.079103,0.059317,0.450511
1.650000,-2.127429,1.432671,1.230167,0.864563,-1.371766,0.065381,-0.423949,0.747921,1.944829,0.619002,1.370596,1.071112,-0.396075,-0.065431,2.045138,-5.142511,-5.189117,-2.073208,-1.735480,-0.738902,1.479253,-4.426563,-4.991811,-1.787702,2.966240,0.077007,0.055351,0.473904
1.660000,-2.125165,1.438416,1.231967,0.868611,-1.368670,0.064227,-0.424119,0.767888,1.892659,0.567921,1.349508,1.053235,-0.403269,-0.050836,1.970341,-5.285901,-5.040091,-2.125501,-1.814160,-0.712266,1.452694,-4.414870,-5.088745,-1.862392,2.971064,0.075323,0.049955,0.497259
1.670000,-2.117805,1.455365,1.236544,0.881298,-1.359218,0.059294,-0.424482,0.787328,1.839111,0.518201,1.328086,1.034829,-0.410321,-0.036378,1.942026,-5.418743,-4.923125,-2.141477,-1.842827,-0.712975,1.451639,-4.393488,-5.179090,-1.935302,2.976359,0.074122,0.043394,0.520350
1.680000,-2.115456,1.460731,1.238065,0.885154,-1.356263,0.058102,-0.424573,0.806729,1.784284,0.469459,1.306679,1.016378,-0.417528,-0.021803,1.962977,-5.542043,-4.848117,-2.124954,-1.826978,-0.744801,1.475065,-4.363102,-5.261484,-2.006330,2.982491,0.073462,0.035997,0.542930
1.690000,-2.112238,1.467750,1.239921,0.890317,-1.352328,0.056251,-0.424656,0.826588,1.728270,0.421238,1.285587,0.998290,-0.425217,-0.006876,2.032480,-5.656438,-4.820248,-2.080904,-1.775297,-0.809797,1.520420,-4.324745,-5.334825,-2.075368,2.989567,0.073376,0.028128,0.564745
1.700000,-2.104285,1.483185,1.243084,0.902406,-1.343043,0.051335,-0.424600,0.847378,1.671155,0.373054,1.265061,0.980872,-0.433724,0.008605,2.146227,-5.762110,-4.839808,-2.015114,-1.698662,-0.907858,1.583867,-4.279775,-5.398301,-2.142291,2.997433,0.073875,0.020170,0.585553
1.710000,-2.102587,1.486438,1.243787,0.904868,-1.341144,0.050536,-0.424585,0.869512,1.613028,0.324442,1.245285,0.964316,-0.443374,0.024801,2.296496,-5.858782,-4.902372,-1.933823,-1.608991,-1.036447,1.660635,-4.229818,-5.451388,-2.206939,3.005709,0.074941,0.012492,0.605131
1.720000,-2.098246,1.494377,1.245351,0.911012,-1.336495,0.048194,-0.424506,0.893308,1.553980,0.275006,1.226384,0.948692,-0.454453,0.041818,2.472577,-5.945772,-4.999298,-1.843356,-1.518079,-1.190521,1.745414,-4.176691,-5.493818,-2.269111,3.013839,0.076528,0.005426,0.623297
1.730000,-2.089465,1.508294,1.246974,0.922715,-1.327558,0.042828,-0.423765,0.918964,1.494112,0.224456,1.208418,0.933955,-0.467184,0.059709,2.661428,-6.022126,-5.118475,-1.749791,-1.436524,-1.362698,1.832766,-4.122285,-5.525539,-2.328551,3.021150,0.078570,-0.000763,0.639916
1.740000,-2.087629,1.511195,1.247385,0.925057,-1.325754,0.042027,-0.423631,0.946537,1.433537,0.172637,1.191388,0.919962,-0.481707,0.078473,2.848499,-6.086789,-5.245274,-1.658655,-1.372852,-1.543658,1.917474,-4.068451,-5.546648,-2.384945,3.026929,0.080982,-0.005889,0.654906
1.750000,-2.081937,1.519659,1.248335,0.932179,-1.320468,0.038851,-0.423151,0.975934,1.372376,0.119551,1.175245,0.906498,-0.498057,0.098059,3.018685,-6.138798,-5.363628,-1.574702,-1.332914,-1.722740,1.994818,-4.016862,-5.557341,-2.437928,3.030488,0.083672,-0.009870,0.668237
1.760000,-2.072533,1.531778,1.248657,0.943159,-1.312047,0.033403,-0.421846,1.006910,1.310761,0.065364,1.159894,0.893303,-0.516162,0.118370,3.157353,-6.177469,-5.457178,-1.501737,-1.319581,-1.888667,2.060737,-3.968897,-5.557865,-2.487090,3.031227,0.086544,-0.012730,0.679928
1.770000,-2.071550,1.533038,1.248726,0.944271,-1.311174,0.032968,-0.421734,1.039081,1.248827,0.010407,1.145210,0.880106,-0.535831,0.139274,3.251364,-6.202536,-5.510445,-1.442523,-1.332761,-2.030345,2.111881,-3.925530,-5.548475,-2.532005,3.028679,0.089511,-0.014596,0.690041
1.780000,-2.064211,1.541639,1.248711,0.952371,-1.305333,0.028488,-0.420552,1.071938,1.186710,-0.044844,1.131044,0.866648,-0.556769,0.160607,3.290051,-6.214226,-5.509930,-1.398739,-1.369692,-2.137619,2.145577,-3.887250,-5.529421,-2.572251,3.022538,0.092501,-0.015693,0.698662
1.790000,-2.054153,1.551933,1.247798,0.962676,-1.297400,0.022947,-0.418797,1.104882,1.124543,-0.099791,1.117235,0.852712,-0.578583,0.182185,3.266061,-6.213246,-5.445112,-1.370990,-1.425470,-2.201950,2.159738,-3.854013,-5.500940,-2.607449,3.012667,0.095464,-0.016322,0.705894
1.800000,-2.054153,1.551933,1.247798,0.962676,-1.297400,0.022947,-0.418797,1.137259,1.062446,-0.153747,1.103624,0.838139,-0.600808,0.203802,3.176010,-6.200679,-5.309250,-1.358858,-1.493719,-2.216938,2.152755,-3.825243,-5.463258,-2.637291,2.999084,0.098373,-0.016838,0.711840
1.810000,-2.045116,1.560083,1.246458,0.971180,-1.291171,0.017992,-0.417338,1.168402,1.000529,-0.205976,1.090058,0.822838,-0.622922,0.225240,3.020885,-6.177796,-5.099938,-1.360978,-1.567332,-2.178673,2.123410,-3.799870,-5.416605,-2.661578,2.981929,0.101227,-0.017618,0.716592
1.820000,-2.035506,1.567621,1.244401,0.979817,-1.284506,0.012684,-0.415309,1.197677,0.938890,-0.255745,1.076404,0.806792,-0.644381,0.246270,2.806155,-6.145819,-4.819373,-1.375146,-1.639207,-2.085925,2.070846,-3.776414,-5.361233,-2.680247,2.961420,0.104045,-0.019038,0.720223
1.830000,-2.035506,1.567621,1.244401,0.979817,-1.284506,0.012684,-0.415309,1.224525,0.877613,-0.302364,1.062555,0.790054,-0.664640,0.266657,2.541566,-6.105661,-4.474303,-1.398452,-1.702899,-1.940169,1.994601,-3.753117,-5.297432,-2.693391,2.937792,0.106868,-0.021439,0.722781
1.840000,-2.025105,1.574352,1.241064,0.988184,-1.278405,0.007164,-0.413392,1.248508,0.816776,-0.345232,1.048435,0.772734,-0.683184,0.286162,2.240610,-6.057695,-4.075652,-1.427464,-1.753164,-1.745505,1.894695,-3.728101,-5.225551,-2.701272,2.911235,0.109746,-0.025101,0.724285
1.850000,-2.016228,1.579740,1.238417,0.995475,-1.273039,0.002305,-0.411250,1.269337,0.756459,-0.383877,1.034006,0.754990,-0.699551,0.304551,1.919723,-6.001609,-3.637875,-1.458455,-1.786355,-1.508481,1.771774,-3.699554,-5.146009,-2.704317,2.881833,0.112735,-0.030225,0.724734
1.860000,-2.016228,1.579740,1.238417,0.995475,-1.273039,0.002305,-0.411250,1.286902,0.696744,-0.417989,1.019266,0.737007,-0.713354,0.321598,1.597227,-5.936358,-3.178066,-1.487686,-1.800646,-1.237865,1.627259,-3.665917,-5.059309,-2.703112,2.849513,0.115889,-0.036915,0.724108
1.870000,-2.002482,1.586423,1.233004,1.005602,-1.265795,-0.004859,-0.408375,1.301282,0.637732,-0.447438,1.004252,0.718978,-0.724308,0.337096,1.292121,-5.860258,-2.714911,-1.511734,-1.796089,-0.944362,1.463486,-3.626063,-4.966046,-2.698376,2.814012,0.119254,-0.045175,0.722383
1.880000,-1.994976,1.589921,1.230564,1.011450,-1.261632,-0.008981,-0.406399,1.312745,0.579539,-0.472287,0.989032,0.701085,-0.732241,0.350868,1.022776,-5.771204,-2.267544,-1.527826,-1.774500,-0.640292,1.283807,-3.579444,-4.866904,-2.690930,2.774874,0.122862,-0.054909,0.719538
1.890000,-1.994976,1.589921,1.230564,1.011450,-1.261632,-0.008981,-0.406399,1.321737,0.522308,-0.492789,0.973696,0.683488,-0.737114,0.362772,0.805638,-5.666989,-1.854373,-1.534164,-1.739183,-0.339191,1.092621,-3.526197,-4.762653,-2.681659,2.731476,0.126731,-0.065929,0.715570
1.900000,-1.980806,1.594930,1.224436,1.021207,-1.254646,-0.016390,-0.403024,1.328857,0.466199,-0.509375,0.958348,0.666302,-0.739025,0.372720,0.654017,-5.545695,-1.491949,-1.530177,-1.694515,-0.055320,0.895307,-3.467193,-4.654141,-2.671468,2.683079,0.130862,-0.077972,0.710505
1.910000,-1.974079,1.597049,1.221760,1.025899,-1.251492,-0.019938,-0.401185,1.334818,0.411394,-0.522628,0.943092,0.649597,-0.738220,0.380679,0.577055,-5.406093,-1.193952,-1.516677,-1.645418,0.196940,0.698069,-3.404023,-4.542280,-2.661230,2.628913,0.135237,-0.090720,0.704404
1.920000,-1.971553,1.597831,1.220893,1.027754,-1.250241,-0.021362,-0.400438,1.340399,0.358077,-0.533254,0.928015,0.633393,-0.735086,0.386681,0.578984,-5.248010,-0.970368,-1.495873,-1.596761,0.403829,0.507655,-3.338916,-4.428026,-2.651747,2.568281,0.139824,-0.103822,0.697368
1.930000,-1.956653,1.600854,1.212717,1.036359,-1.244253,-0.028770,-0.396939,1.346397,0.306433,-0.542035,0.913175,0.617662,-0.730144,0.390832,0.658775,-5.072588,-0.826967,-1.471220,-1.552755,0.553048,0.330995,-3.274589,-4.312364,-2.643702,2.500679,0.144578,-0.116917,0.689539
1.940000,-1.950192,1.602179,1.210287,1.040777,-1.241359,-0.032352,-0.394992,1.353574,0.256626,-0.549793,0.898590,0.602338,-0.724025,0.393301,0.810250,-4.882417,-0.765134,-1.447089,-1.516380,0.634655,0.174747,-3.214031,-4.196287,-2.637627,2.425913,0.149440,-0.129662,0.681095
1.950000,-1.946455,1.602876,1.209031,1.043422,-1.239609,-0.034579,-0.393804,1.362602,0.208785,-0.557338,0.884233,0.587334,-0.717450,0.394327,1.022680,-4.681477,-0.782078,-1.428284,-1.488958,0.641927,0.044829,-3.160247,-4.080777,-2.633883,2.344205,0.154347,-0.141752,0.672248
1.960000,-1.931600,1.604452,1.200979,1.051563,-1.234074,-0.042098,-0.390088,1.374028,0.162996,-0.565435,0.870025,0.572559,-0.711187,0.394198,1.281808,-4.474914,-0.871361,-1.419439,-1.469907,0.572104,-0.054042,-3.115969,-3.966792,-2.632650,2.256276,0.159228,-0.152945,0.663232
1.970000,-1.927830,1.604776,1.199604,1.053983,-1.232435,-0.044014,-0.389021,1.388238,0.119287,-0.574765,0.855844,0.557936,-0.706008,0.393246,1.571147,-4.268641,-1.023623,-1.424375,-1.456761,0.426903,-0.118739,-3.083368,-3.855255,-2.633931,2.163389,0.164012,-0.163078,0.654297
1.980000,-1.920805,1.605203,1.196596,1.058208,-1.229702,-0.047931,-0.386973,1.405451,0.077623,-0.585907,0.841537,0.543424,-0.702649,0.391823,1.873367,-4.068844,-1.227337,-1.445511,-1.445467,0.212730,-0.148005,-3.063807,-3.747044,-2.637580,2.067337,0.168631,-0.172081,0.645696
1.990000,-1.907030,1.605578,1.190158,1.065932,-1.224775,-0.055348,-0.382857,1.425706,0.037910,-0.599312,0.826934,0.529027,-0.701754,0.390286,2.171564,-3.881432,-1.469477,-1.483432,-1.430949,-0.059462,-0.142608,-3.057650,-3.642996,-2.643324,1.970377,0.173018,-0.179980,0.637669
2.000000,-1.904468,1.605600,1.189295,1.067544,-1.223724,-0.056563,-0.382128,1.448882,-0.000005,-0.615297,0.811869,0.514805,-0.703838,0.388971,2.450258,-3.711534,-1.735989,-1.536690,-1.407855,-0.374696,-0.105341,-3.064180,-3.543906,-2.650805,1.875107,0.177118,-0.186893,0.630438
2.010000,-1.895689,1.605592,1.185599,1.072586,-1.220872,-0.060998,-0.379707,1.474711,-0.036321,-0.634032,0.796200,0.500870,-0.709248,0.388179,2.696040,-3.563111,-2.012078,-1.601896,-1.371398,-0.714840,-0.040894,-3.081621,-3.450530,-2.659617,1.784296,0.180880,-0.193014,0.624184
2.020000,-1.881473,1.605233,1.179174,1.080108,-1.216710,-0.068153,-0.375673,1.502803,-0.071268,-0.655538,0.779831,0.487377,-0.718135,0.388153,2.897812,-3.438722,-2.282331,-1.674092,-1.318157,-1.059769,0.044410,-3.107282,-3.363582,-2.669335,1.700682,0.184266,-0.198590,0.619043
2.030000,-1.880109,1.605151,1.178693,1.080863,-1.216240,-0.068762,-0.375320,1.532667,-0.105095,-0.679679,0.762718,0.474507,-0.730443,0.389067,3.046673,-3.339476,-2.530731,-1.747360,-1.246704,-1.388682,0.142983,-3.137806,-3.283724,-2.679549,1.626758,0.187248,-0.203890,0.615092
2.040000,-1.869969,1.604510,1.173579,1.085553,-1.213587,-0.073451,-0.373081,1.563736,-0.138057,-0.706153,0.744883,0.462443,-0.745908,0.391013,3.135486,-3.265150,-2.740627,-1.815566,-1.157981,-1.681456,0.246424,-3.169504,-3.211541,-2.689876,1.564577,0.189809,-0.209174,0.612347
2.050000,-1.855491,1.603108,1.166978,1.092198,-1.209815,-0.080787,-0.369057,1.595377,-0.170398,-0.734491,0.726407,0.451347,-0.764072,0.393996,3.158278,-3.214433,-2.894759,-1.873137,-1.055366,-1.919862,0.346018,-3.198720,-3.147500,-2.699972,1.515587,0.191943,-0.214660,0.610761
2.060000,-1.855491,1.603108,1.166978,1.092198,-1.209815,-0.080787,-0.369057,1.626902,-0.202346,-0.764048,0.707421,0.441335,-0.784306,0.397933,3.109636,-3.185228,-2.975466,-1.915752,-0.944421,-2.088577,0.433249,-3.222220,-3.091903,-2.709534,1.480520,0.193654,-0.220491,0.610228
2.070000,-1.843811,1.601581,1.161217,1.096989,-1.206771,-0.086091,-0.366627,1.657570,-0.234103,-0.794000,0.688092,0.432459,-0.805844,0.402660,2.984325,-3.174974,-2.965234,-1.940838,-0.832356,-2.175902,0.500292,-3.237518,-3.044821,-2.718293,1.459345,0.194950,-0.226723,0.610593
2.080000,-1.830354,1.599462,1.154734,1.102312,-1.203545,-0.093087,-0.362900,1.686588,-0.265845,-0.823353,0.668604,0.424688,-0.827824,0.407939,2.777324,-3.180904,-2.847711,-1.947806,-0.727279,-2.174223,0.540464,-3.243143,-3.006037,-2.726010,1.451283,0.195848,-0.233306,0.611661
2.090000,-1.830354,1.599462,1.154734,1.102312,-1.203545,-0.093087,-0.362900,1.713116,-0.297721,-0.850955,0.649136,0.417913,-0.849328,0.413470,2.484418,-3.200247,-2.609269,-1.937995,-0.637311,-2.080237,0.548596,-3.238784,-2.974991,-2.732475,1.454887,0.196364,-0.240090,0.613211
2.100000,-1.815845,1.596867,1.146871,1.107376,-1.200129,-0.099908,-0.359808,1.736277,-0.329850,-0.875538,0.629844,0.411942,-0.869428,0.418911,2.103363,-3.230331,-2.241040,-1.914337,-0.569676,-1.895031,0.521334,-3.225313,-2.950749,-2.737506,1.468165,0.196517,-0.246837,0.615011
2.110000,-1.803293,1.593908,1.141490,1.112059,-1.197067,-0.106715,-0.356244,1.755183,-0.362327,-0.895775,0.610849,0.406520,-0.887229,0.423896,1.635480,-3.268618,-1.741211,-1.880814,-0.529864,-1.624030,0.457331,-3.204685,-2.931999,-2.740957,1.488756,0.196328,-0.253246,0.616830
2.120000,-1.803293,1.593908,1.141490,1.112059,-1.197067,-0.106715,-0.356244,1.768986,-0.395222,-0.910362,0.592228,0.401345,-0.901909,0.428058,1.087347,-3.312683,-1.117153,-1.841778,-0.520969,-1.276856,0.357359,-3.179713,-2.917080,-2.742739,1.514112,0.195816,-0.258984,0.618453
2.130000,-1.803293,1.593908,1.141490,1.112059,-1.197067,-0.106715,-0.356244,1.776930,-0.428581,-0.918118,0.574014,0.396100,-0.912766,0.431044,0.472152,-3.360182,-0.386850,-1.801271,-0.543286,-0.867028,0.224305,-3.153763,-2.904050,-2.742832,1.541689,0.195004,-0.263728,0.619689
2.140000,-1.791518,1.590970,1.135768,1.115986,-1.194256,-0.112255,-0.353714,1.778429,-0.462426,-0.918099,0.556202,0.390479,-0.919250,0.432544,-0.189787,-3.408820,0.420924,-1.762431,-0.594232,-0.411452,0.063072,-3.130401,-2.890788,-2.741309,1.569132,0.193914,-0.267195,0.620385
2.150000,-1.774654,1.587034,1.125281,1.120611,-1.191033,-0.120775,-0.349647,1.773135,-0.496758,-0.909700,0.538765,0.384216,-0.920995,0.432305,-0.871672,-3.456342,1.268039,-1.727091,-0.668597,0.070375,-0.119667,-3.113039,-2.875113,-2.738346,1.594414,0.192576,-0.269178,0.620425
2.160000,-1.774654,1.587034,1.125281,1.120611,-1.191033,-0.120775,-0.349647,1.760996,-0.531553,-0.892738,0.521661,0.377107,-0.917842,0.430150,-1.542103,-3.500551,2.110060,-1.695605,-0.759110,0.557499,-0.315867,-3.104625,-2.854926,-2.734233,1.615947,0.191020,-0.269563,0.619734
2.170000,-1.760008,1.582662,1.117360,1.124806,-1.187989,-0.128559,-0.346106,1.742293,-0.566769,-0.867499,0.504853,0.369033,-0.909845,0.425988,-2.167951,-3.539331,2.900506,-1.666895,-0.857227,1.028900,-0.516681,-3.107409,-2.828342,-2.729358,1.632635,0.189285,-0.268335,0.618275
2.180000,-1.746664,1.577884,1.111160,1.128730,-1.185099,-0.135963,-0.342433,1.717637,-0.602340,-0.834728,0.488323,0.359963,-0.897264,0.419817,-2.717696,-3.570700,3.595613,-1.638704,-0.954052,1.465034,-0.713162,-3.122795,-2.793808,-2.724193,1.643884,0.187409,-0.265568,0.616045
2.190000,-1.746664,1.577884,1.111160,1.128730,-1.185099,-0.135963,-0.342433,1.687939,-0.638183,-0.795587,0.472079,0.349952,-0.880544,0.411724,-3.164666,-3.592842,4.158825,-1.607985,-1.041240,1.849319,-0.897028,-3.151295,-2.750197,-2.719267,1.649563,0.185438,-0.261417,0.613068
2.200000,-1.732103,1.572044,1.104775,1.132934,-1.181945,-0.143385,-0.339071,1.654343,-0.674196,-0.751552,0.456163,0.339138,-0.860278,0.401876,-3.489673,-3.604171,4.564322,-1.571360,-1.111804,2.169361,-1.061382,-3.192565,-2.696856,-2.715130,1.649933,0.183415,-0.256090,0.609390
2.210000,-1.720752,1.567092,1.099905,1.136041,-1.179681,-0.149172,-0.336278,1.618145,-0.710266,-0.704300,0.440652,0.327716,-0.837157,0.390497,-3.682710,-3.603367,4.799176,-1.525600,-1.160712,2.417756,-1.201286,-3.245515,-2.633627,-2.712323,1.645554,0.181385,-0.249832,0.605075
2.220000,-1.720752,1.567092,1.099905,1.136041,-1.179681,-0.149172,-0.336278,1.580689,-0.746264,-0.655568,0.425651,0.315924,-0.811923,0.377850,-3.743565,-3.589434,4.863952,-1.468057,-1.185223,2.592359,-1.314104,-3.308465,-2.560816,-2.711346,1.637178,0.179389,-0.242902,0.600208
2.230000,-1.705386,1.559484,1.093883,1.140174,-1.176660,-0.156397,-0.333157,1.543274,-0.782055,-0.607021,0.411290,0.304012,-0.785310,0.364215,-3.681356,-3.561740,4.771815,-1.396999,-1.184949,2.696005,-1.399558,-3.379339,-2.479141,-2.712636,1.625653,0.177466,-0.235565,0.594889
2.240000,-1.696794,1.554614,1.091042,1.142463,-1.174971,-0.160444,-0.331224,1.507062,-0.817499,-0.560132,0.397711,0.292225,-0.758002,0.349859,-3.513145,-3.520051,4.546385,-1.311825,-1.161651,2.735749,-1.459509,-3.455861,-2.389642,-2.716551,1.611832,0.175649,-0.228078,0.589242
2.250000,-1.696794,1.554614,1.091042,1.142463,-1.174971,-0.160444,-0.331224,1.473011,-0.852456,-0.516093,0.385054,0.280779,-0.730595,0.335025,-3.261855,-3.464550,4.218698,-1.213131,-1.118823,2.721747,-1.497491,-3.535741,-2.293587,-2.723358,1.596503,0.173967,-0.220686,0.583410
2.260000,-1.678661,1.545004,1.083005,1.146879,-1.171770,-0.168827,-0.327667,1.441825,-0.886790,-0.475758,0.373448,0.269848,-0.703568,0.319909,-2.953787,-3.395844,3.823719,-1.102641,-1.061143,2.665969,-1.518084,-3.616844,-2.192369,-2.733234,1.580346,0.172442,-0.213617,0.577559
2.270000,-1.673129,1.541320,1.081328,1.148249,-1.170699,-0.171363,-0.326546,1.413935,-0.920373,-0.439619,0.363001,0.259556,-0.677276,0.304663,-2.616075,-3.314933,3.396845,-0.983027,-0.993864,2.580933,-1.526217,-3.697323,-2.087407,-2.746259,1.563906,0.171088,-0.207083,0.571868
2.280000,-1.670392,1.539463,1.080573,1.148981,-1.170199,-0.172806,-0.325932,1.389503,-0.953088,-0.407821,0.353788,0.249971,-0.651949,0.289385,-2.274360,-3.223163,2.970818,-0.857634,-0.922231,2.478626,-1.526501,-3.775713,-1.980060,-2.762424,1.547586,0.169914,-0.201269,0.566525
2.290000,-1.656223,1.530697,1.074806,1.152364,-1.167879,-0.179280,-0.323337,1.368448,-0.984836,-0.380203,0.345848,0.241111,-0.627703,0.274133,-1.950946,-3.122147,2.573356,-0.730173,-0.850985,2.369742,-1.522691,-3.850994,-1.871564,-2.781632,1.531663,0.168925,-0.196333,0.561715
2.300000,-1.649290,1.525628,1.072744,1.154040,-1.166666,-0.182352,-0.322031,1.350485,-1.015531,-0.356354,0.339184,0.232951,-0.604554,0.258931,-1.663577,-3.013654,2.225668,-0.604410,-0.783997,2.263259,-1.517325,-3.922610,-1.762977,-2.803704,1.516300,0.168118,-0.192396,0.557604
2.310000,-1.645312,1.522548,1.071772,1.155063,-1.165975,-0.184224,-0.321263,1.335176,-1.045109,-0.335689,0.333760,0.225431,-0.582438,0.243786,-1.424860,-2.899494,1.941887,-0.483870,-0.724044,2.166338,-1.511581,-3.990459,-1.655154,-2.828385,1.501578,0.167488,-0.189544,0.554322
2.320000,-1.632127,1.512942,1.067338,1.158272,-1.163947,-0.190071,-0.319030,1.321987,-1.073521,-0.317516,0.329507,0.218470,-0.561227,0.228700,-1.242293,-2.781389,1.729305,-0.371593,-0.672737,2.084413,-1.505338,-4.054855,-1.548720,-2.855347,1.487516,0.167028,-0.187817,0.551954
2.330000,-1.628169,1.509652,1.066380,1.159223,-1.163290,-0.191588,-0.318397,1.310331,-1.100737,-0.301103,0.326328,0.211977,-0.540750,0.213680,-1.118735,-2.660854,1.589215,-0.269936,-0.630568,2.021379,-1.497405,-4.116465,-1.444074,-2.884208,1.474095,0.166731,-0.187219,0.550520
2.340000,-1.623032,1.505224,1.065325,1.160538,-1.162461,-0.193764,-0.317565,1.299613,-1.126738,-0.285732,0.324108,0.205859,-0.520800,0.198752,-1.053182,-2.539098,1.518114,-0.180436,-0.597064,1.979754,-1.485878,-4.176236,-1.341389,-2.914533,1.461277,0.166588,-0.187713,0.549970
2.350000,-1.609182,1.493763,1.061441,1.163990,-1.160447,-0.199452,-0.315560,1.289267,-1.151519,-0.270741,0.322720,0.200035,-0.501154,0.183962,-1.041660,-2.416952,1.509057,-0.103734,-0.571003,1.960756,-1.468578,-4.235306,-1.240624,-2.945858,1.449008,0.166595,-0.189231,0.550176
2.360000,-1.606687,1.491423,1.060992,1.164607,-1.160054,-0.200295,-0.315232,1.278779,-1.175077,-0.255551,0.322034,0.194439,-0.481585,0.169380,-1.078128,-2.294842,1.552944,-0.039565,-0.550659,1.964307,-1.443501,-4.294914,-1.141543,-2.977706,1.437228,0.166750,-0.191677,0.550935
2.370000,-1.600460,1.485529,1.059949,1.166256,-1.159129,-0.202768,-0.314390,1.267704,-1.197415,-0.239682,0.321928,0.189022,-0.461868,0.155092,-1.155282,-2.172799,1.639640,0.013178,-0.534051,1.988973,-1.409263,-4.356306,-1.043750,-3.009608,1.425863,0.167052,-0.194939,0.551974
2.380000,-1.588752,1.474610,1.057514,1.169319,-1.157458,-0.207323,-0.312900,1.255674,-1.218533,-0.222758,0.322297,0.183758,-0.441805,0.141195,-1.265231,-2.050513,1.758842,0.056314,-0.519163,2.031928,-1.365463,-4.420653,-0.946717,-3.041130,1.414825,0.167508,-0.198885,0.552962
2.390000,-1.587525,1.473380,1.057330,1.169636,-1.157276,-0.207714,-0.312772,1.242400,-1.238426,-0.204505,0.323055,0.178639,-0.421230,0.127783,-1.400018,-1.927413,1.900695,0.092174,-0.504128,2.089007,-1.312954,-4.488967,-0.849835,-3.071892,1.404005,0.168124,-0.203373,0.553533
2.400000,-1.580261,1.465948,1.056375,1.171600,-1.156245,-0.210206,-0.312044,1.227673,-1.257081,-0.184744,0.324141,0.173675,-0.400025,0.114936,-1.552005,-1.802787,2.056168,0.123363,-0.487355,2.154882,-1.253966,-4.562046,-0.752461,-3.101591,1.393268,0.168910,-0.208248,0.553306
2.410000,-1.568982,1.454498,1.054473,1.174635,-1.154710,-0.214084,-0.311020,1.211360,-1.274481,-0.163382,0.325522,0.168892,-0.378132,0.102703,-1.714144,-1.675895,2.217248,0.152496,-0.467609,2.223400,-1.192064,-4.640428,-0.653970,-3.130012,1.382455,0.169881,-0.213337,0.551917
2.420000,-1.567800,1.453212,1.054346,1.174952,-1.154544,-0.214414,-0.310932,1.193391,-1.290599,-0.140399,0.327191,0.164323,-0.355557,0.091094,-1.880142,-1.546093,2.376990,0.181941,-0.444042,2.288055,-1.131939,-4.724364,-0.553809,-3.157045,1.371386,0.171048,-0.218443,0.549044
2.430000,-1.560837,1.445465,1.053759,1.176914,-1.153601,-0.216497,-0.310468,1.173757,-1.305403,-0.115842,0.329161,0.160011,-0.332371,0.080065,-2.044557,-1.412937,2.529497,0.213601,-0.416175,2.342570,-1.079014,-4.813822,-0.451545,-3.182673,1.359869,0.172424,-0.223339,0.544436
2.440000,-1.550182,1.433603,1.052583,1.179956,-1.152180,-0.219656,-0.309887,1.152499,-1.318858,-0.089809,0.331463,0.156000,-0.308706,0.069514,-2.202834,-1.276254,2.669850,0.248758,-0.383853,2.381535,-1.038931,-4.908498,-0.346909,-3.206976,1.347718,0.174023,-0.227762,0.537939
2.450000,-1.549064,1.432277,1.052533,1.180281,-1.152028,-0.219920,-0.309835,1.129700,-1.330928,-0.062445,0.334136,0.152334,-0.284740,0.059286,-2.351305,-1.136186,2.794060,0.287982,-0.347176,2.401021,-1.016934,-5.007853,-0.239830,-3.230106,1.334765,0.175855,-0.231409,0.529511
2.460000,-1.542413,1.424286,1.052307,1.182292,-1.151146,-0.221642,-0.309558,1.105473,-1.341582,-0.033928,0.337222,0.149056,-0.260685,0.049175,-2.487172,-0.993186,2.899041,0.331137,-0.306429,2.399129,-1.017238,-5.111157,-0.130450,-3.252270,1.320883,0.177927,-0.233938,0.519233
2.470000,-1.532420,1.412102,1.051889,1.185369,-1.149792,-0.224043,-0.309230,1.079957,-1.350792,-0.004464,0.340759,0.146205,-0.236758,0.038941,-2.608484,-0.847977,2.982629,0.377452,-0.262006,2.376371,-1.042455,-5.217545,-0.019126,-3.273701,1.306004,0.180242,-0.234984,0.507306
2.480000,-1.532420,1.412102,1.051889,1.185369,-1.149792,-0.224043,-0.309230,1.053304,-1.358541,0.025724,0.344771,0.143816,-0.213158,0.028326,-2.714107,-0.701486,3.043635,0.425667,-0.214358,2.335858,-1.093144,-5.326076,0.093585,-3.294634,1.290127,0.182803,-0.234169,0.494044
2.490000,-1.525226,1.402598,1.052285,1.187766,-1.148811,-0.225463,-0.309066,1.025675,-1.364822,0.056409,0.349272,0.141918,-0.190041,0.017078,-2.803699,-0.554741,3.081922,0.474226,-0.163958,2.283208,-1.167572,-5.435798,0.206962,-3.315280,1.273331,0.185606,-0.231130,0.479852
2.500000,-1.516040,1.390245,1.052797,1.190953,-1.147499,-0.227069,-0.308965,0.997230,-1.369636,0.087363,0.354256,0.140537,-0.167494,0.004975,-2.877662,-0.408774,3.098449,0.521497,-0.111276,2.226178,-1.261699,-5.545796,0.320166,-3.335801,1.255771,0.188643,-0.225549,0.465194
2.510000,-1.516040,1.390245,1.052797,1.190953,-1.147499,-0.227069,-0.308965,0.968121,-1.372997,0.118378,0.359702,0.139693,-0.145517,-0.008156,-2.937077,-0.264525,3.095272,0.565991,-0.056787,2.174001,-1.369441,-5.655247,0.432300,-3.356303,1.237671,0.191907,-0.217185,0.450562
2.520000,-1.507544,1.377897,1.054134,1.194198,-1.146254,-0.228142,-0.309004,0.938488,-1.374927,0.149268,0.365576,0.139401,-0.124014,-0.022414,-2.983594,-0.122766,3.075455,0.606552,-0.000971,2.136483,-1.483157,-5.763444,0.542460,-3.376819,1.219304,0.195386,-0.205909,0.436439
2.530000,-1.501191,1.368276,1.055428,1.196794,-1.145276,-0.228726,-0.309137,0.908449,-1.375453,0.179887,0.371833,0.139673,-0.102787,-0.037819,-3.019284,0.015934,3.042876,0.642510,0.055674,2.122936,-1.594347,-5.869819,0.649795,-3.397317,1.200976,0.199067,-0.191726,0.423260
2.540000,-1.501191,1.368276,1.055428,1.196794,-1.145276,-0.228726,-0.309137,0.878102,-1.374608,0.210126,0.378426,0.140515,-0.081555,-0.054301,-3.046445,0.151206,3.001938,0.673749,0.112638,2.141060,-1.694457,-5.973946,0.753544,-3.417707,1.182996,0.202939,-0.174800,0.411382
2.550000,-1.493579,1.355981,1.057698,1.200229,-1.144055,-0.229188,-0.309625,0.847521,-1.372428,0.239925,0.385308,0.141926,-0.059966,-0.071708,-3.067386,0.282839,2.957198,0.700721,0.169410,2.195926,-1.775723,-6.075522,0.853066,-3.437849,1.165651,0.206992,-0.155452,0.401059
2.560000,-1.487834,1.346417,1.059563,1.202996,-1.143053,-0.229418,-0.310250,0.816755,-1.368951,0.269270,0.392440,0.143903,-0.037636,-0.089815,-3.084205,0.410694,2.912960,0.724370,0.225517,2.289205,-1.831931,-6.174350,0.947853,-3.457578,1.149185,0.211218,-0.134159,0.392432
2.570000,-1.487834,1.346417,1.059563,1.202996,-1.143053,-0.229418,-0.310250,0.785836,-1.364215,0.298185,0.399795,0.146436,-0.014182,-0.108346,-3.098582,0.534606,2.872879,0.745994,0.280577,2.418761,-1.859015,-6.270306,1.037529,-3.476717,1.133776,0.215612,-0.111525,0.385519
2.580000,-1.480200,1.332854,1.062797,1.207059,-1.141630,-0.229570,-0.311488,0.754783,-1.358259,0.326727,0.407360,0.149514,0.010739,-0.126996,-3.111627,0.654280,2.839630,0.767066,0.334366,2.578714,-1.855422,-6.363307,1.121833,-3.495101,1.119533,0.220171,-0.088245,0.380225
2.590000,-1.475840,1.324753,1.064914,1.209567,-1.140733,-0.229561,-0.312376,0.723604,-1.351129,0.354977,0.415137,0.153124,0.037392,-0.145455,-3.123788,0.769209,2.814680,0.789026,0.386885,2.759972,-1.822211,-6.453278,1.200596,-3.512585,1.106486,0.224896,-0.065059,0.376359
2.600000,-1.475840,1.324753,1.064914,1.209567,-1.140733,-0.229561,-0.312376,0.692307,-1.342875,0.383021,0.423141,0.157252,0.065938,-0.163440,-3.134843,0.878614,2.798195,0.813085,0.438426,2.951202,-1.762876,-6.540133,1.273715,-3.529063,1.094600,0.229784,-0.042696,0.373658
2.610000,-1.469017,1.311340,1.068790,1.213831,-1.139118,-0.229082,-0.314307,0.660907,-1.333557,0.410941,0.431398,0.161892,0.096416,-0.180712,-3.143969,0.981454,2.789091,0.840065,0.489616,3.140101,-1.682940,-6.623752,1.341124,-3.544465,1.083788,0.234832,-0.021827,0.371813
2.620000,-1.465809,1.304687,1.070918,1.216003,-1.138280,-0.228554,-0.315268,0.629428,-1.323246,0.438803,0.439942,0.167044,0.128740,-0.197099,-3.149882,1.076468,2.785213,0.870294,0.541432,3.314812,-1.589360,-6.703978,1.402776,-3.558765,1.073930,0.240033,-0.003014,0.370501
2.630000,-1.463962,1.300722,1.072267,1.217321,-1.137773,-0.228132,-0.315879,0.597909,-1.312027,0.466645,0.448804,0.172721,0.162712,-0.212500,-3.151029,1.162274,2.783628,0.903572,0.595185,3.465270,-1.489835,-6.780621,1.458622,-3.571970,1.064899,0.245370,0.013324,0.369413
2.640000,-1.458738,1.288954,1.076555,1.221352,-1.136115,-0.226255,-0.318081,0.566407,-1.300000,0.494475,0.458013,0.178948,0.198046,-0.226895,-3.145798,1.237503,2.780972,0.939218,0.652468,3.584310,-1.392079,-6.853469,1.508611,-3.584115,1.056586,0.250817,0.026930,0.368279
2.650000,-1.456556,1.283788,1.078608,1.223207,-1.135381,-0.225322,-0.318990,0.534993,-1.287277,0.522265,0.467589,0.185770,0.234399,-0.240341,-3.132719,1.300935,2.773819,0.976171,0.715073,3.668372,-1.303141,-6.922304,1.552689,-3.595252,1.048916,0.256335,0.037721,0.366886
2.660000,-1.454473,1.278666,1.080745,1.225085,-1.134637,-0.224260,-0.319952,0.503753,-1.273982,0.549952,0.477537,0.193249,0.271413,-0.252958,-3.110626,1.351642,2.759013,1.013140,0.784876,3.717738,-1.228827,-6.986924,1.590809,-3.605436,1.041863,0.261874,0.045774,0.365088
2.670000,-1.450122,1.267274,1.085786,1.229406,-1.132751,-0.221149,-0.322605,0.472781,-1.260244,0.577445,0.487851,0.201468,0.308753,-0.264918,-3.078767,1.389090,2.733933,1.048782,0.863711,3.736281,-1.173280,-7.047162,1.622946,-3.614716,1.035456,0.267372,0.051309,0.362810
2.680000,-1.448791,1.263534,1.087623,1.230900,-1.132147,-0.220153,-0.323355,0.442178,-1.246200,0.604630,0.498512,0.210524,0.346139,-0.276424,-3.036835,1.413211,2.696660,1.081877,0.953225,3.730775,-1.138722,-7.102905,1.649114,-3.623126,1.029774,0.272753,0.054660,0.360043
2.690000,-1.447067,1.258575,1.090059,1.232900,-1.131295,-0.218602,-0.324531,0.412044,-1.231980,0.631378,0.509489,0.220532,0.383369,-0.287692,-2.984938,1.424421,2.646048,1.111478,1.054722,3.709872,-1.125378,-7.154110,1.669385,-3.630676,1.024935,0.277938,0.056240,0.356830
2.700000,-1.443189,1.246341,1.096539,1.238046,-1.128873,-0.213976,-0.327865,0.382479,-1.217711,0.657551,0.520742,0.231618,0.420336,-0.298931,-2.923510,1.423595,2.581694,1.137032,1.169004,3.682884,-1.131557,-7.200806,1.683905,-3.637352,1.021079,0.282839,0.056508,0.353254
2.710000,-1.442480,1.243933,1.097927,1.239116,-1.128418,-0.213146,-0.328409,0.353574,-1.203508,0.683012,0.532229,0.243912,0.457027,-0.310323,-2.853187,1.412008,2.503854,1.158446,1.296204,3.658512,-1.153872,-7.243101,1.692903,-3.643111,1.018343,0.287369,0.055929,0.349415
2.720000,-1.440742,1.237939,1.101321,1.241786,-1.127141,-0.210691,-0.330055,0.325415,-1.189471,0.707628,0.543911,0.257542,0.493507,-0.322009,-2.774675,1.391235,2.413304,1.176104,1.435617,3.643686,-1.187570,-7.281173,1.696699,-3.647889,1.016841,0.291447,0.054952,0.345415
2.730000,-1.438024,1.227314,1.107825,1.246727,-1.124545,-0.205591,-0.333356,0.298081,-1.175684,0.731278,0.555752,0.272624,0.529900,-0.334075,-2.688627,1.363046,2.311211,1.190833,1.585549,3.642631,-1.226933,-7.315262,1.695704,-3.651604,1.016635,0.294996,0.053977,0.341342
2.740000,-1.437743,1.226148,1.108576,1.247295,-1.124277,-0.205072,-0.333675,0.271643,-1.162210,0.753853,0.567728,0.289253,0.566359,-0.346547,-2.595565,1.329288,2.199007,1.203814,1.743190,3.656273,-1.265720,-7.345655,1.690415,-3.654161,1.017725,0.297950,0.053340,0.337257
2.750000,-1.436076,1.219186,1.112987,1.250707,-1.122521,-0.201659,-0.335764,0.246169,-1.149098,0.775258,0.579828,0.307488,0.603026,-0.359389,-2.495839,1.291775,2.078307,1.216472,1.904538,3.682037,-1.297624,-7.372671,1.681404,-3.655466,1.020026,0.300256,0.053295,0.333191
2.760000,-1.434043,1.208926,1.120053,1.255950,-1.119351,-0.195561,-0.339406,0.221726,-1.136375,0.795419,0.592057,0.327344,0.640000,-0.372500,-2.389639,1.252192,1.950853,1.230322,2.064400,3.714068,-1.316713,-7.396641,1.669306,-3.655430,1.023369,0.301876,0.054004,0.329141
2.770000,-1.434043,1.208926,1.120053,1.255950,-1.119351,-0.195561,-0.339406,0.198376,-1.124054,0.814275,0.604434,0.348776,0.677307,-0.385723,-2.277055,1.212017,1.818488,1.246806,2.216489,3.743832,-1.317829,-7.417896,1.654800,-3.653980,1.027496,0.302787,0.055540,0.325079
2.780000,-1.432610,1.201070,1.125627,1.260187,-1.116608,-0.190677,-0.342222,0.176185,-1.112135,0.831789,0.616993,0.371674,0.714877,-0.398856,-2.158155,1.172459,1.683142,1.267127,2.353637,3.761044,-1.296931,-7.436746,1.638590,-3.651069,1.032067,0.302983,0.057884,0.320958
2.790000,-1.431269,1.191159,1.133372,1.265838,-1.112952,-0.183748,-0.346088,0.155213,-1.100605,0.847938,0.629777,0.395849,0.752528,-0.411662,-2.033088,1.134434,1.546812,1.292088,2.468152,3.754823,-1.251351,-7.453476,1.621390,-3.646678,1.036677,0.302479,0.060937,0.316719
2.800000,-1.431269,1.191159,1.133372,1.265838,-1.112952,-0.183748,-0.346088,0.135523,-1.089446,0.862725,0.642835,0.421037,0.789973,-0.423884,-1.902173,1.098556,1.411536,1.321958,2.552310,3.714969,-1.179981,-7.468333,1.603903,-3.640825,1.040870,0.301308,0.064531,0.312303
2.810000,-1.429961,1.181359,1.140927,1.271662,-1.109003,-0.176540,-0.349934,0.117170,-1.078634,0.876169,0.656216,0.446895,0.826827,-0.435262,-1.765983,1.065157,1.279344,1.356372,2.599006,3.633232,-1.083358,-7.481526,1.586804,-3.633564,1.044166,0.299529,0.068456,0.307656
2.820000,-1.429292,1.173875,1.147212,1.276350,-1.105748,-0.170563,-0.353049,0.100203,-1.068143,0.888312,0.669962,0.473017,0.862638,-0.445551,-1.625392,1.034328,1.152205,1.394285,2.602502,3.504469,-0.963683,-7.493227,1.570724,-3.624985,1.046087,0.297226,0.072474,0.302732
2.830000,-1.429292,1.173875,1.147212,1.276350,-1.105748,-0.170563,-0.353049,0.084662,-1.057947,0.899213,0.684102,0.498945,0.896917,-0.454535,-1.481610,1.005985,1.031956,1.433992,2.559217,3.327558,-0.824739,-7.503573,1.556231,-3.615208,1.046192,0.294507,0.076351,0.297497
2.840000,-1.428390,1.164338,1.155020,1.282518,-1.101214,-0.162635,-0.357039,0.070571,-1.048023,0.908951,0.698642,0.524201,0.929189,-0.462045,-1.336170,0.979934,0.920250,1.473217,2.468453,3.105955,-0.671724,-7.512674,1.543818,-3.604378,1.044101,0.291506,0.079877,0.291926
2.850000,-1.428036,1.158099,1.160524,1.286781,-1.097997,-0.156910,-0.359845,0.057939,-1.038349,0.917618,0.713566,0.548314,0.959036,-0.467970,-1.190898,0.955957,0.818505,1.509284,2.332950,2.847800,-0.510972,-7.520614,1.533886,-3.592657,1.039529,0.288381,0.082889,0.286001
2.860000,-1.428036,1.158099,1.160524,1.286781,-1.097997,-0.156910,-0.359845,0.046753,-1.028904,0.925321,0.728828,0.570860,0.986145,-0.472265,-1.047855,0.933881,0.727881,1.539340,2.159142,2.565538,-0.349583,-7.527454,1.526740,-3.580212,1.032304,0.285303,0.085284,0.279710
2.870000,-1.427481,1.147805,1.169566,1.294042,-1.092092,-0.146970,-0.364554,0.036982,-1.019671,0.932176,0.744353,0.591497,1.010347,-0.474961,-0.909247,0.913635,0.649276,1.560639,1.957061,2.275045,-0.194945,-7.533237,1.522578,-3.567218,1.022382,0.282454,0.087029,0.273043
2.880000,-1.427267,1.141737,1.175151,1.298603,-1.088392,-0.140955,-0.367357,0.028568,-1.010631,0.938306,0.760041,0.610001,1.031646,-0.476164,-0.777328,0.895295,0.583327,1.570826,1.739839,1.994346,-0.054209,-7.537975,1.521492,-3.553845,1.009845,0.280013,0.088159,0.265994
2.890000,-1.427242,1.140731,1.176093,1.299368,-1.087814,-0.139932,-0.367820,0.021435,-1.001765,0.943842,0.775769,0.626294,1.050234,-0.476046,-0.654267,0.879079,0.530407,1.568218,1.522846,1.742061,0.066254,-7.541651,1.523468,-3.540260,0.994898,0.278147,0.088772,0.258564
2.900000,-1.427088,1.130755,1.185526,1.307121,-1.080750,-0.128628,-0.372863,0.015483,-0.993050,0.948915,0.791405,0.640458,1.066487,-0.474839,-0.542010,0.865330,0.490602,1.552026,1.322528,1.535747,0.161340,-7.544202,1.528395,-3.526631,0.977854,0.276996,0.089015,0.250764
2.910000,-1.427047,1.125843,1.190361,1.311197,-1.077512,-0.123469,-0.375124,0.010595,-0.984458,0.953654,0.806810,0.652745,1.080948,-0.472819,-0.442121,0.854458,0.463657,1.522503,1.155074,1.390315,0.227601,-7.545510,1.536058,-3.513119,0.959110,0.276672,0.089067,0.242618
2.920000,-1.427029,1.122902,1.193244,1.313630,-1.075657,-0.120249,-0.376497,0.006640,-0.975960,0.958188,0.821855,0.663560,1.094293,-0.470287,-0.355624,0.846855,0.448888,1.480993,1.035024,1.316692,0.263486,-7.545394,1.546152,-3.499884,0.939128,0.277244,0.089133,0.234168
2.930000,-1.427010,1.114140,1.201828,1.320994,-1.068927,-0.109559,-0.380996,0.003482,-0.967521,0.962632,0.836430,0.673445,1.107282,-0.467549,-0.282843,0.842805,0.445071,1.429880,0.973963,1.320832,0.269416,-7.543604,1.558269,-3.487076,0.918415,0.278737,0.089420,0.225477
2.940000,-1.427004,1.110297,1.205712,1.324402,-1.066226,-0.105280,-0.382781,0.000984,-0.959104,0.967089,0.850453,0.683039,1.120710,-0.464898,-0.223281,0.842382,0.450335,1.372450,0.979407,1.403142,0.247698,-7.539817,1.571899,-3.474828,0.897508,0.281134,0.090141,0.216624
2.950000,-1.427003,1.106461,1.209550,1.327769,-1.063366,-0.100561,-0.384665,-0.000983,-0.950674,0.971639,0.863879,0.693033,1.135345,-0.462595,-0.175524,0.845367,0.462091,1.312656,1.053985,1.558359,0.202297,-7.533651,1.586425,-3.463246,0.876961,0.284380,0.091498,0.207704
2.960000,-1.427035,1.097938,1.218200,1.335519,-1.056154,-0.089008,-0.389291,-0.002527,-0.942197,0.976331,0.876706,0.704119,1.151877,-0.460852,-0.137214,0.851182,0.477000,1.254832,1.195015,1.775842,0.138509,-7.524676,1.601117,-3.452390,0.857338,0.288383,0.093685,0.198817
2.970000,-1.427044,1.095135,1.221156,1.338200,-1.054165,-0.085722,-0.390591,-0.003728,-0.933650,0.981179,0.888975,0.716933,1.170862,-0.459825,-0.105087,0.858850,0.491029,1.203354,1.394509,2.040253,0.062561,-7.512441,1.615143,-3.442268,0.839204,0.293025,0.096875,0.190071
2.980000,-1.427063,1.090469,1.226008,1.342603,-1.050216,-0.079317,-0.393014,-0.004629,-0.925020,0.986152,0.900773,0.732009,1.192682,-0.459601,-0.075085,0.866997,0.499577,1.162276,1.639666,2.332574,-0.018804,-7.496503,1.627583,-3.432823,0.823108,0.298164,0.101212,0.181563
2.990000,-1.427116,1.082201,1.234813,1.350756,-1.042750,-0.067122,-0.397628,-0.005229,-0.916310,0.991170,0.912221,0.749727,1.217513,-0.460201,-0.042543,0.873884,0.497682,1.134970,1.913822,2.631392,-0.098744,-7.476461,1.637469,-3.423932,0.809569,0.303644,0.106793,0.173383
3.000000,-1.427124,1.080384,1.236823,1.352621,-1.041438,-0.064866,-0.398477,-0.005480,-0.907542,0.996105,0.923472,0.770285,1.245310,-0.461576,-0.002452,0.877480,0.480291,1.123789,2.197813,2.914391,-0.170703,-7.451997,1.643840,-3.415411,0.799040,0.309294,0.113640,0.165607
3.010000,-1.427147,1.074935,1.242765,1.358123,-1.036511,-0.056994,-0.401283,-0.005278,-0.898760,1.000776,0.934697,0.793683,1.275801,-0.463615,0.050233,0.875573,0.442586,1.129788,2.471646,3.159969,-0.228758,-7.422913,1.645807,-3.407034,0.791878,0.314931,0.121681,0.158296
3.020000,-1.427176,1.066887,1.251696,1.366567,-1.028501,-0.044355,-0.405824,-0.004475,-0.890031,1.004957,0.946068,0.819718,1.308509,-0.466151,0.120238,0.865905,0.380327,1.152526,2.716319,3.348881,-0.267922,-7.389160,1.642638,-3.398556,0.788303,0.320363,0.130726,0.151496
3.030000,-1.427175,1.066003,1.252711,1.367529,-1.027782,-0.043169,-0.406252,-0.002874,-0.881442,1.008383,0.957747,0.848009,1.342779,-0.468974,0.211613,0.846336,0.290200,1.189988,2.915593,3.465765,-0.284381,-7.350865,1.633835,-3.389742,0.788359,0.325390,0.140448,0.145242
3.040000,-1.427144,1.059818,1.259642,1.374142,-1.021046,-0.032977,-0.409632,-0.000243,-0.873104,1.010761,0.969868,0.878030,1.377825,-0.471839,0.327378,0.815026,0.170141,1.238632,3.057504,3.500390,-0.275669,-7.308341,1.619206,-3.380400,0.791886,0.329810,0.150396,0.139552
3.050000,-1.427117,1.052893,1.267713,1.382004,-1.013503,-0.021434,-0.413620,0.003674,-0.865142,1.011785,0.982520,0.909159,1.412787,-0.474487,0.469239,0.770604,0.019594,1.293578,3.135417,3.448484,-0.240761,-7.262093,1.598919,-3.370403,0.798506,0.333427,0.160006,0.134435
3.060000,-1.427117,1.052893,1.267713,1.382004,-1.013503,-0.021434,-0.413620,0.009142,-0.857692,1.011153,0.995739,0.940739,1.446794,-0.476654,0.637363,0.712341,-0.160307,1.348936,3.148499,3.312008,-0.180083,-7.212797,1.573527,-3.359720,0.807628,0.336061,0.168648,0.129880
3.070000,-1.427028,1.048588,1.272704,1.386921,-1.008679,-0.014201,-0.415913,0.016421,-0.850895,1.008579,1.009499,0.972129,1.479027,-0.478089,0.830279,0.640277,-0.366688,1.398240,3.101545,3.098854,-0.095438,-7.161278,1.543958,-3.348421,0.818473,0.337565,0.175676,0.125855
3.080000,-1.426809,1.040971,1.281633,1.396086,-0.998893,0.000379,-0.420680,0.025748,-0.844887,1.003819,1.023704,1.002769,1.508771,-0.478563,1.044894,0.555316,-0.595008,1.434968,3.004220,2.821999,0.010134,-7.108467,1.511481,-3.336686,0.830123,0.337836,0.180495,0.122309
3.090000,-1.426788,1.040135,1.282667,1.397132,-0.997992,0.001779,-0.421120,0.037319,-0.839789,0.996679,1.038198,1.032214,1.535467,-0.477886,1.276654,0.459256,-0.839299,1.453081,2.869829,2.498239,0.132563,-7.055353,1.477629,-3.324791,0.841583,0.336829,0.182622,0.119165
3.100000,-1.426513,1.035092,1.288596,1.403347,-0.991615,0.011102,-0.423918,0.051281,-0.835701,0.987033,1.052766,1.060166,1.558736,-0.475912,1.519828,0.354762,-1.092546,1.447545,2.713825,2.146678,0.266998,-7.002932,1.444106,-3.313099,0.851862,0.334561,0.181740,0.116324
3.110000,-1.426015,1.027596,1.297468,1.412905,-0.981422,0.025875,-0.428416,0.067716,-0.832693,0.974828,1.067149,1.086490,1.578400,-0.472546,1.767908,0.245265,-1.347184,1.414779,2.552211,1.787144,0.408093,-6.952146,1.412678,-3.302031,0.860053,0.331117,0.177731,0.113675
3.120000,-1.426015,1.027596,1.297468,1.412905,-0.981422,0.025875,-0.428416,0.086639,-0.830796,0.960089,1.081061,1.111210,1.594479,-0.467750,2.014075,0.134795,-1.595664,1.352987,2.400018,1.438657,0.550325,-6.903839,1.385049,-3.292037,0.865405,0.326643,0.170702,0.111100
3.130000,-1.425379,1.022581,1.303037,1.419324,-0.974242,0.035852,-0.431195,0.107997,-0.829998,0.942915,1.094209,1.134491,1.607174,-0.461539,2.251696,0.027763,-1.830999,1.262362,2.269932,1.118028,0.688328,-6.858713,1.362749,-3.283572,0.867394,0.321343,0.160973,0.108488
3.140000,-1.424314,1.015934,1.310279,1.428121,-0.964385,0.049536,-0.435085,0.131673,-0.830241,0.923469,1.106309,1.156609,1.616840,-0.453983,2.474779,-0.071303,-2.047239,1.145123,2.171151,0.838624,0.817235,-6.817299,1.347026,-3.277058,0.865760,0.315465,0.149063,0.105751
3.150000,-1.424178,1.015108,1.311216,1.429246,-0.963343,0.051009,-0.435514,0.157493,-0.831424,0.901970,1.117111,1.177914,1.623946,-0.445195,2.678364,-0.158046,-2.239789,1.005403,2.108504,0.609341,0.933009,-6.779937,1.338763,-3.272862,0.860529,0.309286,0.135647,0.102833
3.160000,-1.423084,1.010100,1.316374,1.435892,-0.955623,0.061365,-0.438148,0.185240,-0.833402,0.878674,1.126417,1.198779,1.629026,-0.435323,2.858788,-0.228576,-2.405569,0.848971,2.081906,0.433822,1.032724,-6.746780,1.338414,-3.271270,0.851998,0.303104,0.121509,0.099725
3.170000,-1.421168,1.002610,1.323976,1.446166,-0.944225,0.076633,-0.442199,0.214669,-0.835995,0.853859,1.134090,1.219552,1.632623,-0.424540,3.013826,-0.279751,-2.542989,0.682813,2.086236,0.310041,1.114770,-6.717803,1.345982,-3.272473,0.840700,0.297219,0.107479,0.096470
3.180000,-1.421168,1.002610,1.323976,1.446166,-0.944225,0.076633,-0.442199,0.245517,-0.838997,0.827814,1.140073,1.240504,1.635227,-0.413028,3.142705,-0.309426,-2.651796,0.514587,2.111690,0.230335,1.178959,-6.692829,1.361019,-3.276559,0.827344,0.291918,0.094370,0.093167
3.190000,-1.419023,0.995871,1.330352,1.455224,-0.933766,0.090241,-0.445289,0.277523,-0.842184,0.800823,1.144382,1.261786,1.637229,-0.400961,3.245987,-0.316647,-2.732835,0.352006,2.144686,0.182000,1.226492,-6.671564,1.382661,-3.283515,0.812741,0.287465,0.082913,0.089967
3.200000,-1.416510,0.989118,1.336456,1.464476,-0.923335,0.103563,-0.448512,0.310436,-0.845330,0.773157,1.147113,1.283397,1.638867,-0.388498,3.325381,-0.301771,-2.787780,0.202183,2.169281,0.148485,1.259806,-6.653631,1.409697,-3.293235,0.797726,0.284085,0.073706,0.087062
3.210000,-1.416510,0.989118,1.336456,1.464476,-0.923335,0.103563,-0.448512,0.344030,-0.848219,0.745067,1.148426,1.305171,1.640199,-0.375765,3.383480,-0.266495,-2.818894,0.071002,2.169011,0.111141,1.282301,-6.638615,1.440648,-3.305535,0.783081,0.281953,0.067164,0.084674
3.220000,-1.413257,0.981447,1.343024,1.474737,-0.911048,0.118758,-0.451561,0.378106,-0.850660,0.716779,1.148533,1.326778,1.641090,-0.362852,3.423480,-0.213785,-2.828849,-0.037399,2.128974,0.051401,1.297975,-6.626095,1.473871,-3.320176,0.769486,0.281185,0.063500,0.083034
3.230000,-1.410444,0.975476,1.348014,1.482823,-0.901831,0.129709,-0.453940,0.412500,-0.852495,0.688490,1.147678,1.347751,1.641227,-0.349805,3.448898,-0.147709,-2.820627,-0.121007,2.037891,-0.046880,1.311009,-6.615671,1.507660,-3.336886,0.757476,0.281831,0.062716,0.082356
3.240000,-1.410444,0.975476,1.348014,1.482823,-0.901831,0.129709,-0.453940,0.447084,-0.853614,0.660367,1.146113,1.367535,1.640152,-0.336632,3.463326,-0.073170,-2.797494,-0.180099,1.889884,-0.195186,1.325343,-6.606989,1.540350,-3.355385,0.747433,0.283873,0.064620,0.082825
3.250000,-1.405866,0.966878,1.354602,1.494071,-0.888086,0.146040,-0.456869,0.481766,-0.853958,0.632540,1.144076,1.385548,1.637323,-0.323299,3.470229,0.004428,-2.763034,-0.217160,1.685687,-0.398567,1.344280,-6.599749,1.570405,-3.375411,0.739601,0.287225,0.068857,0.084565
3.260000,-1.402843,0.961743,1.358368,1.500890,-0.879806,0.155467,-0.458726,0.516489,-0.853525,0.605106,1.141770,1.401249,1.632181,-0.309746,3.472797,0.079559,-2.721203,-0.236584,1.433097,-0.654573,1.370156,-6.593708,1.596496,-3.396739,0.734111,0.291737,0.074956,0.087636
3.270000,-1.402843,0.961743,1.358368,1.500890,-0.879806,0.155467,-0.458726,0.551222,-0.852367,0.578116,1.139344,1.414210,1.624232,-0.295896,3.473873,0.146972,-2.676365,-0.244147,1.146573,-0.953111,1.404110,-6.588679,1.617554,-3.419205,0.731023,0.297206,0.082371,0.092021
3.280000,-1.397286,0.953208,1.364187,1.512084,-0.865484,0.171724,-0.461315,0.585966,-0.850586,0.551579,1.136887,1.424181,1.613119,-0.281664,3.475919,0.202053,-2.633292,-0.246344,0.846000,-1.277252,1.445972,-6.584521,1.632807,-3.442713,0.730370,0.303380,0.090529,0.097627
3.290000,-1.394254,0.948977,1.366904,1.517768,-0.858654,0.179318,-0.462757,0.620741,-0.848326,0.525451,1.134417,1.431130,1.598687,-0.266976,3.481038,0.241129,-2.597088,-0.249659,0.554761,-1.604921,1.494290,-6.581129,1.641783,-3.467252,0.732195,0.309972,0.098869,0.104297
3.300000,-1.392993,0.947288,1.367948,1.520016,-0.855830,0.182471,-0.463221,0.655587,-0.845763,0.499637,1.131894,1.435276,1.581020,-0.251778,3.491013,0.261676,-2.573034,-0.259862,0.297375,-1.911247,1.546502,-6.578420,1.644302,-3.492889,0.736578,0.316674,0.106863,0.111824
3.310000,-1.386891,0.939705,1.372172,1.530135,-0.842060,0.197664,-0.465325,0.690561,-0.843092,0.473990,1.129220,1.437078,1.560462,-0.236046,3.507366,0.262418,-2.566352,-0.281421,0.096963,-2.171284,1.599251,-6.576316,1.640438,-3.519773,0.743655,0.323164,0.114038,0.119977
3.320000,-1.384040,0.936366,1.374023,1.534700,-0.836590,0.203534,-0.466271,0.725734,-0.840515,0.448310,1.126265,1.437215,1.537595,-0.219793,3.531395,0.243312,-2.581905,-0.317106,-0.027146,-2.362787,1.648803,-6.574730,1.630464,-3.548121,0.753619,0.329128,0.119988,0.128519
3.330000,-1.381816,0.933849,1.375293,1.538050,-0.831911,0.208592,-0.466845,0.761189,-0.838226,0.422352,1.122878,1.436535,1.513206,-0.203070,3.564188,0.205418,-2.623863,-0.367807,-0.061437,-2.468734,1.691550,-6.573553,1.614788,-3.578198,0.766713,0.334273,0.124376,0.137239
3.340000,-1.373864,0.925490,1.379073,1.549328,-0.816358,0.224952,-0.468842,0.797018,-0.836406,0.395833,1.118909,1.435986,1.488220,-0.185962,3.606615,0.150696,-2.695351,-0.432591,0.000350,-2.479316,1.724518,-6.572638,1.593884,-3.610302,0.783215,0.338343,0.126947,0.145966
3.350000,-1.371374,0.922990,1.380178,1.552711,-0.812052,0.229370,-0.469381,0.833321,-0.835212,0.368445,1.114226,1.436542,1.463620,-0.168580,3.659267,0.081726,-2.798146,-0.508960,0.156506,-2.393182,1.745829,-6.571798,1.568223,-3.644739,0.803412,0.341135,0.127531,0.154590
3.360000,-1.367123,0.918811,1.381952,1.558257,-0.804611,0.236924,-0.470082,0.870203,-0.834772,0.339870,1.108730,1.439116,1.440356,-0.151045,3.722383,0.001416,-2.932429,-0.593267,0.397410,-2.217807,1.755049,-6.570808,1.538219,-3.681794,0.827573,0.342518,0.126047,0.163071
3.370000,-1.358872,0.911257,1.384507,1.568198,-0.790368,0.251088,-0.471329,0.907769,-0.835184,0.309796,1.102361,1.444490,1.419264,-0.133479,3.795746,-0.087290,-3.096656,-0.681219,0.706357,-1.968930,1.753361,-6.569417,1.504196,-3.721713,0.855919,0.342437,0.122506,0.171434
3.380000,-1.357949,0.910423,1.384826,1.569303,-0.789075,0.252313,-0.471459,0.946118,-0.836518,0.277937,1.095105,1.453244,1.400978,-0.115978,3.878585,-0.181676,-3.287529,-0.768404,1.061030,-1.669147,1.743540,-6.567375,1.466365,-3.764679,0.888593,0.340924,0.117012,0.179771
3.390000,-1.352264,0.905374,1.386505,1.575752,-0.780055,0.261005,-0.471994,0.985341,-0.838817,0.244046,1.086993,1.465711,1.385881,-0.098608,3.969479,-0.279452,-3.500096,-0.850765,1.435441,-1.345852,1.729705,-6.564467,1.424837,-3.810794,0.925636,0.338091,0.109752,0.188220
3.400000,-1.343005,0.897769,1.388231,1.585406,-0.765751,0.274422,-0.472592,1.025508,-0.842107,0.207935,1.078090,1.481952,1.374061,-0.081384,4.066281,-0.378891,-3.727938,-0.924980,1.802077,-1.028796,1.716880,-6.560556,1.379646,-3.860063,0.966969,0.334126,0.100982,0.196955
3.410000,-1.341965,0.896926,1.388441,1.586474,-0.764374,0.275661,-0.472650,1.066666,-0.846395,0.169487,1.068493,1.501752,1.365305,-0.064270,4.166075,-0.478885,-3.963429,-0.988711,2.134019,-0.747564,1.710389,-6.555622,1.330791,-3.912385,1.012375,0.329276,0.091007,0.206158
3.420000,-1.335499,0.891813,1.389333,1.592751,-0.754713,0.284567,-0.472908,1.108829,-0.851685,0.128666,1.058316,1.524633,1.359110,-0.047176,4.265152,-0.578931,-4.198030,-1.040719,2.406792,-0.529249,1.715174,-6.549807,1.278286,-3.967547,1.061501,0.323828,0.080161,0.216005
3.430000,-1.325027,0.884080,1.389861,1.602220,-0.740102,0.297457,-0.473330,1.151969,-0.857974,0.085526,1.047679,1.549888,1.354720,-0.029967,4.359040,-0.679047,-4.422609,-1.080847,2.599847,-0.396503,1.735104,-6.543442,1.222215,-4.025226,1.113860,0.318087,0.068776,0.226645
3.440000,-1.325027,0.884080,1.389861,1.602220,-0.740102,0.297457,-0.473330,1.196010,-0.865265,0.040214,1.036699,1.576630,1.351179,-0.012474,4.442571,-0.779646,-4.627790,-1.109916,2.697587,-0.366073,1.772368,-6.537066,1.162786,-4.084991,1.168841,0.312350,0.057164,0.238187
3.450000,-1.315389,0.877124,1.390090,1.610378,-0.726992,0.308739,-0.473161,1.240821,-0.873567,-0.007030,1.025481,1.603840,1.347398,0.005481,4.510039,-0.881367,-4.804329,-1.129536,2.689988,-0.447848,1.827042,-6.531420,1.100370,-4.146318,1.225730,0.306891,0.045592,0.250686
3.460000,-1.306334,0.870945,1.389599,1.617526,-0.715429,0.318321,-0.473080,1.286211,-0.882893,-0.055873,1.014108,1.630430,1.342223,0.024067,4.555433,-0.984897,-4.943565,-1.141900,2.572847,-0.644402,1.896879,-6.527428,1.035537,-4.208614,1.283730,0.301934,0.034266,0.264143
3.470000,-1.306334,0.870945,1.389599,1.617526,-0.715429,0.318321,-0.473080,1.331929,-0.893265,-0.105901,1.002643,1.655297,1.334510,0.043418,4.572792,-1.090795,-5.037940,-1.149553,2.347758,-0.950981,1.977381,-6.526141,0.969063,-4.271240,1.341999,0.297650,0.023326,0.278496
3.480000,-1.294385,0.862878,1.388763,1.626454,-0.700561,0.330187,-0.472382,1.377667,-0.904709,-0.156631,0.991117,1.677385,1.323203,0.063614,4.556664,-1.199336,-5.081611,-1.155170,2.021874,-1.355890,2.062138,-6.528672,0.901922,-4.333548,1.399682,0.294142,0.012841,0.293630
3.490000,-1.284561,0.856470,1.387516,1.633335,-0.689140,0.339022,-0.471936,1.423063,-0.917251,-0.207533,0.979539,1.695734,1.307392,0.084661,4.502666,-1.310387,-5.071132,-1.161349,1.607530,-1.841225,2.143435,-6.536104,0.835261,-4.394918,1.455953,0.291450,0.002814,0.309375
3.500000,-1.284561,0.856470,1.387516,1.633335,-0.689140,0.339022,-0.471936,1.467720,-0.930916,-0.258054,0.967890,1.709535,1.286378,0.106483,4.408102,-1.423337,-5.006143,-1.170424,1.121754,-2.383893,2.213066,-6.549387,0.770345,-4.454803,1.510061,0.289548,-0.006807,0.325522
3.510000,-1.270063,0.847109,1.385219,1.642831,-0.672180,0.351709,-0.470600,1.511225,-0.945718,-0.307656,0.956131,1.718169,1.259715,0.128922,4.272575,-1.537071,-4.889996,-1.184299,0.585663,-2.956883,2.263273,-6.569242,0.708493,-4.512766,1.561369,0.288357,-0.016123,0.341825
3.520000,-1.262420,0.842322,1.383606,1.647549,-0.663905,0.357632,-0.469946,1.553171,-0.961658,-0.355854,0.944204,1.721249,1.227241,0.151748,4.098501,-1.650008,-4.730184,-1.204319,0.023709,-3.530769,2.287703,-6.596063,0.650999,-4.568517,1.609396,0.287751,-0.025269,0.358020
3.530000,-1.260877,0.841357,1.383272,1.648488,-0.662253,0.358764,-0.469802,1.593195,-0.978718,-0.402260,0.932044,1.718644,1.189099,0.174676,3.891424,-1.760197,-4.538467,-1.231171,-0.537311,-4.075421,2.282266,-6.629846,0.599041,-4.621935,1.653846,0.287570,-0.034402,0.373835
3.540000,-1.246662,0.832520,1.379805,1.656710,-0.646416,0.369675,-0.467772,1.631000,-0.996862,-0.446623,0.919581,1.710502,1.145732,0.197394,3.660027,-1.865454,-4.330545,-1.264835,-1.069536,-4.561892,2.245767,-6.670149,0.553602,-4.673083,1.694629,0.287633,-0.043694,0.389004
3.550000,-1.238395,0.827487,1.377416,1.661241,-0.638135,0.375222,-0.466744,1.666395,-1.016027,-0.488871,0.906748,1.697253,1.097861,0.219592,3.415781,-1.963532,-4.125232,-1.304589,-1.545637,-4.964413,2.180225,-6.716083,0.515389,-4.722197,1.731861,0.287746,-0.053317,0.403283
3.560000,-1.235044,0.825450,1.376414,1.663045,-0.634732,0.377368,-0.466275,1.699316,-1.036132,-0.529128,0.893489,1.679590,1.046444,0.240998,3.172173,-2.052298,-3.943093,-1.349077,-1.940664,-5.262354,2.090829,-6.766353,0.484779,-4.769670,1.765858,0.287722,-0.063438,0.416465
3.570000,-1.219126,0.816003,1.370676,1.671032,-0.618585,0.387745,-0.463983,1.729839,-1.057073,-0.567732,0.879766,1.658440,0.992614,0.261408,2.943571,-2.129909,-3.804629,-1.396438,-2.234002,-5.441970,1.985522,-6.819334,0.461781,-4.816006,1.797099,0.287385,-0.074205,0.428393
3.580000,-1.210123,0.810627,1.367359,1.675414,-0.610451,0.392435,-0.462628,1.758187,-1.078731,-0.605221,0.865560,1.634910,0.937605,0.280709,2.743802,-2.194941,-3.728187,-1.444497,-2.411203,-5.497698,1.874263,-6.873174,0.446033,-4.861768,1.826189,0.286588,-0.085741,0.438969
3.590000,-1.204757,0.807363,1.365434,1.678001,-0.605502,0.395112,-0.461653,1.784715,-1.100972,-0.642296,0.850876,1.610216,0.882660,0.298894,2.584626,-2.246481,-3.727822,-1.490995,-2.465464,-5.432811,1.768037,-6.925928,0.436824,-4.907517,1.853802,0.285218,-0.098133,0.448162
3.600000,-1.185956,0.796070,1.357624,1.686472,-0.588146,0.404811,-0.458444,1.809879,-1.123660,-0.679777,0.835740,1.585600,0.828948,0.316069,2.474308,-2.284161,-3.811440,-1.533821,-2.398517,-5.259285,1.677728,-6.975692,0.433148,-4.953743,1.880625,0.283205,-0.111429,0.456010
3.610000,-1.180404,0.792627,1.355433,1.688945,-0.583349,0.407138,-0.457297,1.834201,-1.146655,-0.718525,0.820200,1.562245,0.777475,0.332448,2.416508,-2.308138,-3.979510,-1.571245,-2.220759,-4.996827,1.612959,-7.020732,0.433783,-5.000808,1.907296,0.280528,-0.125629,0.462614
3.620000,-1.171294,0.786828,1.351944,1.692987,-0.575454,0.410886,-0.455381,1.858210,-1.169823,-0.759367,0.804315,1.541185,0.729012,0.348329,2.409691,-2.319033,-4.224583,-1.602085,-1.950580,-4.671167,1.581046,-7.059598,0.437383,-5.048894,1.934357,0.277215,-0.140691,0.468126
3.630000,-1.154515,0.776093,1.344900,1.700041,-0.560510,0.418400,-0.451758,1.882395,-1.193036,-0.803017,0.788158,1.523234,0.684051,0.364069,2.447174,-2.317851,-4.531750,-1.625814,-1.612890,-4.311757,1.586179,-7.091198,0.442584,-5.097975,1.962210,0.273344,-0.156532,0.472738
3.640000,-1.150850,0.773688,1.343424,1.701591,-0.557698,0.419553,-0.451078,1.907153,-1.216180,-0.850002,0.771799,1.508927,0.642777,0.380052,2.517822,-2.305889,-4.880016,-1.642585,-1.237006,-3.949161,1.628943,-7.114841,0.448104,-5.147801,1.991094,0.269033,-0.173045,0.476664
