123yjm/Brainco_identification/robots/revoarm_right/data_base_inertia/revoarm_right_filtered_data.csv
time,q0,q1,q2,q3,q4,q5,q6,qd0,qd1,qd2,qd3,qd4,qd5,qd6,qdd0,qdd1,qdd2,qdd3,qdd4,qdd5,qdd6,tau0,tau1,tau2,tau3,tau4,tau5,tau6
0,-1.5,0.15,-2.16840434497101e-18,1.73472347597681e-18,-1.725,0,-2.60208521396521e-18,-1.73472347597681e-18,0,0,0,1.73472347597681e-18,-6.93889390390723e-18,0,-1.66533453693773e-16,-1.38777878078145e-17,1.38777878078145e-17,2.77555756156289e-17,1.11022302462516e-16,-2.77555756156289e-17,-1.38777878078145e-17,0,0,0,0,0,0,0
0.01,-1.4999999938838,0.150000078909888,1.68474121107869e-08,1.69902237921044e-08,-1.72500000142591,-4.1162957245891e-08,-8.39850206029585e-08,2.03863791033067e-06,2.36871709810292e-05,5.0627513271047e-06,5.1428223724107e-06,-1.95995487604385e-07,-1.23109571119665e-05,-2.5172113467768e-05,0.000489235878244509,0.00474304371437052,0.00101595546675018,0.00104684472454006,5.34996297179013e-05,-0.00244696684668189,-0.00502498153024307,0,0,0,0,0,0,0
0.02,-1.49999993476996,0.150000632386497,1.35459140858428e-07,1.39573327827616e-07,-1.72499999287074,-3.26248354732758e-07,-6.69975188208848e-07,1.14143123598077e-05,9.49658116282312e-05,2.03866162701519e-05,2.13002504317185e-05,2.92240999317205e-06,-4.86296453329252e-05,-0.000100302431841109,0.00146733369167479,0.00951756713657073,0.00205216238384198,0.00220269193055972,0.000662705296322064,-0.00480102991307568,-0.0099908056211157,0,0,0,0,0,0,0
0.03,-1.49999972485444,0.150002137845647,4.59452782153747e-07,4.83322036518019e-07,-1.72499991342506,-1.09063715006755e-06,-2.25451142295968e-06,3.3012609180063e-05,0.000214128842402324,4.61722676165042e-05,4.95552185554313e-05,1.49060715274214e-05,-0.000108011724351683,-0.000224774431822691,0.00293360424467204,0.0143191878051539,0.00310824925289606,0.00346610216206156,0.00182628016235176,-0.00705914748915255,-0.0148924938416135,0,0,0,0,0,0,0
0.04,-1.49999921752005,0.150005075412543,1.09443376915329e-06,1.17456431546203e-06,-1.72499964674729,-2.56011670582423e-06,-5.32772164541125e-06,7.17097483359207e-05,0.000381425151723959,8.26165684408312e-05,9.09756283061459e-05,4.12896054623295e-05,-0.000189483006262259,-0.000397922154266673,0.00488686365895746,0.0191434824461656,0.00418382562278794,0.00483550859650156,0.00354231364196733,-0.00921839233771471,-0.0197251382477021,0,0,0,0,0,0,0
0.05,-1.49999821745482,0.15000992747948,2.14795632687617e-06,2.35022670378067e-06,-1.72499902125479,-4.95058809389659e-06,-1.0372830021514e-05,0.000132367640872606,0.000597059208094758,0.000129912382390118,0.000146613083514381,8.7585662575218e-05,-0.000292040617246024,-0.000619030932769584,0.00732543420732701,0.0239859910289996,0.00527848205430156,0.0063092188158945,0.00580832362357719,-0.0112759550652239,-0.0244839061145228,0,0,0,0,0,0,0
0.06,-1.4999964808198,0.150017178259875,3.72948252805208e-06,4.15766508835534e-06,-1.72499781037198,-8.46778518319435e-06,-1.7865673728989e-05,0.000219828956568486,0.000861190712968278,0.000188248383680286,0.000217501643712181,0.000159279226231324,-0.000414654192358001,-0.000887338169214766,0.0102471456209066,0.0288422208598067,0.00639179009780537,0.00788541670549411,0.00862125924469903,-0.0132291473712095,-0.0291640445941566,0,0,0,0,0,0,0
0.07,-1.49999371546602,0.150027313339034,5.95033944811849e-06,6.75448310894292e-06,-1.72499573283544,-1.3307005835737e-05,-2.82742277106429e-05,0.000338912207023971,0.00117393429472661,0.000257808866935536,0.000304656597182913,0.000261821941039304,-0.000556267102185471,-0.00120203415550352,0.0136493368688866,0.0337076507085913,0.00752330228421409,0.00956216447804703,0.0119775042161437,-0.0150754051727541,-0.0337608852944172,0,0,0,0,0,0,0
0.08,-1.49998958120059,0.150040819222058,8.92367441834927e-06,1.03083383976403e-05,-1.72499245305547,-1.96528555232237e-05,-4.20581378726649e-05,0.000494406848903776,0.00153535924408022,0.000338773557005048,0.000409073254872787,0.000400626477481264,-0.000715797710112738,-0.0015622629406605,0.0175288584092304,0.0385777349661021,0.00867255212949196,0.0113374048214956,0.0158728806920877,-0.0168122916006765,-0.0382698487742152,0,0,0,0,0,0,0
0.09,-1.49998369010166,0.150058182879324,1.27644083775821e-05,1.4996736866368e-05,-1.7249875815339,-2.76790036640873e-05,-5.9668263177215e-05,0.000691068412033612,0.00194548929116902,0.000431317418893292,0.000531725766387289,0.000581060937956596,-0.000892140658892584,-0.00196712324245756,0.0218820749084074,0.0434479078265905,0.00983905415294462,0.0132089631678829,0.0203026536820752,-0.018437499864163,-0.0426864489511227,0,0,0,0,0,0,0
0.1,-1.4999756068819,0.150079891289934,1.75891873244352e-05,2.10068152701019e-05,-1.72498067533749,-3.75479529670306e-05,-8.15462270701709e-05,0.000933613657029111,0.00240430242460459,0.000535610467943247,0.000673565959272928,0.000808443309636989,-0.00108416818519322,-0.00241566940265621,0.0267048684277442,0.0483135874924915,0.0110223039095385,0.0151745500810954,0.0252615360004569,-0.0199488559807263,-0.0470062974168474,0,0,0,0,0,0,0
0.11,-1.49996484930026,0.150106430983574,2.35163318731915e-05,2.85351122840741e-05,-1.72497123862663,-4.94108220545422e-05,-0.000108123978675396,0.00122671576710989,0.00291173075265152,0.000651817580413928,0.00083552220276021,0.00108803596948234,-0.00129073146075901,-0.00290691238492685,0.0319926420735373,0.0531701803970575,0.0122217780364781,0.0172317637609616,0.0307436937482681,-0.0213443213685096,-0.0512251076564195,0,0,0,0,0,0,0
0.12,-1.49995088862165,0.150138287581189,3.06657849180041e-05,3.77873283455739e-05,-1.72495872323867,-6.34071416250083e-05,-0.000139823364177697,0.00157499957871986,0.00346766040670873,0.000780098304595931,0.00101849829711868,0.00142504024671504,-0.00151066195879402,-0.00343982081446132,0.0377403241076284,0.0580130854409617,0.0134369343142623,0.0193780926611097,0.036742752322027,-0.0226219952980885,-0.0553386991669863,0,0,0,0,0,0,0
0.13,-1.49993315012405,0.150175945334913,3.91590574116212e-05,4.89780745220551e-05,-1.72494252932531,-7.96646643990689e-05,-0.000177055708805817,0.00198303685554021,0.00407193148721007,0.000920606672610686,0.0012233723897481,0.00182459104799181,-0.00174277284414972,-0.00401332205825474,0.0439423725146911,0.0628376982388733,0.0146672117424294,0.0216109182178791,0.0432518029434284,-0.0237801172010649,-0.0593430014722074,0,0,0,0,0,0,0
0.14,-1.49991101365268,0.150219886667661,4.91191722660597e-05,6.23306106784585e-05,-1.72492200604348,-9.82991890808478e-05,-0.000220221409817525,0.00245534161044159,0.00472433805202343,0.00107349101304167,0.00145099591910231,0.00229175155044987,-0.00198586038587189,-0.00462630334499292,0.0505927800220498,0.0676394153719985,0.015912030630195,0.0239275176874677,0.0502634097034057,-0.0248170688328933,-0.0632340580283459,0,0,0,0,0,0,0
0.15,-1.49988381422069,0.150270591712826,6.06706063844093e-05,7.80765732272988e-05,-1.7248964522988,-0.000119414398550179,-0.000269709540876768,0.00299636547987797,0.00542462814738885,0.00123889376454701,0.00170219258751355,0.00283150796773675,-0.00223870539063683,-0.00527761292344323,0.0576850795674002,0.0724136386425777,0.0171707927021709,0.026325067088394,0.0577696171135402,-0.0257313762875221,-0.0670080300182567,0,0,0,0,0,0,0
0.16,-1.49985084265579,0.150328537854496,7.39392308343258e-05,9.64556927558948e-05,-1.72486511754108,-0.000143101712487622,-0.000325897468202589,0.00361049315517641,0.00617250388139432,0.00141695129060565,0.00197775736395556,0.00344876439405971,-0.00250007465558348,-0.00596606125820963,0.0652123502093827,0.0771557793263253,0.0184428812193466,0.0288006442462503,0.0657619581573082,-0.0265217118615849,-0.0706612000295811,0,0,0,0,0,0,0
0.17,-1.49981134629234,0.150394199268611,8.90522491752408e-05,0.000117715501835139,-1.72482720261097,-0.000169440154618351,-0.000389150478857667,0.00430203787512419,0.00696762153994914,0.00160779369555023,0.00227845551775251,0.00414833773121379,-0.00276872243902645,-0.00669042226167546,0.0731672234755201,0.0818612624188039,0.0197276611155032,0.0313512319376202,0.0742314628331723,-0.0271868957660273,-0.0741899756135712,0,0,0,0,0,0,0
0.18,-1.49976452970807,0.150468046465502,0.00010613813395302,0.000142111033324205,-1.72478186063688,-0.000198496234746244,-0.00045982142153188,0.00507523698419747,0.00780959174517405,0.00181154464204194,0.00260502168420973,0.00493495270346467,-0.00304339194751416,-0.00744943456092336,0.08154189014162,0.0865255308717307,0.0210244791492154,0.0339737211299408,0.0831686671810568,-0.0277258976832074,-0.0775908927210839,0,0,0,0,0,0,0
0.19,-1.49970955550503,0.150550545834225,0.000125326561377219,0.000169904509494962,-1.72472819798128,-0.000230323845733783,-0.00053825036016521,0.00593424756071559,0.00869797965608729,0.00202832117014404,0.00295815896310878,0.0058132369650767,-0.00332281683767776,-0.00824180279838696,0.0903281074363181,0.0911440498152219,0.0223326640715906,0.0366649143139936,0.0925636227832726,-0.0281378381676657,-0.0808606190124033,0,0,0,0,0,0,0
0.2,-1.49964554513372,0.150642159189099,0.000146748344197731,0.000201365022309661,-1.72466527523548,-0.000264964175567907,-0.000624764240740065,0.0068831421191381,0.00963230521142637,0.00225823351815192,0.00333853805097675,0.00678771630518282,-0.00360572273129929,-0.00906619896495639,0.0995172066640273,0.0957123107619995,0.0236515268098765,0.0394215289256199,0.102405906730514,-0.0284219898889168,-0.0839959570376746,0,0,0,0,0,0,0
0.21,-1.49957157975995,0.150743343318902,0.000170535362799132,0.000236768205193721,-1.7245921082618,-0.000302445634635901,-0.000719676571561855,0.0079259043906542,0.0106120434144051,0.00250138494533907,0.00374679640800395,0.00786280995459983,-0.00389082874201143,-0.00992126376422829,0.109100101239163,0.100225835789599,0.0249803606670607,0.0422402008531678,0.112684632043088,-0.0285777787147737,-0.0869938472848579,0,0,0,0,0,0,0
0.22,-1.49948670117339,0.150854549539109,0.000196820494532844,0.000276395896654446,-1.72450766928222,-0.000342783798319932,-0.000823287117331943,0.00906642518613901,0.0116366246591663,0.00275787155677962,0.00418353746045011,0.00904282599908877,-0.00417684901202772,-0.0108056080065607,0.119067295124104,0.104680181696639,0.0263184415375697,0.0451174880270969,0.123388458537119,-0.0286047846338799,-0.0898513710922406,0,0,0,0,0,0,0
0.23,-1.49938991273713,0.150976223247606,0.000225737541308458,0.000320535796104651,-1.72441088801228,-0.000385981365002275,-0.000935881607304659,0.0103084983454762,0.0127054350986514,0.00302778213040857,0.00464932983934222,0.0103319569034583,-0.00446249425728908,-0.0117178140315639,0.129408891662969,0.109070944129245,0.0276650281391653,0.0480498740880838,0.134505604125019,-0.0285027425162845,-0.0925657534226782,0,0,0,0,0,0,0
0.24,-1.49928018037726,0.151108803484288,0.000257421155467609,0.000369481112257986,-1.7243006528392,-0.000432028129557196,-0.00105773145780554,0.0116558167771621,0.0138178170535686,0.00331119794648254,0.00514470665623024,0.0117342751507979,-0.00474647331940215,-0.0126564371576307,0.140114602802897,0.113393761673735,0.0290193622611192,0.0510337721299001,0.146023856539126,-0.0282715427110594,-0.0951343654968699,0,0,0,0,0,0,0
0.25,-1.49915643361158,0.151252722494955,0.000292006763965077,0.00042353020447003,-1.724175812043,-0.00048090097238958,-0.00118909350937407,0.0131119685920242,0.0149730694621029,0.00360819261960372,0.00567016481672977,0.0132537290010151,-0.00502749472273547,-0.0136200071570849,0.15117375869416,0.117644319911729,0.0303806690287364,0.0540655285132572,0.157930585466988,-0.0279112314801247,-0.0975547272831115,0,0,0,0,0,0,0
0.26,-1.49901756661652,0.151408405299902,0.000329630490883681,0.000482986217406677,-1.72403517505941,-0.000532563864063341,-0.00133020977878011,0.0146804333347982,0.0161704483699743,0.00391883193347122,0.00622616437254192,0.0148941383727351,-0.00530426823503202,-0.0146070297554982,0.162575317660044,0.121818355433852,0.0317481571842819,0.0571414267467483,0.170212755086375,-0.0274220112676126,-0.0998245098411088,0,0,0,0,0,0,0
0.27,-1.49886243933121,0.151576269267608,0.000370429078311001,0.000548156709427988,-1.72387751378338,-0.000586967885546691,-0.00148130722614822,0.016364578317213,0.0174091674604094,0.00424317367852376,0.00681312791260168,0.0166591908524974,-0.00557550642989102,-0.0156159881537075,0.174307876527108,0.125911659808281,0.0331210193843531,0.0602576914309486,0.182856936987741,-0.0268042408042688,-0.101941537517578,0,0,0,0,0,0,0
0.28,-1.49868987859773,0.151756723693929,0.000414539805607596,0.000619353275081454,-1.7237015639118,-0.000644051264084657,-0.0016425975374092,0.0181676550561393,0.0186883986235576,0.00458126749263854,0.0074314399939663,0.0185524378350615,-0.00583992624946739,-0.0166453445710365,0.186359681306058,0.129920083500381,0.0344984325137231,0.0634104922616792,0.195849323471459,-0.0260584350465558,-0.103903789991505,0,0,0,0,0,0,0
0.29,-1.49849867933638,0.151950169387177,0.000462100407098288,0.000696891162105545,-1.72350602632413,-0.000703739424692937,-0.00181427692228395,0.0200927958202591,0.0200072725648433,0.00493315470505088,0.00808144661301546,0.0205772907985058,-0.00609625056573505,-0.0176935418082116,0.198718638213135,0.133839539739767,0.03587955801567,0.0665959480883786,0.209175741206813,-0.0251852649502924,-0.105709404167076,0,0,0,0,0,0,0
0.3,-1.498287605755,0.152156998259473,0.000513248988219369,0.000781088883348787,-1.72328956849965,-0.000765945057250193,-0.00199652592798822,0.0221430102886077,0.0213648794517114,0.00529886818365956,0.00876345471749362,0.0227370177176684,-0.00634320973865923,-0.0187590048284367,0.211372325021613,0.137666008331155,0.0372635422387879,0.0698101310234766,0.222821665239378,-0.0241855570788315,-0.107356675912453,0,0,0,0,0,0,0
0.31,-1.49805539259106,0.152377592924759,0.000568123940156461,0.000872267824015699,-1.7230508259698,-0.000830568199149661,-0.00218950926883281,0.0243211823242363,0.0227602695981847,0.00567843218588267,0.00947773175988362,0.0250347396193477,-0.00657954316962383,-0.0198401423550779,0.224308002732636,0.141395539405421,0.0386495168002629,0.073049070598614,0.236772233333094,-0.0230602930459458,-0.108844061642709,0,0,0,0,0,0,0
0.32,-1.4978007463855,0.152612326303841,0.000626863853009419,0.000970751844654942,-1.72278840380434,-0.000897496333454632,-0.00239337567187673,0.0266300668661351,0.0241924541866184,0.00607186221322847,0.0102245052925594,0.0274734272825381,-0.00680400084846257,-0.0209353484843925,0.237512627554366,0.14502425710736,0.040036598965582,0.0763087579635097,0.251012260633008,-0.021810608793762,-0.110170179745386,0,0,0,0,0,0,0
0.33,-1.49752234678698,0.152861561236837,0.000689607427522206,0.00107686688030964,-1.72250087812964,-0.000966604502485156,-0.00260825773877671,0.02907228694244,0.0256604060260016,0.0064791648697451,0.0110039626051229,0.0300558980868373,-0.00701534489244675,-0.0220430043117203,0.250972863178069,0.14854836321668,0.041423892044628,0.0795851501232331,0.26552625463437,-0.0204377937062486,-0.111333811847308,0,0,0,0,0,0,0
0.34,-1.49721884788541,0.15312565010338,0.000756493385417253,0.00119094053625331,-1.72218679767784,-0.00103775543674783,-0.00283427182395897,0.0316503308078391,0.0271630603461201,0.00690033772451315,0.0118162504042879,0.0327848130120159,-0.00721235107558847,-0.0231614795695447,0.264675093339505,0.151964140698838,0.0428104858040951,0.0828741742096085,0.280298430443467,-0.0189432895589345,-0.112333903921424,0,0,0,0,0,0,0
0.35,-1.49688887957347,0.153404934450949,0.000827660378375758,0.00131330168073924,-1.72184468536522,-0.00111079969910308,-0.00307151792922448,0.0343665492079677,0.0286993156268638,0.00733536917834357,0.0126614745366308,0.0356626737915916,-0.00739381034662544,-0.0242891342758174,0.278605434653715,0.155267957182404,0.0441954568961486,0.0861717317824394,0.295312726315302,-0.0173286893056994,-0.113169567232612,0,0,0,0,0,0,0
0.36,-1.49653104893485,0.153699744631654,0.000903246895706593,0.0014442800351921,-1.72147303989822,-0.00118557584404921,-0.00332007961488192,0.037223152773469,0.0302680344619256,0.00778423833484297,0.0135396997544842,0.0386918202231007,-0.00755853033406347,-0.0254243203909321,0.292749749711001,0.158456268359681,0.0455778693032327,0.0894737031562214,0.310552819452962,-0.0155957357036466,-0.113840079121543,0,0,0,0,0,0,0
0.37,-1.49614394165787,0.154010399447836,0.000983391170748378,0.00158420576227597,-1.72107033740561,-0.00126191059198526,-0.00358002392748699,0.0402222095462685,0.0318680444561109,0.00824691487600734,0.0144509495252078,0.0418744276376103,-0.00770533683666262,-0.0265653834817246,0.307093660421678,0.161525621307417,0.0469567747989168,0.0927759517479803,0.326002142053296,-0.0137463197772318,-0.114344883625846,0,0,0,0,0,0,0
0.38,-1.49572612347317,0.154337205806804,0.00106823108605083,0.0017334090522722,-1.72063503309509,-0.00133961901829933,-0.00385140134424994,0.0433656426404867,0.0334981391554402,0.00872335894250385,0.0153952058840239,0.04521250453085,-0.00783307529776673,-0.0277106643908675,0.321622561596914,0.164472657724503,0.0483312134246529,0.0960743284418616,0.341643897583236,-0.0117824791229891,-0.114683591937997,0,0,0,0,0,0,0
0.39,-1.49527614161413,0.154680458385027,0.00115790407738298,0.00189221970820447,-1.72016556293287,-0.00141850475711277,-0.00413424573415727,0.046655228040287,0.0351570790092024,0.00921352101879935,0.0163724093305652,0.0487078903581976,-0.00794061226188912,-0.0288585009100268,0.336321634752746,0.167294117083619,0.0497002139823021,0.0993646759660755,0.357461077270954,-0.00970639605635755,-0.114855982699486,0,0,0,0,0,0,0
0.4,-1.49479252629859,0.155040439302109,0.00125254703661763,0.00206096673014798,-1.71966034534434,-0.00149836021949506,-0.00442857433583697,0.050092592536826,0.0368435923630811,0.00971734182329206,0.0173824587692352,0.0523622534955813,-0.00802683681198416,-0.030007229455139,0.351175862124156,0.169986839693915,0.0510627945422717,0.102642833277797,0.373436476795765,-0.00752039560227251,-0.114862002131003,0,0,0,0,0,0,0
0.41,-1.4942737922305,0.155417417804844,0.00135229621354274,0.00223997789916185,-1.71911778293443,-0.00157896682594817,-0.00473438775218034,0.0536792118063374,0.0385563764824512,0.0102347522036022,0.0184252114934386,0.056177089368208,-0.00809066198585097,-0.0311551867421706,0.366170040875861,0.172547769671846,0.0524179629670868,0.105904639951609,0.389552713160567,-0.00522694333135045,-0.114701763998524,0,0,0,0,0,0,0
0.42,-1.4937184401201,0.155811649961652,0.00145728711665218,0.00242957936128316,-1.71853626422571,-0.00166009525294437,-0.0050516699617169,0.0574164086312536,0.040294098604913,0.0107656730371745,0.0195004832136964,0.0601537187488612,-0.00813102617013518,-0.0323007114617178,0.381288797496313,0.174973957817412,0.0537647174502061,0.109145940567084,0.405792241730401,-0.00282864304365097,-0.114375549415354,0,0,0,0,0,0,0
0.43,-1.49312495822117,0.156223378367681,0.00156765441296968,0.00263009521202134,-1.71791416541273,-0.00174150569328566,-0.00538038834672267,0.061305351266124,0.042055397021105,0.0113100151373446,0.020608048129613,0.064293286227344,-0.00814689447041515,-0.0334421459508071,0.396516602361194,0.177262564393115,0.0551020470698736,0.112362589091091,0.422137373420574,-0.000328234302159367,-0.113883806480333,0,0,0,0,0,0,0
0.44,-1.4924918238838,0.15665283186086,0.00168353182696139,0.00284184708179139,-1.71724985213081,-0.00182294813003831,-0.00572049373802581,0.0653470519499599,0.0438388821828083,0.0118676791650177,0.0217476390456226,0.0685967588524848,-0.00813726005588095,-0.0345778378602607,0.411837784452544,0.179410861803063,0.0564289323577832,0.115550453250429,0.438570292017641,0.0022714101817127,-0.113227149752574,0,0,0,0,0,0,0
0.45,-1.49181750512144,0.157100225249152,0.00180505203859391,0.00306515372272279,-1.71654168123747,-0.00190416262378098,-0.00607192047645662,0.069542365566489,0.0456431378373327,0.0124385555461076,0.0229189475303946,0.0730649249479433,-0.00810114547713876,-0.0357061418159934,0.427236546219508,0.181416237169725,0.0577443458823143,0.118705418890401,0.455073071616432,0.00496728730815725,-0.112406359563274,0,0,0,0,0,0,0
0.46,-1.4911004621905,0.157565759049298,0.00193234658059615,0.00330033059728028,-1.71578800260492,-0.00198487961289049,-0.0064345864908737,0.0738919884536675,0.0474667221871492,0.0130225243948788,0.0241216241197371,0.0776983931028995,-0.00803760395569798,-0.0368254210726162,0.442696978566537,0.18327619480595,0.0590472528460839,0.121823394314954,0.471627694156198,0.00775626649193012,-0.111422381165269,0,0,0,0,0,0,0
0.47,-1.49033914918113,0.158049619237257,0.0020655457349846,0.00354768946913018,-1.71498716092167,-0.00206482022657505,-0.0068083933926808,0.0783964573636519,0.0493081690737084,0.013619455443336,0.0253552785627899,0.082497591338528,-0.00794572064372555,-0.0379340491577278,0.458203075954762,0.184988358579973,0.0603366116975401,0.124900314604027,0.488216067038865,0.0106350927054906,-0.110276323721198,0,0,0,0,0,0,0
0.48,-1.48953201561764,0.158551977010622,0.0022047784289135,0.00380753799668419,-1.7141374975017,-0.00214369661035037,-0.00719322658673321,0.0830561485742896,0.051165989184365,0.0142292079767975,0.0266194801112611,0.0874627664509934,-0.00782461385267992,-0.0390304115052845,0.473738751602158,0.1865504741712,0.0616113747563101,0.127932145903793,0.504820040812297,0.0136003896594253,-0.108969459131279,0,0,0,0,0,0,0
0.49,-1.4886775080671,0.159072988563196,0.00235017212991201,0.00408017932974944,-1.7132373520992,-0.0022212122636412,-0.00758895539851677,0.0878712771530466,0.0530386712813066,0.0148516307757897,0.0279137578514107,0.0925939835315332,-0.0076734362494671,-0.0401129070764511,0.489287852767982,0.187960411214718,0.0628704888519963,0.130914889685478,0.521421426901444,0.0166486631171202,-0.107503220701855,0,0,0,0,0,0,0
0.5,-1.48777407175441,0.159612794871981,0.0025018527405727,0.00436591170971086,-1.71228506472733,-0.00229706238917603,-0.00799543321746609,0.0928418963741376,0.0549246834513608,0.015486562064396,0.0292376010784488,0.0978911256640193,-0.0074913760187916,-0.0411799499663459,0.504834176106939,0.189216165332539,0.0641128959760988,0.133844586968505,0.538002015370185,0.0197763043404994,-0.105879201656027,0,0,0,0,0,0,0
0.51,-1.48682015218258,0.160171521496751,0.00265994449275619,0.00466502807366796,-1.71127897747901,-0.00237093425383129,-0.00841249765627313,0.0979678972894881,0.0568224743755422,0.0161338294651887,0.0305904597129685,0.10335389380022,-0.00727765799040892,-0.0422299709951096,0.520361483078413,0.190315860049709,0.0653375339467292,0.136717322503726,0.554543592696663,0.0229795936635192,-0.104099153487863,0,0,0,0,0,0,0
0.52,-1.48581419675639,0.160749278392419,0.00282456984137858,0.00497781566294439,-1.71021743634819,-0.00244250756056708,-0.00883997072602157,0.103249008454001,0.0587304746171774,0.0167932499608707,0.0319717447589945,0.108981806812809,-0.00703154473001807,-0.0432614192817396,0.535853515396062,0.19125774859354,0.0665433370857596,0.139529228912553,0.571027959544907,0.0262547041899666,-0.102164984161783,0,0,0,0,0,0,0
0.53,-1.48475465640814,0.161346159734378,0.00299584935784945,0.00530455563638421,-1.70909879304959,-0.00251145483108496,-0.00927765902696706,0.108684795805461,0.0606470979274297,0.0174646298627489,0.0333808288031849,0.114774201726008,-0.00675233759256996,-0.0442727637991527,0.551294010503051,0.192040215574317,0.067729236908041,0.142276490777859,0.587436948515542,0.0295977056119852,-0.100078756158931,0,0,0,0,0,0,0
0.54,-1.48363998722376,0.161962243756971,0.00317390162322915,0.00564552268884383,-1.70792140683529,-0.00257744179882594,-0.00972535395476766,0.114274662699256,0.0625707425670335,0.0181477647861598,0.0348170465546841,0.120730234123548,-0.00643937773680183,-0.0452624949089532,0.566666717058137,0.192661778545931,0.0688941628223053,0.144955348682537,0.603752441858423,0.033004568145622,-0.0978426843724277,0,0,0,0,0,0,0
0.55,-1.4824686520678,0.162597592605262,0.00335884312117558,0.00600098467528343,-1.7066836463064,-0.00264012781191515,-0.0101828319219545,0.120017850097954,0.0644997926430274,0.018842439632959,0.0362796954250826,0.126848878733506,-0.00609204709984738,-0.0462291258744074,0.58195541041784,0.193121089445053,0.0700370428433514,0.147562103191689,0.619956389130058,0.0364711665795661,-0.0954591338536043,0,0,0,0,0,0,0
0.56,-1.48123912220579,0.163252252200237,0.00355078813075173,0.00637120224085621,-1.70538389121789,-0.00269916624564832,-0.0106498545944168,0.125913436915621,0.0664326194592672,0.019548428581189,0.0377680361479,0.133128930189362,-0.00570976933080974,-0.0471711943501441,0.597143908099909,0.19341693590752,0.0711568043151015,0.150093118774474,0.636030824778774,0.0399932844331318,-0.0929306174114257,0,0,0,0,0,0,0
0.57,-1.47994987892233,0.16392625211758,0.00374984861916621,0.00675642845738755,-1.70402053427509,-0.0027542049241043,-0.0111261691426617,0.131960340516614,0.0683675828794833,0.020265495082029,0.039281293436969,0.139569003966482,-0.00529201068222526,-0.0480872638471253,0.612216085213324,0.193548242460767,0.0722523746440955,0.152544827661665,0.651957885640623,0.043566618219421,-0.0902597930674721,0,0,0,0,0,0,0
0.58,-1.47859941513349,0.164619605480131,0.00395613413452003,0.00715690846662938,-1.70259198291976,-0.00280488655045739,-0.0116115085075938,0.138157317368454,0.0703030327016382,0.0209933918641307,0.0408186566830566,0.146167537493034,-0.00483828085838736,-0.0489759251714545,0.627155889840104,0.193514071591229,0.0733226820429832,0.154913733635097,0.667719828329151,0.0471867818094903,-0.0874494613689841,0,0,0,0,0,0,0
0.59,-1.47718623699185,0.165332308864151,0.00416975169863419,0.00757287913066963,-1.70109666110436,-0.00285084914555307,-0.0121055916805466,0.144502963848203,0.0722373100423292,0.0217318609454365,0.0423792806880243,0.152922791434214,-0.00434813381954116,-0.0498357978356173,0.641947358354219,0.193313624685772,0.0743666562835506,0.157196415745191,0.683299046502241,0.0508493108932382,-0.0845025625626157,0,0,0,0,0,0,0
0.6,-1.47570886548273,0.166064342219455,0.00439080570003323,0.00800456868986752,-1.69953301105253,-0.00289172649430105,-0.0126081239972823,0.150995717201665,0.0741687487299718,0.022480633652574,0.0439622864357876,0.159832851148441,-0.00382116854100415,-0.0506655314407743,0.656574630662994,0.192946242846332,0.07538322945881,0.159389531952866,0.698678087989387,0.0545496675326259,-0.0814221736316781,0,0,0,0,0,0,0
0.61,-1.47416583801007,0.166815668803541,0.00461939778716085,0.00845219642867931,-1.69789949500412,-0.00292714859943039,-0.0131187974456643,0.157633856654551,0.0760956767054923,0.0232394306479147,0.0455667618993022,0.166895628314071,-0.00325702972631154,-0.0514638070287556,0.671021965356424,0.192411407577042,0.0763713367536665,0.161489822692175,0.713839671762879,0.0582832448027464,-0.0782115051997855,0,0,0,0,0,0,0
0.62,-1.47255570997048,0.167586235129734,0.00485562676190501,0.00891597234973074,-1.69619459694322,-0.00295674214214265,-0.0136372909866928,0.164415504674609,0.0780164174292524,0.0240079619643804,0.0471917628827647,0.174108862724969,-0.00265540847353068,-0.0522293384024375,0.685273754749942,0.191708741343274,0.0773299172236579,0.163494114350146,0.728766704736549,0.06204537151616,-0.0748738983039524,0,0,0,0,0,0,0
0.63,-1.47087705631386,0.168375970929443,0.00509958847351002,0.00939609685648402,-1.69441682430725,-0.00298013094919058,-0.0141632708885805,0.171338628383598,0.0799292912929211,0.0247859270480744,0.0488363138981834,0.181470124253134,-0.00201604289393516,-0.0529608734132092,0.699314539806262,0.190838008002127,0.0782579145812565,0.165399322660316,0.743442298375919,0.0658313170258256,-0.0714128210403119,0,0,0,0,0,0,0
0.64,-1.46912847308916,0.169184789128546,0.00535137571295429,0.00989276044483868,-1.69256470967578,-0.0029969364659022,-0.0146963910735331,0.178401041117812,0.0818326170350073,0.0255730148088123,0.0504994090754389,0.18897681497643,-0.0013387186822768,-0.0536571952142745,0.713129024922043,0.189799113104031,0.0791542779892032,0.167202456006612,0.757849785103739,0.0696362961018711,-0.0678318650857551,0,0,0,0,0,0,0
0.65,-1.46730857897386,0.17001258583795,0.00561107810787341,0.0104061434039968,-1.69063681243704,-0.00300677823466252,-0.0152362934768872,0.185600404135734,0.0837247131587633,0.0263689036786185,0.0521800131049215,0.196626171469263,-0.000623269637940224,-0.0543171234785635,0.726702092565238,0.188592104065228,0.080017962860335,0.168900618634246,0.771972734485155,0.073455473877365,-0.0641347420989091,0,0,0,0,0,0,0
0.66,-1.46541601678558,0.170859240358328,0.00587878201810804,0.0109364155269133,-1.68863172043092,-0.00300927437835859,-0.0157826084182451,0.192934228471267,0.0856038993511674,0.0271732616782513,0.0538770622117987,0.204415267253965,0.000130421863684296,-0.0549395155800648,0.740018817749145,0.187217170211057,0.0808479316633525,0.170491013764462,0.785794969176952,0.0772839708581744,-0.0603252800039915,0,0,0,0,0,0,0
0.67,-1.46344945497446,0.171724615199054,0.00615457043195763,0.0114837358306435,-1.68654805156653,-0.00300404208828655,-0.0163349549842354,0.200399876930819,0.0874684979016924,0.0279857464918128,0.0555894651609376,0.212341015410408,0.000922424450226528,-0.0555232677374271,0.753064482329323,0.185674642690053,0.0816431547339645,0.171970946609994,0.79930058062553,0.0811168679919259,-0.0564074191611934,0,0,0,0,0,0,0
0.68,-1.46140758909484,0.172608556111316,0.0064385228632207,0.0120482522868885,-1.68438445541294,-0.00299069811601424,-0.0168929414225158,0.207994566232424,0.0893168351195706,0.0288060055494955,0.0573161042914716,0.22040017134129,0.00175275738232598,-0.0560673161187115,0.765824589109708,0.18396499425902,0.0824026110908311,0.173337827288258,0.812473944498567,0.0849492117910155,-0.0523852084273512,0,0,0,0,0,0,0
0.69,-1.45928914325493,0.173510892135388,0.00673071524910363,0.0126301015630301,-1.68213961476146,-0.00296885926868684,-0.0174561655466255,0.215715369284909,0.0911472427482653,0.0296336761185088,0.0590558365799761,0.228589335690341,0.0026213902351008,-0.0565706379062188,0.778284875744451,0.182088838939335,0.0831252892557204,0.174589173629365,0.825299735835548,0.0887760195045541,-0.048262801110782,0,0,0,0,0,0,0
0.7,-1.45709287154282,0.174431435662027,0.00703121984907961,0.0132294087739368,-1.67981224715806,-0.00293814290725853,-0.0180242151512816,0.22355921760501,0.0929580593758628,0.0304683854022263,0.0608074947311871,0.236904957410567,0.00352824263155898,-0.0570322523203527,0.790431328422185,0.180046931544894,0.0838101880772794,0.17572261387615,0.837762943902648,0.092592284334081,-0.0440444508242496,0,0,0,0,0,0,0
0.71,-1.45481755942788,0.175369982507955,0.00734010514478048,0.0138462872448092,-1.67740110640429,-0.00289816744712848,-0.0185966684377045,0.231522903870171,0.0947476318401045,0.0313097506475862,0.0625698882951687,0.245343336979505,0.00447318402836413,-0.0574512216015194,0.802250195319635,0.177840167082203,0.0844563175578104,0.176735889273553,0.849848886737723,0.096392980687821,-0.0397345072401412,0,0,0,0,0,0,0
0.72,-1.45246202513571,0.176326312005344,0.00765743574100383,0.0144808382853254,-1.67490498402537,-0.00284855286065602,-0.0191730944485491,0.239603084604697,0.096514316626783,0.0321573792607724,0.0643418048098094,0.253900629758326,0.00545603355431456,-0.0578266519491084,0.813727999811721,0.175469580023242,0.0850626996824349,0.177626856544744,0.861543225371505,0.10017306946822,-0.0353374117520173,0,0,0,0,0,0,0
0.73,-1.45002512099577,0.177300187105266,0.00798327226791843,0.0151331509753331,-1.67232271070394,-0.00278892118102606,-0.0197530535120075,0.247796282996715,0.0982564812602339,0.0330108689311953,0.066122010967505,0.262572849491461,0.00647655990184177,-0.0581576944166372,0.824851553425519,0.172936343451882,0.085628369250017,0.178393490251556,0.872831977711386,0.103927503387449,-0.0308576930468006,0,0,0,0,0,0,0
0.74,-1.44750573476011,0.178291354494987,0.00831767128455107,0.015803301962324,-1.66965315767823,-0.0027188970069334,-0.0203360976946402,0.256098891843354,0.099972505684663,0.0338698077637894,0.0679092538048558,0.271355871943339,0.00753448127178178,-0.0584435457621905,0.835607968525691,0.170241768084692,0.086152374705209,0.179033885036858,0.883701532074535,0.107651232305536,-0.0262999625919471,0,0,0,0,0,0,0
0.75,-1.444902790892,0.179299544729029,0.00866068518363793,0.0164913552709162,-1.66689523810302,-0.00263810800755211,-0.020921771262484,0.264507176621385,0.101660783635058,0.0347337744196335,0.0697022619141885,0.280245438668638,0.00862946537161847,-0.0586834492533231,0.845984670719269,0.16738730116717,0.0866337789709738,0.179546257746651,0.894138660357408,0.111339208585746,-0.0216689100420341,0,0,0,0,0,0,0
0.76,-1.44221525182332,0.180324472373891,0.00901236209792387,0.0171973621245553,-1.66404790837243,-0.00254618542725448,-0.0215096111499789,0.273017278680456,0.103319723996444,0.0356023382648959,0.0714997466756895,0.289237160912359,0.00976112946734463,-0.0588766954256456,0.855969410967922,0.164374525246475,0.0870716602809304,0.179928949429766,0.904130530829125,0.114986392461811,-0.0169692985692724,0,0,0,0,0,0,0
0.77,-1.4394421191793,0.181365836166285,0.00937274580799266,0.017921360779635,-1.66111016940293,-0.00244276458954279,-0.0220991474362461,0.281625218555932,0.104947752150253,0.0364750595280995,0.0733004035089135,0.298326523635913,0.0109290404890316,-0.0590226227943534,0.865550277396129,0.161205156821897,0.0874651130108613,0.180180427213186,0.913664720536484,0.118587757411599,-0.0122059601225275,0,0,0,0,0,0,0
0.78,-1.43658243496966,0.182423319184777,0.00974187565171152,0.0186633763722241,-1.65808106787559,-0.00232748539965686,-0.022689903828242,0.290326899398259,0.106543311306594,0.037351489465695,0.0751029131424168,0.307508889665258,0.0121327151901457,-0.0591206185180079,0.874715706783978,0.157881044874419,0.0878132485087143,0.180299286051123,0.92272922730884,0.122138295531775,-0.00738379061950536,0,0,0,0,0,0,0
0.79,-1.43363528274484,0.183496589034672,0.0101197864353728,0.019423420777576,-1.65495969743614,-0.00219999284531952,-0.0232813981503103,0.299118110515629,0.108104863821219,0.0382311705359238,0.0769059429002422,0.316779503957035,0.0133716203605928,-0.0591701190139249,0.883454495733591,0.154404169276797,0.0881151959224225,0.180284250346117,0.931312481351421,0.125633022908022,-0.00250774507681857,0,0,0,0,0,0,0
0.8,-1.43059978871621,0.184585298045988,0.0105065083466156,0.0202014924825806,-1.65174519985191,-0.00205993749508341,-0.0238731428396421,0.307994531026629,0.109630892495999,0.0391136365809452,0.0787081480039687,0.326133497978544,0.0146451730934212,-0.0591706105245732,0.891755811498508,0.150776639085759,0.0883701030248638,0.180134175440538,0.939403356416073,0.129066984975369,0.00241716731728231,0,0,0,0,0,0,0
0.81,-1.4274751228393,0.185689083484341,0.01090206686921,0.0209975764713107,-1.64843676612431,-0.00190697599374292,-0.0244646454471531,0.316951733619462,0.111119901861741,0.0399984130171961,0.0805081728890216,0.335565894197258,0.0159527411050549,-0.0591216296344339,0.899609202465676,0.147000690717964,0.0885771370352721,0.179848048977023,0.946991180538858,0.132435261863195,0.00738588818268057,0,0,0,0,0,0,0
0.82,-1.42426049985886,0.186807567774578,0.0113064826997858,0.0218116441237958,-1.64503363755602,-0.00174077155427695,-0.0250554091432801,0.325985188414204,0.112570419442187,0.0408850170339446,0.082304652533926,0.345071610675511,0.0172936431088776,-0.0590227637368196,0.907004608280026,0.143078686011537,0.0887354854364106,0.179424992126489,0.95406574633433,0.13573297371945,0.0123933149747772,0,0,0,0,0,0,0
0.83,-1.42095518031479,0.18794035873694,0.0117197716665873,0.0226436531281488,-1.64153510677155,-0.00156099444578981,-0.0256449332281931,0.335090266924483,0.113980996998069,0.0417729577999904,0.0840962138011734,0.354645465765873,0.0186671492419331,-0.0588736514502027,0.913932369601956,0.139013110175057,0.0888443567868114,0.178864260682506,0.960617320836759,0.138955286008698,0.0174343060545554,0,0,0,0,0,0,0
0.84,-1.41755847150805,0.189087049835564,0.0121419446503363,0.023493547406153,-1.63794051869054,-0.00136732247692106,-0.0262327136459165,0.344262246114854,0.115350211750096,0.042661736678461,0.0858814767883594,0.364282182902628,0.0200724815444517,-0.0586739829836496,0.920383237488394,0.134806569625993,0.0889029815273825,0.178165246020949,0.966636654879034,0.142097414778547,0.0225036857963487,0,0,0,0,0,0,0
0.85,-1.41406972842544,0.190247220439107,0.0125730075072826,0.024361257052407,-1.63424927145256,-0.00115944147419705,-0.0268182435018488,0.35349631255007,0.116676667579782,0.0435508474496419,0.0876590561882398,0.373976395484696,0.0215088144918614,-0.0584235004510106,0.926348382388487,0.130461789720703,0.0889106127816806,0.177327475923971,0.972114992000399,0.145154631889115,0.0275962497283011,0,0,0,0,0,0,0
0.86,-1.41048835462247,0.191420436093263,0.0130129609945228,0.0252466982871079,-1.63046081729269,-0.000937045754801673,-0.0274010135831669,0.362787566632342,0.117958996207042,0.044439776541776,0.0894275626563449,0.383722651845242,0.022975275578886,-0.0581219981335618,0.931819402745299,0.125981612378181,0.0888665271491455,0.176350615267491,0.977044076874673,0.148122270200151,0.0327067697004729,0,0,0,0,0,0,0
0.87,-1.40681380306349,0.192606248804932,0.0134618006976673,0.0261497734225444,-1.62657466336701,-0.00069983859324764,-0.0279805128815976,0.372131026922616,0.119195858343503,0.0453280032697559,0.0911856041847832,0.393515420303132,0.0244709459552807,-0.0577693226908493,0.93678833319532,0.121368993599863,0.0887700254905883,0.175234466571502,0.981416163251038,0.150995728710509,0.0378299990755246,0,0,0,0,0,0,0
0.88,-1.40304557691814,0.193804197337799,0.0139195169609324,0.0270703708433516,-1.62259037252712,-0.000447532681434121,-0.0285562291180385,0.381521634541801,0.120385944820502,0.0462150000816309,0.0929317874808602,0.403349094291335,0.0259948611127022,-0.0573653733195348,0.941247652357942,0.116627000887889,0.0886204337052277,0.173978970412676,0.985224021399995,0.153770477644703,0.0429606779368809,0,0,0,0,0,0,0
0.89,-1.39918323031343,0.195013807519064,0.0143860948197368,0.0280083650005711,-1.6185075640431,-0.000179850581582486,-0.0291276492685052,0.390954257647803,0.121527977690771,0.0471002328128377,0.0946647193491329,0.413217997557276,0.0275460116221575,-0.0569101018600936,0.945190290207462,0.111758810564306,0.0884171034985646,0.172584205698837,0.98846094505754,0.156442063481283,0.048093538309269,0,0,0,0,0,0,0
0.9,-1.39522636904066,0.196234592557049,0.0148615139358784,0.0289636164195428,-1.61432591427405,0.000103474828453088,-0.0296942600908861,0.400423695984176,0.122620711302833,0.0479831609480624,0.096383008075517,0.423116389430096,0.0291233439214252,-0.0564035128512665,0.948609635020575,0.106767704993793,0.0881594131403875,0.171050389805052,0.991120757861131,0.159006113917883,0.0532233093865053,0,0,0,0,0,0,0
0.91,-1.39117465121659,0.19746605336941,0.0153457485353676,0.029935971721643,-1.6100451572857,0.000402699917996,-0.0302555486519791,0.409924685496084,0.123662933347143,0.0488632378906289,0.0980852648120625,0.433038470149711,0.0307257611517875,-0.0558456635322188,0.951499539892716,0.101657069712595,0.0878467682122001,0.169377878571194,0.99319781927148,0.161458342767791,0.0583447227614034,0,0,0,0,0,0,0
0.92,-1.38702778789803,0.198707678921669,0.0158387673489915,0.0309252636598663,-1.60566508541441,0.000718069874968847,-0.0308110028542886,0.41945190300925,0.124653465873072,0.0497399112393072,0.0997701049610129,0.442978386252484,0.032352124043366,-0.0552366637924112,0.953854328817042,0.0964303904664029,0.0874786023433652,0.167567166160989,0.994687029974752,0.163794554782974,0.0634525176526713,0,0,0,0,0,0,0
0.93,-1.38278554364941,0.19995894657576,0.0163405335556829,0.0319313111682402,-1.60118554977706,0.00104981828640819,-0.0313601119620606,0.42899997096749,0.125591166275822,0.0506126230724225,0.101436149556762,0.452930236008312,0.0340012518482979,-0.0545766760692387,0.955668802320243,0.0910912501600349,0.0870543779352599,0.165618884782691,0.995583836760217,0.166010650398578,0.0685414461236696,0,0,0,0,0,0,0
0.94,-1.37844773706271,0.201219322448295,0.0168510047287666,0.0329539194250425,-1.59660646072631,0.00139816672854684,-0.0319023671260324,0.438563462224353,0.126474928252409,0.0514808102391439,0.103082026644326,0.46288807490384,0.0356719233209448,-0.0538659151935426,0.956938242649808,0.0856433257218399,0.0865735868727395,0.163533804271658,0.995884236868944,0.168102630393944,0.073606278287911,0,0,0,0,0,0,0
0.95,-1.37401424122915,0.202488261778229,0.017370132785153,0.03399287992978,-1.5919277882509,0.00176332436692993,-0.0324372619063786,0.448136904884383,0.127303682725875,0.0523439046578209,0.104706372652955,0.472845921166507,0.0373628777442737,-0.0531046481831564,0.957658418507799,0.0800903848858196,0.086035751222212,0.161312831535257,0.995584781809619,0.170066600465316,0.0786418074961942,0,0,0,0,0,0,0
0.96,-1.36948498416232,0.203765209303607,0.0178978639375515,0.0350479705938733,-1.58714956232043,0.00214548756702187,-0.0329642927933325,0.457714787189423,0.128076398736925,0.0532013336212306,0.106307833763507,0.482797761324064,0.0390728160015035,-0.0522931939846927,0.957825589326624,0.0744362828945482,0.0854404239156268,0.158957009860643,0.994682580638119,0.171898775705441,0.0836428555002827,0,0,0,0,0,0,0
0.97,-1.3648599491722,0.205049599647059,0.0184341386497681,0.0361189558449792,-1.58227187317443,0.00254483951575216,-0.0334829597249684,0.467291562445378,0.128792084302209,0.0540525201085922,0.107885067268212,0.492737555794201,0.0408004016920629,-0.051431923163832,0.957436509082724,0.0686849591260363,0.0847871894196869,0.156467518086105,0.99317530269796,0.173595484985391,0.0886042775880637,0,0,0,0,0,0,0
0.98,-1.36013917518969,0.206340857709711,0.0189788915951586,0.0372055867448657,-1.57729487155544,0.00296154985443812,-0.0339927666016303,0.476861653984782,0.129449787238504,0.0548968831041963,0.109436742921479,0.502659244498872,0.0425442622908576,-0.0505212575444233,0.956488429644567,0.0628404336477566,0.0840756643895997,0.153845669636805,0.991061179819301,0.175153175234003,0.0935209676851485,0,0,0,0,0,0,0
0.99,-1.35532275704149,0.207638399073159,0.0195320516182987,0.0383076011207461,-1.57221876888578,0.00339577432351258,-0.0344932217964971,0.486419460160506,0.130048595952092,0.0557338379224915,0.110961544280379,0.512556752497887,0.0443029903498018,-0.0495616697967575,0.95497910365173,0.0569068037011127,0.0833054983066852,0.151092911425865,0.988339007974672,0.17656841561044,0.0983878634179115,0,0,0,0,0,0,0
1,-1.35041084567473,0.208941630409168,0.0200935416999376,0.0394247237099596,-1.56704383738796,0.00384765441947364,-0.0349838386617779,0.495959359365899,0.130587640192638,0.0565627965394644,0.112458170033475,0.522423995636356,0.0460751447405226,-0.0485536829754237,0.952906786922374,0.0508882401196972,0.0824763740991688,0.148210822621906,0.985008148390167,0.177837901565457,0.103199951132998,0,0,0,0,0,0,0
1.01,-1.3454036483314,0.210249949896721,0.0206632789252957,0.0405566663178769,-1.56177041014854,0.00431731706446263,-0.0354641360300364,0.505475715076641,0.131066091770946,0.0573831679301391,0.11392533531666,0.532254886200498,0.0478592519371021,-0.0474978700072094,0.950270240386788,0.0447889836847427,0.0815880087454922,0.145201113284241,0.981068528111344,0.178958458787093,0.107952270868381,0,0,0,0,0,0,0
1.02,-1.34030142867226,0.211562747646068,0.0212411744557676,0.0417031279888937,-1.55639888112544,0.00480487428886468,-0.0359336387101455,0.514962880909547,0.131483165239961,0.0581943584120215,0.115361773014696,0.5420433385764,0.0496538073376817,-0.0463948531295513,0.947068731545209,0.0386133414212269,0.0806401538594819,0.14206562286711,0.976520640023599,0.179927047026585,0.112639921271085,0,0,0,0,0,0,0
1.03,-1.33510450685007,0.212879406129397,0.0218271335040879,0.0428637951903626,-1.55092970509865,0.00531042292731499,-0.0363918779773828,0.524415205693571,0.131838118538452,0.0589957719943006,0.116766235047146,0.551783274906241,0.0514572766237089,-0.045245303280097,0.943302035448517,0.0323656828381446,0.0796325962567275,0.13880631859441,0.971365542327355,0.18074076380043,0.117258064456764,0,0,0,0,0,0,0
1.04,-1.32981325953208,0.214199300617752,0.0224210553130175,0.0440383420093008,-1.54536339756443,0.00583404432847991,-0.0368383920571785,0.533827038548222,0.132130253596838,0.059786810732617,0.118137493637406,0.561468630736551,0.0532680971555695,-0.0440499394379811,0.938970435200911,0.026050436116508,0.0785651585015256,0.135425293706556,0.965604857468873,0.181396847964638,0.121801930806345,0,0,0,0,0,0,0
1.05,-1.32442811987172,0.215521799623822,0.0230228331376043,0.0452264303616984,-1.53970053457304,0.00637580407897149,-0.0372727266020381,0.543192733964616,0.132358916904639,0.0605668750892021,0.119474342563581,0.571093360653061,0.0550846794033071,-0.0428095279174686,0.934074721984085,0.0196720842486847,0.0774376994337592,0.131924765581205,0.959240770528079,0.18189268315733,0.126266823695063,0,0,0,0,0,0,0
1.06,-1.3189495774295,0.216846265350203,0.0236323542310716,0.0464277102142398,-1.5339417525103,0.00693575174173875,-0.0376944351611661,0.552506656884384,0.1325235000391,0.0613353642981815,0.120775598389941,0.580651443896722,0.0569054084110944,-0.0415248816146662,0.928616194602921,0.0132351611327223,0.0762501146750906,0.128307073729703,0.95227602706529,0.182225801105982,0.130648124149221,0,0,0,0,0,0,0
1.07,-1.3133781780431,0.218172054142759,0.0242494998343839,0.0476418198182366,-1.52808774782303,0.00751392060926682,-0.0381030796423251,0.561763187771631,0.132623440154546,0.0620916767358362,0.122040101677732,0.590136889955498,0.0587286452940858,-0.0401968592080461,0.922596658553158,0.00674424762534943,0.0750023371138558,0.124574677671256,0.944713930429273,0.182393884795705,0.134941295426117,0,0,0,0,0,0,0
1.08,-1.30771452364687,0.219498516948674,0.0248741451695402,0.0488683859555614,-1.52213927668875,0.00811032747190071,-0.0384982307654727,0.570956727673203,0.132658220432076,0.062835210295602,0.123266718174123,0.599543744126555,0.0605527287662429,-0.0388263643135732,0.91601842461193,0.000203967557375874,0.0736943373680636,0.120730154686911,0.936558338529569,0.182394771495132,0.139141887512656,0,0,0,0,0,0,0
1.09,-1.30195927204075,0.220824999778798,0.0255061594366389,0.0501070241963558,-1.51609715462989,0.00872497240159615,-0.038879468507726,0.580081703262465,0.132627370489234,0.0635653627675884,0.124454339978099,0.608866093043514,0.0623759766976937,-0.0374143445952714,0.908884306952579,-0.00638101628475159,0.0723261242259103,0.1167761974556,0.927813660076553,0.182226455636582,0.14324554153822,0,0,0,0,0,0,0
1.1,-1.29611313660888,0.222150844173897,0.0261454058147605,0.0513573391682778,-1.50996225607301,0.00935783855138564,-0.0392463825392126,0.589132571861867,0.132530466749353,0.0642815322223869,0.125601886682142,0.618098070163456,0.0641966877001508,-0.0359617908321082,0.901197620785544,-0.0130060062074556,0.0708977450632374,0.112715611574571,0.918484850293209,0.181887091547323,0.147247994097468,0,0,0,0,0,0,0
1.11,-1.2901768859881,0.223475387674385,0.0267917414667081,0.0526189248370395,-1.50373551385327,0.0100088919708326,-0.0395985726493758,0.598103826439544,0.132367132770266,0.0649831173989365,0.126708306488541,0.627233861208419,0.0660131427388855,-0.034469735942119,0.892962179527614,-0.0196662736847889,0.0694092862373704,0.10855131296667,0.908577406103111,0.181374996028913,0.151145081478842,0,0,0,0,0,0,0
1.12,-1.28415134368662,0.224797964293142,0.0274450175476466,0.0538913647979778,-1.49741791866483,0.0106780814377316,-0.0399356491633117,0.606990000575283,0.132137039532165,0.0656695180962076,0.127772577299223,0.636267709556186,0.0678236067697236,-0.032939253964735,0.884182291502293,-0.0263570634556222,0.0678608734567923,0.10428632517704,0.898097360799607,0.180688650781706,0.154932743794611,0,0,0,0,0,0,0
1.13,-1.27803738765326,0.226117904991009,0.0281050792176763,0.0551742325783845,-1.4910105184575,0.0113653383062979,-0.0402572333477238,0.615785673391141,0.131839905684389,0.0663401355684588,0.128793707778008,0.645193921575182,0.0696263303995004,-0.0313714590023206,0.874862756174437,-0.0330735976394138,0.066252672126121,0.0999237765619256,0.8870512782017,0.179826704671812,0.158607029008415,0,0,0,0,0,0,0
1.14,-1.27183594979749,0.227434538154539,0.0287717656583756,0.056467091950318,-1.48451441778048,0.0120705763720705,-0.0405629578060947,0.624485474442106,0.131475497750971,0.0669943729238188,0.129770738384226,0.654006871898396,0.0714195515683868,-0.0297675041219636,0.865008859922802,-0.0398110798667054,0.0645848876658712,0.0954668973723455,0.875446246302642,0.178787975837901,0.162164096856361,0,0,0,0,0,0,0
1.15,-1.26554801546086,0.228747190075601,0.0294449100933463,0.0577694972536034,-1.47793077707357,0.0127936917537435,-0.04085246686268,0.633084088562192,0.131043630294833,0.0676316355259369,0.130702742376656,0.662701008631278,0.0732014972524726,-0.0281285802186033,0.854626371354571,-0.0465646994204751,0.0628577658065013,0.0909190167355463,0.863289870417694,0.177571453635427,0.165600222657807,0,0,0,0,0,0,0
1.16,-1.25917462284019,0.230055185432415,0.0301243398127882,0.0590809937287191,-1.47126081190673,0.0135345627921154,-0.0411254169349461,0.641576260661402,0.130544166040522,0.0682513313984435,0.131588826786781,0.671270858488634,0.074970385184969,-0.0264559148406172,0.843721536166366,-0.053329635384476,0.0610715928562615,0.0862835595372064,0.850590265838057,0.176176300415998,0.168911801012121,0,0,0,0,0,0,0
1.17,-1.252716862363,0.23135784777161,0.0308098762021323,0.0604011178592587,-1.46450579216861,0.0142930499663384,-0.0413814768940802,0.649956800469056,0.129977015955446,0.068852871631957,0.132428133360379,0.679711031855629,0.0767244255943729,-0.0247507709790266,0.832301071556683,-0.0601010607946884,0.0592266959423718,0.0815640432074847,0.83735604999839,0.17460185313977,0.172095349377773,0,0,0,0,0,0,0
1.18,-1.2461758760159,0.232654499990889,0.0315013347747551,0.061729397723646,-1.45766704120486,0.0150689958276261,-0.0416203284132157,0.658220587219024,0.129342139289595,0.069435670793366,0.133219839466513,0.688016227768058,0.0784618229579106,-0.023014445821513,0.820372160195121,-0.0668741467900094,0.0573234432250847,0.0767640744140935,0.823596334165848,0.172847624818917,0.175147511530248,0,0,0,0,0,0,0
1.19,-1.23955285662635,0.233944464821875,0.0321985252087962,0.063065353355774,-1.45074593490709,0.0158622249505655,-0.0418416663030268,0.666362574272455,0.128639543573779,0.0699991473371154,0.133963158972992,0.696181238807158,0.080180777768565,-0.0212482694724762,0.807942443754206,-0.0736440667583167,0.0553622440841938,0.0718873456656662,0.809320714659008,0.170913305790379,0.178065060895406,0,0,0,0,0,0,0
1.2,-1.23284904709854,0.235227065312742,0.032901251388098,0.0644084971142268,-1.44374390075331,0.0166725439021596,-0.0420451988343591,0.674377793673671,0.127869284576439,0.0705427240182183,0.134657343087442,0.704200955904286,0.0818794883139694,-0.0194536036403952,0.795020016010003,-0.080406000474048,0.0533435492775816,0.0669376318287807,0.794539263605506,0.168798764816272,0.180844903754997,0,0,0,0,0,0,0
1.21,-1.22606573960408,0.236501625310201,0.0336093114472819,0.0657583340597359,-1.43666241680081,0.0174997412287117,-0.0422306480475763,0.682261360634931,0.127031466219144,0.0710658283067115,0.135301681163118,0.712070373050917,0.0835561524654378,-0.0176318402937861,0.781613415518152,-0.0871551382234513,0.0512678510714048,0.0619187865620832,0.779262519247673,0.166504050010502,0.183484082321204,0,0,0,0,0,0,0
1.22,-1.21920427472822,0.237767469940437,0.0343224978209761,0.0671143623405162,-1.42950301063239,0.0183435874606428,-0.0423977500483138,0.690008477945862,0.126126240450913,0.0715678928032691,0.135895501468665,0.719784591909465,0.0852089694753869,-0.015784400287082,0.767731617872356,-0.0938866849136805,0.0491356833415476,0.0568347386710375,0.763501475805848,0.164029389590286,0.185979777677192,0,0,0,0,0,0,0
1.23,-1.21226604057235,0.239023926088587,0.0350405972972041,0.0684760735851155,-1.42226725825706,0.0192038351353181,-0.0425462552893476,0.697614440303423,0.125153807081541,0.0720483556556869,0.136438171921046,0.727338826320578,0.0868361417813928,-0.0139127319577898,0.753384027552738,-0.100595864161927,0.0469476216459837,0.0516894883869064,0.747267572909529,0.161375192451476,0.188329312580777,0,0,0,0,0,0,0
1.24,-1.20525247181364,0.24027032287634,0.0357633910749402,0.0698429533024058,-1.41495678296617,0.0200802188379402,-0.0426759288382957,0.705074638558331,0.124114413574152,0.0725066609759418,0.136929100780886,0.734728406702627,0.0884358768151168,-0.0120183096963059,0.738580469371892,-0.107277922360805,0.0447042832677148,0.046487103573639,0.730572684606878,0.158542048566742,0.190530154128473,0,0,0,0,0,0,0
1.25,-1.19816504872258,0.241505992137269,0.0364906548258386,0.0712144812883378,-1.40757325414606,0.0209724552605477,-0.0427865506308882,0.71238456387397,0.123008354797228,0.0729422592575335,0.137367737309555,0.741948784339218,0.0900063888143226,-0.0101026324898005,0.723331179526827,-0.11392813271624,0.0424063272279699,0.0412317158664179,0.713429107963548,0.155530729205833,0.192579916277291,0,0,0,0,0,0,0
1.26,-1.19100529613952,0.242730268889472,0.0372221587601348,0.0725901320390714,-1.40011838604848,0.0218802432791431,-0.0428779157095511,0.719539811793882,0.121835972736418,0.0733546077928075,0.137753572387296,0.748995535550696,0.0915459006362056,-0.008167222441606,0.707646796265384,-0.120541799254125,0.0400544542693758,0.035927516745676,0.695849551262161,0.152342186977328,0.194476362221836,0,0,0,0,0,0,0
1.27,-1.18377478241084,0.243942491805141,0.0379576676967196,0.0739693751700906,-1.39259393651988,0.0228032640489519,-0.0429498344470686,0.726536086214039,0.120597656166448,0.0737431710899589,0.138086139091796,0.755864365745693,0.0930526455702439,-0.00621362326756685,0.691538350176057,-0.12711426079207,0.0376494068088241,0.0305787535504673,0.677847121814171,0.148977555691451,0.196217406624345,0,0,0,0,0,0,0
1.28,-1.17647511828606,0.245142003676645,0.0386969411373808,0.0753516758409041,-1.38500170569074,0.0237411811178018,-0.0430021327550996,0.733369203256164,0.119293840283504,0.0741074212894122,0.138365013236602,0.762551113348904,0.0945248691487827,-0.00424339877083425,0.675017254110544,-0.133640894872583,0.0351919688597911,0.0251897254351245,0.659435313396189,0.145438150043715,0.197801117695507,0,0,0,0,0,0,0
1.29,-1.16910795577655,0.246328151878741,0.0394397333452024,0.0767364951849258,-1.37734353462635,0.0246936405575872,-0.0430346522773403,0.740035095038475,0.11792500629849,0.0744468385792704,0.138589813868834,0.7690517536014,0.0959608309535586,-0.00225813129660702,0.658095292748656,-0.140117121654076,0.0326829659238808,0.0197647792731996,0.640627993323231,0.141725465119307,0.199225719124002,0,0,0,0,0,0,0
1.3,-1.16167498697725,0.247500288826532,0.0401857934271147,0.0781232907441284,-1.36962130394013,0.0256602711137726,-0.0430472505671406,0.746529813340348,0.116491680991605,0.0747609116095254,0.138760203725694,0.775362402229919,0.0973588064163712,-0.00025942016834125,0.640784611815595,-0.146538407756141,0.0301232648513916,0.0143083055127302,0.62143938917169,0.137841175718343,0.200489591852875,0,0,0,0,0,0,0
1.31,-1.1541779428521,0.248657772428768,0.0409348654205776,0.0795115169080529,-1.36183693237105,0.0266406843728657,-0.0430398012493964,0.752849533157439,0.11499443622871,0.0750491379047176,0.138875889649298,0.781479318981679,0.0987170886121138,0.00175111989303025,0.623097706961912,-0.152900270055564,0.0275137736707246,0.00882473398692316,0.601884075165144,0.133787135502251,0.201591275701008,0,0,0,0,0,0,0
1.32,-1.14661859198464,0.24979996653613,0.0416866883843814,0.0809006253567568,-1.35399237532628,0.0276344749477744,-0.0430121941665556,0.758990556143975,0.113433888439989,0.0753110242747339,0.138936622959411,0.787398911021427,0.100033990042375,0.00377186036531243,0.605047412316797,-0.159198279429633,0.0248554413864804,0.00331852968439146,0.581976958236462,0.129565375961773,0.202529470828086,0,0,0,0,0,0,0
1.33,-1.13899873929466,0.250926241384111,0.0424409964935456,0.0822900655072772,-1.34608962339063,0.028641220680946,-0.0429643355085906,0.764949313938989,0.111810698061466,0.0755460872234289,0.138942199783701,0.793117736187543,0.10130784440783,0.00580116053512307,0.58664688872565,-0.165428064443314,0.0221492577461104,-0.00220581151688301,0.561733263779966,0.125178105207192,0.203303039041638,0,0,0,0,0,0,0
1.34,-1.13132022472221,0.252035974030129,0.0431975191382916,0.0836792849631831,-1.33813070080412,0.0296604828651672,-0.0428961479268091,0.770722371373392,0.110125568939933,0.0757538533547554,0.138892461345167,0.798632506104182,0.10253700836765,0.00783736912024377,0.567909611683187,-0.17158531497697,0.0193962529750175,-0.00774376714765222,0.541168521107678,0.120627706581614,0.203911004944849,0,0,0,0,0,0,0
1.35,-1.12358492188017,0.253128548784508,0.0439559810270625,0.085067729966786,-1.33011766390919,0.0306918064818843,-0.0428075706313843,0.776306429554909,0.108379247701923,0.0759338597760877,0.138787294206441,0.803940089146544,0.103719863284163,0.00987882590264789,0.548849358973624,-0.177665785791304,0.0165974974800221,-0.0132907924733295,0.520298548624003,0.115916737098291,0.20435255692404,0,0,0,0,0,0,0
1.36,-1.11579473667659,0.254203357634977,0.044716102293561,0.0864548458535772,-1.32205259956899,0.0317347204568911,-0.0426985594725104,0.781698328827999,0.106572523087351,0.0760856544984209,0.138626630470714,0.809037513256563,0.104854816951016,0.0119238633705974,0.529480198029761,-0.183665300026332,0.0137541015211359,-0.0188423248434763,0.499139438733421,0.111047925703136,0.204627047974834,0,0,0,0,0,0,0
1.37,-1.10795160590802,0.255259800664321,0.0454775986077728,0.0878400775084565,-1.31393762355823,0.0327887379332071,-0.042569087005097,0.786895051606006,0.104706225248516,0.0762087968331299,0.138410447939064,0.813921968606379,0.105940305303083,0.0139708083681916,0.509816473023042,-0.189579752631216,0.0108672148516105,-0.0243937880605593,0.477707542496042,0.106024171363777,0.204733996366191,0,0,0,0,0,0,0
1.38,-1.10005749582522,0.256297286460864,0.0462401812909382,0.0892228698233153,-1.30577487892826,0.0338533565609568,-0.0424191425369379,0.791893725072929,0.102781225015158,0.0763028577849691,0.138138770224019,0.818590810107187,0.10697479410642,0.0160179837507426,0.489872791696948,-0.195405113721875,0.00793802632625524,-0.029940596763673,0.456019454046097,0.100848540986651,0.204673086141685,0,0,0,0,0,0,0
1.39,-1.0921144006725,0.257315232521426,0.0470035574344342,0.0906026681555363,-1.29756653434772,0.0349280588040417,-0.0422487321603044,0.796691623752281,0.100798433126316,0.076367420440998,0.137811666819229,0.823041559761133,0.107956780626521,0.0180637100443478,0.469664011956279,-0.20113743186337,0.00496776347803874,-0.0354781608229039,0.434091994788658,0.0955242671638176,0.204444167457501,0,0,0,0,0,0,0
1.4,-1.08412434120204,0.258313065646444,0.0477674300225243,0.0919789187869696,-1.28931478242061,0.0360123122633795,-0.042057878766928,0.801286171940678,0.0987587994297473,0.0764020803551138,0.13742925312515,0.827271908854147,0.10888479527321,0.0201063071080246,0.449205228225171,-0.206772837274119,0.0019576920630221,-0.04100188974001,0.411942197390109,0.0900547457513368,0.204047256756842,0,0,0,0,0,0,0
1.41,-1.07608936316457,0.259290222326919,0.0485314980589296,0.0933510693829458,-1.28102183798308,0.0371055700164677,-0.0418466220463558,0.805674946003913,0.0966633120497113,0.076406445927875,0.136991690430719,0.831279719987701,0.109757403220474,0.0221440957967699,0.428511757586842,-0.212307544949097,-0.00109088442630936,-0.0465071970510777,0.389587289578043,0.0844435332812371,0.20348253678057,0,0,0,0,0,0,0
1.42,-1.06801153577777,0.260246149122894,0.0492954566971738,0.0947185694508858,-1.27268993638087,0.0382072709730145,-0.0416150184676779,0.809855676533385,0.0945129965239348,0.076380138781301,0.136499185851005,0.835063028947691,0.110573205999603,0.0241753996239077,0.407599125718331,-0.217737857699242,-0.00417662527921948,-0.0519895047268211,0.367044677766464,0.0786943442092437,0.202750356414057,0,0,0,0,0,0,0
1.43,-1.05989295017381,0.26118030303315,0.0500589973746503,0.0960808707980673,-1.26432133172873,0.0393168402463594,-0.0413631412446414,0.813826250360902,0.0923089149106146,0.0763227941283332,0.135951992220883,0.838620046408756,0.111330843063986,0.0261985464210865,0.38648305263364,-0.223060169104386,-0.00729815311627681,-0.0574442475661905,0.344331930522325,0.0728110480006217,0.201851230370415,0,0,0,0,0,0,0
1.44,-1.05173571782751,0.26209215185582,0.0508218079503544,0.0974374279881081,-1.25591829515377,0.0404336895403947,-0.0410910802841833,0.817584712430022,0.0900521648663347,0.0762340611366439,0.135350407944834,0.841949159472543,0.112028993323972,0.0282118699942922,0.365179438248889,-0.228270966377098,-0.0104540544701459,-0.0628668775789648,0.321466761889575,0.0667976660566393,0.200785838710404,0,0,0,0,0,0,0
1.45,-1.04354196896641,0.262981174539648,0.0515835728462255,0.0987876987957287,-1.24748311302416,0.0415572175516781,-0.0407989421184296,0.821129267522213,0.0877438786957994,0.0761136032864815,0.134694776802981,0.845048933038562,0.112666376650209,0.0302137117742451,0.343704347783269,-0.23336683313494,-0.0136428803974391,-0.068252868353014,0.298467014587007,0.0606583684843205,0.199555026199488,0,0,0,0,0,0,0
1.46,-1.03531385096442,0.263846861525603,0.052343973192036,0.100131144659358,-1.239018085165,0.0426868103864159,-0.0404868498202254,0.824458281836251,0.0853852223743136,0.0759610987222435,0.133985487713552,0.84791811100646,0.113241755343904,0.0322024224595565,0.32207399700969,-0.238344452078711,-0.0168631471214287,-0.0735977194019354,0.275350643096329,0.054397470712313,0.198159801502675,0,0,0,0,0,0,0
1.47,-1.02705352672036,0.264688715078589,0.0531026869737632,0.101467231131144,-1.23052552306302,0.0438218419919758,-0.0401549429022766,0.827570284419442,0.0829773945439591,0.0757762405974686,0.133222974451988,0.850555617308695,0.113753935572493,0.0341763636510249,0.300304737369226,-0.243200607574347,-0.0201133367053915,-0.0788969604887854,0.252135696656961,0.048019429955852,0.19660133621792,0,0,0,0,0,0,0
1.48,-1.01876317302291,0.265506249608986,0.0538593891853774,0.102795428323945,-1.2220077480618,0.0449616746025781,-0.0398033771999994,0.830463968449357,0.0805216254844438,0.0755587374129428,0.132407715326936,0.852960556772761,0.114201768769214,0.0361339094754636,0.278413040963513,-0.247932188136263,-0.0233918977563341,-0.0841461559216557,0.228840302184143,0.0415288415339533,0.194880963749055,0,0,0,0,0,0,0
1.49,-1.01044497890356,0.266298991983781,0.0546137519839747,0.104115211354859,-1.21346708954922,0.0461056591987956,-0.0394323247381908,0.833138192364946,0.0780191760596193,0.0753083133476187,0.131540232813462,0.85513221581228,0.114584152995125,0.0380734481974594,0.256415485439424,-0.252536188809983,-0.0266972461588181,-0.0893409088168692,0.205482647127014,0.0349304350421169,0.193000178019326,0,0,0,0,0,0,0
1.5,-1.00210114397895,0.267066481827042,0.0553654448481825,0.105426060784881,-1.20490588313885,0.0472531359804801,-0.039041973581648,0.835591980846023,0.0754713366406829,0.0750247085820456,0.130621093143801,0.857070062946442,0.114900034262145,0.0399933838174751,0.234328738780417,-0.257009713452044,-0.0300277658385793,-0.0944768653256068,0.182080962283339,0.0282290703839694,0.190960632026828,0,0,0,0,0,0,0
1.51,-0.993733876784231,0.267808271809514,0.0561141347397602,0.10672746305425,-1.19632646884703,0.0484034348527182,-0.0386325276698824,0.837824525640246,0.0728794260071043,0.0747076796140177,0.129650905856039,0.85877374914745,0.115148407815717,0.0418921376547217,0.21216954401903,-0.261349976905245,-0.033381809555609,-0.0995497188198097,0.15865350458763,0.0214297336654169,0.188764136243223,0,0,0,0,0,0,0
1.52,-0.985345393098838,0.268523927927121,0.0568594862683161,0.10801891091308,-1.1877311892673,0.0495558759244073,-0.0382042066360865,0.839835186236906,0.0702447902263292,0.0743569995661438,0.128630323301169,0.860243108015775,0.115328319375746,0.0437681499132402,0.189954703885097,-0.265554307067394,-0.0367576997263398,-0.104555214033247,0.135218539889398,0.0145375329550193,0.186412656857334,0,0,0,0,0,0,0
1.53,-0.976937914266387,0.269213029768156,0.0576011618590595,0.109299903846848,-1.17912238774399,0.0507097700190253,-0.0377572456105316,0.841623490386918,0.0675688015133353,0.073972458485053,0.127560040108962,0.861478155783227,0.115438866334482,0.045619881229652,0.16770106540428,-0.269620146851859,-0.0401537292745505,-0.109489151153679,0.111794325738259,0.00755769391443152,0.183908313865325,0,0,0,0,0,0,0
1.54,-0.968513665510089,0.269875170768978,0.0583388219234997,0.110569948496348,-1.17050240654656,0.0518644191971599,-0.0372918950085846,0.843189134468629,0.064852857071132,0.0735538636319479,0.126440792613189,0.862479091143964,0.115479198910077,0.0474458142010499,0.14542550446158,-0.273545056038289,-0.0435681625105804,-0.114347389862105,0.0883990941926363,0.0004955553028932,0.181253379009344,0,0,0,0,0,0,0
1.55,-0.960074874245287,0.270509958458014,0.0590721250330086,0.111828559071683,-1.1618735850466,0.0530191172903453,-0.0368084203035529,0.844531983699131,0.0620983779133059,0.073101039764227,0.125273358236728,0.863246294913791,0.115448521254573,0.0492444548915282,0.123144910344496,-0.277326713012013,-0.0469992360384174,-0.119125853315117,0.0650510346687212,-0.00664343564012733,0.178450273566642,0,0,0,0,0,0,0
1.56,-0.951623768390659,0.271117014687913,0.0598007280951519,0.113075257759922,-1.15323825789895,0.0541731504457477,-0.036307101784576,0.845652072190976,0.0593068076697373,0.0726138294078982,0.124058554837144,0.863780329518207,0.115346092515128,0.051014334315864,0.100876170280554,-0.280962916390703,-0.0504451596901988,-0.123820532066474,0.0417682768463414,-0.0138537279298988,0.175501565991344,0,0,0,0,0,0,0
1.57,-0.943162574679625,0.271695975855667,0.060524286532698,0.114309575126011,-1.14459875322895,0.0553257976812224,-0.0357882342998008,0.846549602854294,0.056479611376617,0.0720920931205124,0.122797240013383,0.864081938309876,0.115171227847319,0.0527540098988895,0.0786361539838612,-0.284451586537042,-0.0539041174876367,-0.128427487924028,0.0185688736482901,-0.0211296716846513,0.172409969411181,0,0,0,0,0,0,0
1.58,-0.934693516973501,0.272246493110568,0.0612424544652075,0.115531050506556,-1.13595739082726,0.0564763314502612,-0.0352521269850912,0.847224947144485,0.0536182742519134,0.0715357097443504,0.121490310374227,0.864152044716318,0.114923299379415,0.0544620669091166,0.056441698225405,-0.287790766956193,-0.057374268629858,-0.132942857738235,-0.00452921569039458,-0.028465523082585,0.169178338981631,0,0,0,0,0,0,0
1.59,-0.926218814577954,0.27276823254984,0.061954884893105,0.116739232396116,-1.12731648035407,0.0576240182163324,-0.0346991029785358,0.847678644655794,0.0507243004574433,0.0709445766496015,0.120138700769221,0.863991751218813,0.114601737126556,0.0561371198652004,0.0343095914417186,-0.290978625577033,-0.0608537485071214,-0.137362857118534,-0.0275081424468322,-0.0358554494230842,0.165809669100069,0,0,0,0,0,0,0
1.6,-0.917740680564281,0.273260875401843,0.0626612298841315,0.117933678825603,-1.11867831955436,0.0587681190361075,-0.034129499121032,0.847911402561221,0.047799211848717,0.0703186099672777,0.118743383482824,0.863602338163663,0.114206029853821,0.0577778139138565,0.0122565583965389,-0.294013455916189,-0.0643406697398506,-0.141683784073951,-0.0503501851121066,-0.0432935342874402,0.162307090482656,0,0,0,0,0,0,0
1.61,-0.909261320097066,0.273724118196709,0.0633611407620732,0.119113957732457,-1.11004519248591,0.0599078901510597,-0.0335436656432404,0.84792409489938,0.0448445467137322,0.0696577448116139,0.117305367392531,0.862985262407115,0.113735725887207,0.0593828261778714,-0.0097007550899976,-0.296893678124055,-0.0678331232423978,-0.145902022574362,-0.0730377659543536,-0.0507737827942907,0.15867386710683,0,0,0,0,0,0,0
1.62,-0.900782928769722,0.274157672924319,0.0640542682976611,0.120279647322218,-1.10141936776166,0.0610425835869073,-0.0329419658392136,0.847717761709046,0.0418618585019003,0.0689619354917087,0.115825697091806,0.862142155795412,0.113190433871601,0.0609508670728789,-0.0315457973301399,-0.29961783991206,-0.0713291793109287,-0.15001404602894,-0.0955534674271415,-0.0582901269448803,0.15491339302239,0,0,0,0,0,0,0
1.63,-0.892307690949444,0.274561267179528,0.0647402629015323,0.121430336421156,-1.09280309680806,0.0621714477603681,-0.0323247757270184,0.847293608012278,0.0388527145442971,0.0682311557121691,0.114305451978652,0.861074823481603,0.112569823474874,0.062480681591604,-0.0532621258608958,-0.302184617360597,-0.0748268887347968,-0.154016420678364,-0.11788004840733,-0.065836431053154,0.151029189034319,0,0,0,0,0,0,0
1.64,-0.883837778133095,0.274934644294549,0.0654187748191414,0.122565624819621,-1.08419861214115,0.0632937280926826,-0.0316924836966846,0.846653002647168,0.0358186947664328,0.067465398762526,0.112745745310712,0.859785242080885,0.111873626037268,0.063971050554306,-0.0748334224256869,-0.304592815607116,-0.0783242839307486,-0.157905808897489,-0.140000460246752,-0.0734064972556018,0.147024899260567,0,0,0,0,0,0,0
1.65,-0.875375347315497,0.275277563458433,0.0660894543275094,0.123685123605778,-1.07560812566175,0.0644086676293533,-0.0310454901458224,0.845797476951384,0.0327613903947409,0.0666646776951965,0.111147723227793,0.858275557666434,0.111101635165309,0.0654207918241888,-0.0962435078311126,-0.306841369414029,-0.0818193800992838,-0.161678972405243,-0.161897862622287,-0.0809940710956948,0.142904287568201,0,0,0,0,0,0,0
1.66,-0.866922539371642,0.275589799823593,0.0667519519336934,0.12478845548941,-1.06703382697163,0.0655155076655436,-0.0303842071032667,0.844728723297826,0.0296824026579919,0.0658290254917756,0.109512563742776,0.8565480836078,0.110253707269522,0.0668287614865792,-0.117476356664756,-0.308929343616145,-0.0853101764024659,-0.165332775378616,-0.183555639169073,-0.0885928471776662,0.138671233891383,0,0,0,0,0,0,0
1.67,-0.858481477454263,0.275871144599316,0.067405918574861,0.125875255115473,-1.05847788171197,0.0666134883765695,-0.0297090578411153,0.843448593483857,0.0265833414848338,0.0649584952174441,0.107841475701879,0.854605298254116,0.10932976204529,0.0681938549907088,-0.138516111860116,-0.310855933447537,-0.0887946571624635,-0.168864187467696,-0.204957412881847,-0.0961964748843191,0.134329730434818,0,0,0,0,0,0,0
1.68,-0.850054265408255,0.276121405132237,0.0680510058198476,0.12694516936711,-1.04994242992577,0.0677018494529132,-0.0290204764755405,0.841959096975713,0.0234658241986679,0.0640531601632915,0.106135697715272,0.852449842464518,0.108329782896225,0.0695150082529735,-0.159347099094904,-0.312620464747783,-0.0922707930800743,-0.172270286708817,-0.226087061269643,-0.103798564153475,0.129883877766358,0,0,0,0,0,0,0
1.69,-0.841642986203358,0.276340404973754,0.0686868660720759,0.12799785765782,-1.04142958444576,0.068779830739181,-0.0283189075567667,0.840262399009807,0.0203314742110649,0.0631131139763567,0.104396497059082,0.850084516988312,0.107253817299521,0.0707911987205803,-0.179953841009097,-0.314222394047708,-0.0957365424724676,-0.175548262332982,-0.24692873124931,-0.111392691307608,0.125337880802624,0,0,0,0,0,0,0
1.7,-0.833249700386537,0.276527983934377,0.069313152773714,0.129032992212516,-1.03294142930919,0.0698466728764217,-0.0276048056486123,0.838360818552825,0.0171819197149249,0.0621384707771987,0.102625168549858,0.847512279697571,0.10610197711275,0.072021446394532,-0.200321071229331,-0.315661308534823,-0.0991898525293588,-0.178695417466808,-0.2674668537636,-0.118972404931146,0.120696044691563,0,0,0,0,0,0,0
1.71,-0.824876444555462,0.27668399812501,0.0699295206109456,0.130050258337188,-1.02448001820105,0.0709016179472191,-0.02687863489801,0.836256826122589,0.0140187923785836,0.061129365264816,0.100823033392557,0.84473624267498,0.104874438821685,0.0732048148109393,-0.220433748186417,-0.316936925898797,-0.102628660586809,-0.181709171723385,-0.28768615810986,-0.126531231789891,0.115962770595972,0,0,0,0,0,0,0
1.72,-0.816525229854465,0.276808319985184,0.0705356257202257,0.131049354676925,-1.01604737292711,0.0719439101229655,-0.0261408685949272,0.833953041471842,0.0108437260420612,0.0600859528087442,0.0989914380032038,0.841759669159912,0.103571443728727,0.0743404119796893,-0.240277068712934,-0.318049094057405,-0.106050895417824,-0.184587063680512,-0.30757168596562,-0.134062682786923,0.111142551382142,0,0,0,0,0,0,0
1.73,-0.808198040494329,0.276900838298269,0.0711311258953924,0.132029993462032,-1.00764548191822,0.0729727963127219,-0.0253919887231153,0.831452231137204,0.007658355416648,0.0590084095281664,0.0971317528073244,0.838585970355803,0.102193298081632,0.0754273912795446,-0.25983648140812,-0.318997790763509,-0.109454478538909,-0.187326753243913,-0.327108805097723,-0.141560258949337,0.106239967217823,0,0,0,0,0,0,0
1.74,-0.799896832297266,0.276961458193701,0.0717156807955044,0.132991900742025,-0.999276298767178,0.0739875268130649,-0.0246324855021306,0.828757305855697,0.00446431478901155,0.0578969323578825,0.0952453710153411,0.835218702102089,0.10074037314222,0.0764649523087856,-0.279097699757462,-0.31978312309375,-0.112837325531713,-0.189926023893127,-0.346283222741942,-0.149017457440117,0.101259681083845,0,0,0,0,0,0,0
1.75,-0.791623531268365,0.276990101136281,0.0722889521532715,0.133934816607262,-0.990941740799579,0.0749873559583201,-0.0238628569210745,0.825871317851359,0.00126323673100534,0.0567517391009896,0.0933337073761011,0.831661561414032,0.0992131051948801,0.0774523416905564,-0.298046714994665,-0.320405326819734,-0.116197347378884,-0.19238278480791,-0.365080998640338,-0.156427777589426,0.0962064342037817,0,0,0,0,0,0,0
1.76,-0.783380032194824,0.276986704902607,0.0728506039839449,0.134858495398013,-0.98264368767988,0.075971542770579,-0.0230836082645094,0.822797457994562,-0.00194324918365032,0.0555730684681375,0.0913981969097484,0.827918382893948,0.0976119954946804,0.0783888538321157,-0.316669808693922,-0.320864765662606,-0.119532451813243,-0.194695072873078,-0.383488557724022,-0.163784726939537,0.0910850413961383,0,0,0,0,0,0,0
1.77,-0.775168197274211,0.276951223544703,0.0734003027945333,0.135762705900752,-0.974383980054005,0.076939351608894,-0.0222952516310166,0.819539052836822,-0.00515351765465459,0.0543611801032282,0.0894402936211628,0.823993135017423,0.0959376101549872,0.0792738316372415,-0.334953565080648,-0.321161930432039,-0.122840544679343,-0.196861054559849,-0.401492702429258,-0.171081827297649,0.0859003863536271,0,0,0,0,0,0,0
1.78,-0.766989854772983,0.27688362734095,0.073937717793206,0.136647231531494,-0.966164418229685,0.0778900528170475,-0.021498305444867,0.816099561523946,-0.0083659489212289,0.0531163545954435,0.0874614691952102,0.819889916298253,0.0941905799745409,0.0801066671710828,-0.35288488304917,-0.321297438050734,-0.126119531306508,-0.198879027681881,-0.419080624635295,-0.17831262079078,0.0806574168541457,0,0,0,0,0,0,0
1.79,-0.758846797716476,0.276783902734405,0.0744625210987494,0.137511870506006,-0.957986760895743,0.0788229233692884,-0.0206932939612834,0.812482572590513,-0.0115789300178972,0.0518388934774868,0.0854632116750669,0.815612951335945,0.0923716002039964,0.0808868022767997,-0.370450987876091,-0.321272030465677,-0.129367317892393,-0.200747423024306,-0.436239917212627,-0.185470675916949,0.0753611399081604,0,0,0,0,0,0,0
1.8,-0.750740782611528,0.276652052258609,0.0749743879499349,0.13835643599671,-0.949852723881475,0.0797372475134324,-0.0198807467657804,0.808691800638805,-0.0147908560188181,0.0505291192099431,0.0834470241248946,0.811166586749723,0.0904814302519942,0.0816137291433784,-0.387639442618402,-0.321086573447487,-0.132581812896096,-0.202464805844193,-0.452958585170821,-0.192549593586822,0.0700166168472462,0,0,0,0,0,0,0
1.81,-0.742673528202873,0.276488094451028,0.0754729969146617,0.139180756276148,-0.941763978957236,0.0806323174107205,-0.0190611982680731,0.804731082905354,-0.0180001312695574,0.0491873751516615,0.0814144232781598,0.806555287003112,0.0885208933308874,0.0822869908240581,-0.404438159185674,-0.32074205527929,-0.135760928439873,-0.204029877240993,-0.469225056395421,-0.199543013150041,0.0646289583585992,0,0,0,0,0,0,0
1.82,-0.734646714264427,0.276292063754234,0.0759580300987329,0.139984674846863,-0.933722152677323,0.0815074337718339,-0.0182351871910496,0.800604375718461,-0.0212051706052027,0.0478140255160839,0.0793669381729044,0.801783630123238,0.0864908760423058,0.0829061817048533,-0.420835409076014,-0.320239585336672,-0.13890258171844,-0.205441475395682,-0.485028191963869,-0.206444618400406,0.0592033194703875,0,0,0,0,0,0,0
1.83,-0.726661980426521,0.276064010404979,0.0764291733541236,0.140768050557571,-0.925728825266154,0.0823619064884649,-0.0174032560553108,0.796315750850064,-0.0244044005537402,0.0464094553134453,0.0773061087752869,0.796856303319126,0.0843923279027983,0.0834709479227028,-0.436819833765797,-0.319580392560359,-0.142004696414895,-0.206698576677384,-0.500357296030792,-0.213248143554156,0.0537448944928546,0,0,0,0,0,0,0
1.84,-0.71872092504013,0.275804000311316,0.0768861164866017,0.141530757705514,-0.917785529548773,0.0831950552598457,-0.0165659506597814,0.791869391765488,-0.027596260523629,0.0449740702787871,0.0752334845927228,0.791778098503323,0.0822262608098506,0.0839809877328314,-0.452380454743488,-0.318765823823371,-0.14506520412221,-0.207800296616458,-0.515202125273435,-0.21994737919556,0.0482589119201343,0,0,0,0,0,0,0
1.85,-0.71082510407911,0.275512114917926,0.0773285534625558,0.142272686124903,-0.909893749926584,0.0840062102136408,-0.0157238195589036,0.787269589774673,-0.030779203974527,0.0435082967857312,0.0731506232779679,0.786553907721318,0.0799937484486349,0.084436051824952,-0.467506683178272,-0.31779734219451,-0.148082045769314,-0.208745890743106,-0.529552897888469,-0.226536178184078,0.042750629297773,0,0,0,0,0,0,0
1.86,-0.702976030081385,0.275188451059825,0.0777561826148912,0.142993741261355,-0.902054921399249,0.084794712520612,-0.0148774135369257,0.782520740088578,-0.0339516995701417,0.0420125817459751,0.0710590892254893,0.781188718493258,0.0776959256399039,0.0848359435879937,-0.482188329214516,-0.316676525100106,-0.151053173050702,-0.209534755290735,-0.543400302131838,-0.233008461517386,0.03722532806099,0,0,0,0,0,0,0
1.87,-0.695175171130038,0.274833120804641,0.0781687068478478,0.143693844232272,-0.894270428633575,0.0855599150024706,-0.0140272850798013,0.777627337784547,-0.0371122323121976,0.0404873924944769,0.0689604521614828,0.775687609072596,0.0753339876294984,0.0851805193230868,-0.496415610883474,-0.315405062386093,-0.153976549858542,-0.210166427763411,-0.556735504393766,-0.239358224144566,0.0316883083487344,0,0,0,0,0,0,0
1.88,-0.687423949875187,0.274446251283641,0.0785658338405994,0.144372931873079,-0.886541605080219,0.0863011827323341,-0.0131739878452191,0.772593973684511,-0.0402593046545357,0.038933216660312,0.0668562857288975,0.770055743626332,0.072909189319996,0.0854696884045888,-0.510179162624029,-0.313984754282523,-0.15685015371624,-0.210640587366889,-0.569550156801518,-0.245579540723851,0.0261448837986194,0,0,0,0,0,0,0
1.89,-0.679723742597492,0.274027984511732,0.0789472762494892,0.145030956769305,-0.878869732138961,0.087017893627213,-0.0123180761312827,0.767425330149965,-0.0433914375963785,0.0373505620231905,0.0647481660688334,0.764298367341626,0.0704228444450835,0.0857034133889846,-0.52347004340461,-0.31241750927276,-0.159671977212382,-0.210957055302848,-0.581836404342968,-0.251666571319298,0.0206003763278391,0,0,0,0,0,0,0
1.9,-0.672075878314124,0.273578477196625,0.0793127519087592,0.145667887274463,-0.871256038373257,0.0877094390319576,-0.0114601043443621,0.762126176797751,-0.0465071717538213,0.0357399563556383,0.0626376703996819,0.758420801463595,0.0678763246872899,0.0858817100715482,-0.53627974443886,-0.310705341869653,-0.162440029434016,-0.211115794926062,-0.593586891504498,-0.257613567030877,0.0150601109051779,0,0,0,0,0,0,0
1.91,-0.664481637927939,0.273097900537408,0.0796619840296294,0.146283707513711,-0.863701698774739,0.0883752242941015,-0.010600626466641,0.756701366140748,-0.0496050684086288,0.0341019472508527,0.0605263755953808,0.752428438269182,0.0652710587397753,0.0860046474907007,-0.548600196487978,-0.308850370301105,-0.165152337398183,-0.211116911764415,-0.604794768417253,-0.263414875552466,0.00952941031923941,0,0,0,0,0,0,0
1.92,-0.656942253420616,0.272586440012741,0.0799947013975841,0.146878417373302,-0.856207834078273,0.0890146693290469,-0.00974019552388093,0.751155829157631,-0.052683710533445,0.0324371019362564,0.0584158567641545,0.746326735982052,0.0626085313129222,0.0860723478800527,-0.560423776743093,-0.306854814107506,-0.167806947480637,-0.210960653401777,-0.615453696506245,-0.269064946652348,0.00401358994802099,0,0,0,0,0,0,0
1.93,-0.649458907090428,0.272044295158922,0.0803106385677227,0.147452032475826,-0.848775510128149,0.0896272091750421,-0.00887936305392727,0.745494570795937,-0.0557417037925486,0.0307460070727819,0.0563076858291103,0.740121213633489,0.0598902820865322,0.0860849865681715,-0.571743315281421,-0.304720991653597,-0.17040192684066,-0.210647409223887,-0.625557853637307,-0.274558337570849,-0.00148204746504213,0,0,0,0,0,0,0
1.94,-0.642032730835302,0.271471679338073,0.0806095360580317,0.148004584141279,-0.841405737295904,0.0902122945374142,-0.00801867857647839,0.739722665412717,-0.0587776775173081,0.0290292685399333,0.0542034301120604,0.733817445874372,0.0571179046084824,0.0860427918261613,-0.582552101090365,-0.302451317557411,-0.172935364840909,-0.210177710027559,-0.635101938757375,-0.279889718329827,-0.00695221702343911,0,0,0,0,0,0,0
1.95,-0.634664805481763,0.270868819496702,0.0808911405404369,0.148536119333982,-0.834099469950249,0.0907693923215224,-0.0071586890646392,0.733845252157136,-0.0617902856555247,0.0272875112066775,0.0521046509219331,0.727421057743284,0.0542930451407498,0.0859460446632002,-0.592843887654156,-0.300048300039007,-0.175405374461184,-0.209552227493617,-0.644081176024109,-0.285053876948816,-0.0123916568732488,0,0,0,0,0,0,0
1.96,-0.627356160160323,0.2702359559149,0.0811552050294935,0.149046700595422,-0.826857605979517,0.0912979861539141,-0.00629993841877888,0.727867530299411,-0.0647782076938723,0.0255213786882336,0.0500129021491332,0.720937719395898,0.0514174014537611,0.085795078570224,-0.602612898098037,-0.297514538191785,-0.177810093705058,-0.208771773524135,-0.65249131842133,-0.29004572456271,-0.0177951333770146,0,0,0,0,0,0,0
1.97,-0.620107771727838,0.269573341946457,0.081401489068574,0.149536405963068,-0.819680986366988,0.0917975768911695,-0.00544296694321006,0.721794754510545,-0.0677401495526756,0.0237315330888355,0.0479297288672067,0.714373140800791,0.048492721570081,0.0855902792120025,-0.611853829885428,-0.294852719179237,-0.180147686998256,-0.20783729944467,-0.660328650857294,-0.294860300435931,-0.0231574462607571,0,0,0,0,0,0,0
1.98,-0.612920564237286,0.26888124375017,0.0816297589134145,0.150005328875246,-0.8125703948194,0.0922676831159341,-0.00458831082620404,0.715632230097335,-0.070674844452295,0.0219186547305577,0.0458566659431541,0.707733066406877,0.0455208024584949,0.0853320840679004,-0.620561859063953,-0.292065615360075,-0.182416346577712,-0.206749895072319,-0.667589992743308,-0.29949277686817,-0.0284734337290833,0,0,0,0,0,0,0
1.99,-0.605795408455403,0.268159940012632,0.0818397877128791,0.150453578062166,-0.805526557448907,0.0927078416196489,-0.00373650162385356,0.709385308197193,-0.0735810537504175,0.0200834418682999,0.04379523665773,0.701023269787649,0.0425034886795981,0.0850209820216675,-0.628732644056628,-0.289156081344712,-0.184614293870209,-0.205510787650563,-0.674272700050729,-0.303938463986834,-0.0337379775433776,0,0,0,0,0,0,0
2,-0.598733121428555,0.267409721662794,0.0820313556868057,0.150881277423207,-0.798550142508691,0.0931176078714986,-0.00288806574829091,0.703059380937343,-0.0764575677495811,0.0182266103910434,0.0417469513370563,0.69424954826748,0.0394426709840459,0.0846575129006524,-0.636362328994954,-0.286127050986153,-0.186739780859519,-0.204121340651983,-0.680374666844862,-0.308192814421483,-0.0389460080580992,0,0,0,0,0,0,0
2.01,-0.591734466097173,0.266630891578608,0.082204250300797,0.151288565890582,-0.791641760182373,0.093496556473111,-0.002043523960765,0.696659876562995,-0.0793032064742937,0.0163488935094973,0.0397133059968634,0.687417717535193,0.0363402848646695,0.0842422669648837,-0.643447546591124,-0.282981534308408,-0.188791091440963,-0.20258305245007,-0.685894326294855,-0.312251427855598,-0.0440925092102507,0,0,0,0,0,0,0
2.02,-0.584800150959049,0.265823764286047,0.0823582664378191,0.151675597279511,-0.784801962427337,0.0938442815985513,-0.00120339087007616,0.690192254539098,-0.0821168204171369,0.0144510414302667,0.0376957810006629,0.680533606250159,0.0331983090637054,0.0837758843465104,-0.649985420546963,-0.279722614375585,-0.190766542762306,-0.200897554861492,-0.690830651159126,-0.316110055451191,-0.0491725234571263,0,0,0,0,0,0,0
2.03,-0.577930829781715,0.264988665650828,0.0824932065664761,0.152042540125056,-0.778031242872008,0.0941603974191708,-0.000368174436862544,0.683662000630346,-0.084897291253277,0.0125338210166848,0.035695839733138,0.673603050646162,0.0300187640364339,0.0832590544401439,-0.655973567497689,-0.276353444104881,-0.19266448654992,-0.199066611560267,-0.695183153746438,-0.319764604141828,-0.0541811566575059,0,0,0,0,0,0,0
2.04,-0.571127101364124,0.264125932563149,0.0826088809058262,0.152389577505764,-0.771330036767071,0.0944445385128781,0.000461624515773777,0.677074621964062,-0.0876435325228397,0.0105980154364613,0.0337149272900275,0.666631889138273,0.0268037103725625,0.0826925152446908,-0.661410098489036,-0.272877243026734,-0.194483310419136,-0.197092116365476,-0.698951885353213,-0.3232111407898,-0.0591135828915039,0,0,0,0,0,0,0
2.05,-0.564389509347764,0.263235912615759,0.0827051075866097,0.152716906854304,-0.764698720990598,0.0946963602574199,0.00128551278481922,0.670435642080658,-0.0903544902806352,0.00864442379631092,0.031754469185757,0.659625956937966,0.0235552471767349,0.082077052657314,-0.66629361998671,-0.269297293995447,-0.196221439167738,-0.194976091404217,-0.702137435178209,-0.326445896203271,-0.0639650492143581,0,0,0,0,0,0,0
2.06,-0.557718542077302,0.262318963775702,0.0827817128087586,0.153024739755265,-0.758137614106951,0.094915539207268,0.0021030052626042,0.663750595976338,-0.0930291437127564,0.00667386076373557,0.0298158700800565,0.652591080681691,0.0202755104095841,0.0814134997202045,-0.670623234417618,-0.265616939853622,-0.197877336051526,-0.192720685151667,-0.704740928716199,-0.329465269009392,-0.0687308803394944,0,0,0,0,0,0,0
2.07,-0.551114632510838,0.261375454050063,0.0828385309950602,0.153313301730333,-0.751646976479315,0.095101773453725,0.00291362540429318,0.657025025142735,-0.0956665057196037,0.00468715617614544,0.0279005125247847,0.645533073078112,0.0169666711907934,0.0807027358208968,-0.674398540242755,-0.261839580053811,-0.199449504040914,-0.190328170350204,-0.706764025632786,-0.332265829379466,-0.0734064832462784,0,0,0,0,0,0,0
2.08,-0.544578158179738,0.260405761146047,0.08287540494085,0.153582832011031,-0.745227010435644,0.0952547829678781,0.00371690568714929,0.650264472608151,-0.0982656234649282,0.00268515463751209,0.0260097557321565,0.638457727579172,0.0136309340656579,0.0799456858469013,-0.677619631562084,-0.25796866724078,-0.200936487057516,-0.187800941809696,-0.708208917123011,-0.334844322602426,-0.0779873517079437,0,0,0,0,0,0,0
2.09,-0.538109441198041,0.259410272125748,0.0828921859596095,0.153833583299256,-0.738877860487751,0.0953743099260411,0.00451238806111968,0.643474477985091,-0.100825578890513,0.000668715102761329,0.0241449343655546,0.631370813080148,0.0102705352366878,0.0791433192954751,-0.680287097252193,-0.254007703797868,-0.202336871189697,-0.185141514091144,-0.709078322756919,-0.337197672502998,-0.0824690707352517,0,0,0,0,0,0,0
2.1,-0.531708748321338,0.258389383055937,0.0828887340243472,0.154065821515847,-0.732599613603237,0.0954601190173449,0.00529962439029848,0.636660572528755,-0.103345489196156,-0.00136128954988099,0.0223073573540768,0.624278068653795,0.00688774076181867,0.0782966493393959,-0.682402019637972,-0.249960238360895,-0.203649285886064,-0.182352519076004,-0.709375486815727,-0.339322984701076,-0.0868473209315374,0,0,0,0,0,0,0
2.11,-0.525376291054983,0.257343498653228,0.0828649179046442,0.154279825537417,-0.726392299529884,0.0955119977331503,0.00607817688483052,0.629828274211128,-0.10582450728464,-0.00340397295836267,0.0204983067319519,0.617185198323664,0.00348484472083836,0.0774067318496467,-0.683965972699984,-0.245829862303148,-0.204872405125905,-0.179436703423616,-0.709104174122777,-0.341217549708993,-0.0911178827548635,0,0,0,0,0,0,0
2.12,-0.519112225811479,0.256273031924971,0.0828206152992464,0.154475886921705,-0.720255891172096,0.0955297566379712,0.00684761852283128,0.622983082815313,-0.108261822171425,-0.00545843572786496,0.0187190365039309,0.610097865881611,6.41673516622136e-05,0.0764746643759596,-0.684981019819666,-0.241620206194951,-0.206004948565562,-0.176396925919288,-0.708268665373903,-0.34287884586351,-0.0952766406831162,0,0,0,0,0,0,0
2.13,-0.512916654116789,0.255178403806223,0.0827557129640899,0.154654309621726,-0.714190305018929,0.095513229621619,0.00760753346190486,0.616130475054713,-0.110656659358826,-0.00752376589320056,0.0169707715377323,0.603021689754485,-0.00337194684186995,0.075501585086213,-0.685449711064936,-0.237334936241374,-0.207045682659778,-0.173236154715658,-0.706873751972366,-0.344304542089505,-0.0993195872779523,0,0,0,0,0,0,0
2.14,-0.506789622865321,0.254060042793159,0.0826701068356461,0.154815409688977,-0.708195401623184,0.0954622741322878,0.008357517439855,0.609275899721644,-0.11300828117447,-0.00959903939229674,0.0152547064845966,0.595962237924928,-0.0068211310089823,0.0744886716657095,-0.685375080019214,-0.232977750701636,-0.207993421757031,-0.169957464470112,-0.704924730373983,-0.345492500492497,-0.103242827143621,0,0,0,0,0,0,0
2.15,-0.50073112462325,0.252918384573277,0.0825637021494781,0.154959514965997,-0.702270986130997,0.0953767713903243,0.00909717816419257,0.602424772869924,-0.11531598707387,-0.0116833205504971,0.013572004728974,0.588925022911135,-0.0102809978960079,0.0734371401774093,-0.684760640157316,-0.228552376293765,-0.208847029167927,-0.166564033381087,-0.702427395948551,-0.346440778777322,-0.107042580776779,0,0,0,0,0,0,0
2.16,-0.494741097979835,0.251753871652751,0.0824364135539011,0.155086964768571,-0.696416808861327,0.0952566265824377,0.00982613569005475,0.595582473035948,-0.117579113906992,-0.0137756625754095,0.0119237973683425,0.581915496810405,-0.0137491418137422,0.0723482438842247,-0.683610380772102,-0.224062564588091,-0.209605418205697,-0.163059140126215,-0.699388036364131,-0.347147632490397,-0.11071518830352,0,0,0,0,0,0,0
2.17,-0.488819427946312,0.250566952981311,0.0822881652186422,0.15519810955789,-0.690632565934658,0.0951017690361288,0.0105440227861621,0.588754336502739,-0.11979703614871,-0.0158751080620147,0.0103111822241234,0.574939046411194,-0.0172231406263251,0.0712232720345249,-0.681928762456202,-0.21951208839315,-0.210267553197887,-0.159446160705364,-0.695813424501245,-0.347611517083223,-0.114257113099971,0,0,0,0,0,0,0
2.18,-0.482965946401909,0.249358083574988,0.0821188909384,0.155293310602976,-0.684917899950229,0.0949121523741288,0.011250485288452,0.581945652611369,-0.121969166093098,-0.0179806895077447,0.0087352228846275,0.56800098837835,-0.0207005577598574,0.0700635486120307,-0.679720712143553,-0.214904738137569,-0.210832450468342,-0.155728565191689,-0.691710810904471,-0.347831089794922,-0.117664945292892,0,0,0,0,0,0,0
2.19,-0.477180432586496,0.248127724137102,0.0819285342312037,0.155372939633707,-0.67927240071102,0.0946877546486609,0.0119451824410378,0.575161659124159,-0.124094954011539,-0.0200914298372285,0.00719694778093894,0.561106564516117,-0.0241789442289269,0.0688704310513184,-0.676991617715926,-0.210244318251514,-0.211299179288605,-0.151909914393946,-0.687087915779384,-0.347805211351753,-0.120935405136851,0,0,0,0,0,0,0
2.2,-0.471462613639326,0.246876340677851,0.081717048431479,0.15543737848476,-0.673695605995698,0.0944285784553558,0.0126277872241562,0.568407537643959,-0.126173888274661,-0.0222063429363957,0.00569734929660429,0.554260937113397,-0.0276558406792085,0.0676453089201824,-0.673747322180003,-0.205534643551246,-0.211666862797845,-0.147993856433364,-0.681952920543232,-0.347532947481782,-0.124065346264676,0,0,0,0,0,0,0
2.21,-0.465812165183279,0.245604404132857,0.0814843967777262,0.155487018730831,-0.668187002376694,0.094134651026667,0.0132979866687777,0.561688409093777,-0.128205495438142,-0.0243244341956175,0.00423738291196739,0.547469184375711,-0.0311287794442784,0.0663896025701403,-0.669994117421011,-0.200779535630367,-0.211934678890511,-0.143984123238475,-0.676314458938154,-0.347013570242992,-0.127051758807981,0,0,0,0,0,0,0
2.22,-0.460228711954,0.244312389981036,0.0812305524947238,0.155522261313468,-0.662746026083489,0.0938060243046561,0.0139554821575691,0.555009329260969,-0.130189340292486,-0.0264447010615609,0.00281796638395032,0.54073629594817,-0.0345952866147717,0.0651047617563951,-0.665738737539297,-0.195982819261258,-0.212101861070841,-0.139884526961377,-0.670181607716197,-0.346246559163335,-0.129891772384723,0,0,0,0,0,0,0
2.23,-0.454711828473248,0.243000777862155,0.0809554988701713,0.155543516159892,-0.657372063910216,0.0934427749930318,0.0145999897119076,0.548375284410117,-0.13212502587687,-0.0285661335974175,0.00143997896205115,0.534067168533702,-0.0380528841179927,0.0637922642285998,-0.660988351776635,-0.191148318810266,-0.21216769927347,-0.135698956318984,-0.663563876905781,-0.345231602191398,-0.132582658950845,0,0,0,0,0,0,0
2.24,-0.449261039765757,0.24167005119442,0.0806592293256891,0.155551201794153,-0.652064454166575,0.0930450045883488,0.0152312402646626,0.541791186968666,-0.13401219345723,-0.0306877150511665,0.000104260641287945,0.527466601610656,-0.0414990918060819,0.0624536142937951,-0.65575055703945,-0.186279854670103,-0.212131540649321,-0.131431372862877,-0.656471199669671,-0.34396859645652,-0.135121835513231,0,0,0,0,0,0,0
2.25,-0.443875822118863,0.240320696792471,0.0803417474820974,0.155545744941007,-0.646822487671061,0.0926128393902901,0.0158489799184735,0.535261871289312,-0.135850522468776,-0.0328084224315196,-0.0011883885472129,0.520939293253839,-0.0449314295508258,0.0610903413529238,-0.650033370026522,-0.181381239712955,-0.211992790316049,-0.12708580718146,-0.648913921764913,-0.342457648837406,-0.137506866701289,0,0,0,0,0,0,0
2.26,-0.438555603884103,0.238953204486119,0.080003067218898,0.155527580122889,-0.641645408785451,0.0921464304909759,0.0164529701892669,0.528792089493055,-0.137639730423145,-0.03492722709119,-0.0024372092073283,0.514489836062885,-0.0483474193431935,0.059703998412346,-0.64384521896911,-0.176456275767736,-0.211750912072288,-0.122666355038157,-0.64090279061557,-0.340699076338426,-0.139735467194661,0,0,0,0,0,0,0
2.27,-0.433299766319969,0.237568066740197,0.0796432127278894,0.15549714925037,-0.636532416489448,0.0916459537432619,0.0170429882347692,0.522386507396766,-0.139379572780473,-0.03704309531712,-0.00364148321012695,0.508122713201799,-0.0517445873956704,0.0582961605718066,-0.637194934991806,-0.171508750124898,-0.211405429075005,-0.118177173449498,-0.632448944009476,-0.33869340627301,-0.141805504004669,0,0,0,0,0,0,0
2.28,-0.42810764447494,0.236165778275857,0.0792622185608452,0.155454901206488,-0.63148266549437,0.0911116097080078,0.017618827067788,0.516049700528986,-0.141069842786658,-0.0391549889272948,-0.00480053428655522,0.501842294553351,-0.0551204662454609,0.056868423490329,-0.630091743102788,-0.166542432072171,-0.210955924479269,-0.113622476706933,-0.623563898430567,-0.336441376253706,-0.143714998607261,0,0,0,0,0,0,0
2.29,-0.422978528109913,0.23474683569367,0.0788601296711939,0.155401291425352,-0.626495267394688,0.0905436235803178,0.0181802957540477,0.509786150237662,-0.142710371276159,-0.0412618658737632,-0.00591372858007542,0.495652832991936,-0.058472596856623,0.0554224018315313,-0.622545252822488,-0.161561069464582,-0.210402042039783,-0.109006532346337,-0.614259537038725,-0.333943933988667,-0.145462128925367,0,0,0,0,0,0,0
2.3,-0.417911662659065,0.233311737098872,0.0784370014496387,0.155336781465425,-0.621569291856249,0.089942245094773,0.0187272195943823,0.503600239893339,-0.144301026440665,-0.0433626808514802,-0.00698047515875479,0.489558460778331,-0.0617985307192004,0.0539597276898787,-0.614565448460037,-0.15656838533204,-0.209743486673541,-0.104333657069158,-0.604548097309379,-0.331202236884497,-0.147045231158723,0,0,0,0,0,0,0
2.31,-0.412906250228207,0.231860981729083,0.0779928997536615,0.155261838577884,-0.616703767839909,0.0893077484096959,0.019259440291101,0.497496251191336,-0.145841713564059,-0.0454563859125783,-0.00800022648634023,0.483563186079715,-0.0650958319434142,0.0524820489994093,-0.606162679047189,-0.151568074527737,-0.20898002498302,-0.0996082126192467,-0.594442158345458,-0.328217651455608,-0.148462801459357,0,0,0,0,0,0,0
2.32,-0.407961450629596,0.230395069584854,0.0775279009308583,0.155176935270485,-0.611897684859344,0.0886404319705054,0.0197768160983609,0.491478360556227,-0.147332374724071,-0.0475419310856725,-0.00897247885189739,0.477670889618151,-0.0683620793469835,0.0509910279264826,-0.597347647939721,-0.146563800420576,-0.208111485739307,-0.0948346016194256,-0.583954627874585,-0.324991752540375,-0.149713497451111,0,0,0,0,0,0,0
2.33,-0.403076382452185,0.228914501063356,0.0770420918360588,0.15508254886733,-0.607149994271703,0.087940618352241,0.0202792219563928,0.48555063565195,-0.148772988461093,-0.0496182649997926,-0.00989677275763073,0.471885321450616,-0.071594868533642,0.0494883392481195,-0.588131402096665,-0.141559191634768,-0.207137760324638,-0.09001726337191,-0.573098728944714,-0.321526322324606,-0.150796139591684,0,0,0,0,0,0,0
2.34,-0.398250124166223,0.227419776595545,0.0765355698421848,0.15497916106498,-0.602459610599807,0.0872086540813539,0.0207665496094456,0.479717032000676,-0.150163569414638,-0.0516843355125361,-0.0107726932645443,0.466210097883522,-0.0747918139609292,0.0479756687175146,-0.578525321047984,-0.136557838839704,-0.206058803133811,-0.0851606696267065,-0.561887986331684,-0.317823349172995,-0.151709712375885,0,0,0,0,0,0,0
2.35,-0.393481715261115,0.225911396287118,0.0760084428448074,0.154867257485306,-0.597825412884503,0.0864449094368821,0.0212387077073283,0.473981389713521,-0.151504167927962,-0.0537390903420283,-0.011599870295644,0.460648698524554,-0.0779505509953407,0.0464547114183149,-0.568541105561625,-0.13156329159313,-0.204874631933988,-0.0802693203221615,-0.550336212672447,-0.313885026269431,-0.15245336537889,0,0,0,0,0,0,0
2.36,-0.388770157415407,0.224389859563588,0.0754608292603677,0.15474732722554,-0.59324624606582,0.0856497782311449,0.0216956218904444,0.46834743033604,-0.152794869621398,-0.0557814777022689,-0.0123779788964234,0.455204463474479,-0.0810687379529276,0.0449271701092706,-0.558190766021158,-0.126579055240611,-0.203585328182426,-0.0753477393018524,-0.53845749433799,-0.309713750067203,-0.15302641413849,0,0,0,0,0,0,0
2.37,-0.384114415697715,0.222855664819771,0.0748928580180294,0.154619862405918,-0.588720922391478,0.0848236775701118,0.0221372348582333,0.462818753811346,-0.154035794934977,-0.0578104469414459,-0.0131067394524175,0.44988059066147,-0.0841440581234552,0.0433947535608716,-0.547486610525478,-0.121608587874204,-0.202191037301703,-0.070400470012029,-0.526266177060193,-0.305312118550334,-0.153428340875466,0,0,0,0,0,0,0
2.38,-0.379513419797442,0.221309309074004,0.0743046685451336,0.15448535771538,-0.584248222851342,0.0839670475936203,0.0225635064209425,0.457398835563573,-0.15522709864094,-0.0598249491827852,-0.013785917863652,0.444680133320343,-0.0871742217762348,0.0418591748855933,-0.536441232722291,-0.116655297353176,-0.200691968912048,-0.0654320711838402,-0.513776851327125,-0.300682929307455,-0.153658795051361,0,0,0,0,0,0,0
2.39,-0.374966065284038,0.219751287627383,0.073696410746236,0.154344309955724,-0.579826898636349,0.0830803511956348,0.0229744135346787,0.452091023704283,-0.156368969326788,-0.0618239379675094,-0.0144153256758551,0.439605997618918,-0.0901569681457642,0.0403221498633788,-0.525067499387396,-0.11172253838955,-0.199088397020389,-0.0604471125045821,-0.501004337561477,-0.295829177419799,-0.153717593763127,0,0,0,0,0,0,0
