123yjm/Brainco_identification/scripts/revoarm_right_data_read_excitation_56.12_adjusted.csv
time,q0,q1,q2,q3,q4,q5,q6,qd0,qd1,qd2,qd3,qd4,qd5,qd6,qdd0,qdd1,qdd2,qdd3,qdd4,qdd5,qdd6,tau0,tau1,tau2,tau3,tau4,tau5,tau6
0.000000000000000e+00,-1.500000000000000e+00,3.500000000000000e-01,3.296000000000000e-17,-2.081700000000000e-16,-1.725000000000000e+00,-2.775600000000000e-17,6.505200000000000e-18,-1.110200000000000e-16,5.551100000000000e-17,-1.110200000000000e-16,-2.775600000000000e-17,3.122500000000000e-17,-6.938899999999999e-18,0.000000000000000e+00,-1.110200000000000e-15,8.881800000000000e-16,1.262900000000000e-15,3.330700000000000e-16,-3.330700000000000e-16,1.110200000000000e-16,-5.100100000000000e-16,0.000000000000000e+00,0.000000000000000e+00,0.000000000000000e+00,0.000000000000000e+00,0.000000000000000e+00,0.000000000000000e+00,0.000000000000000e+00
1.000000000000000e-02,-1.500000000000000e+00,3.500000000000000e-01,1.084000000000000e-06,3.891600000000000e-07,-1.725000000000000e+00,6.341400000000000e-08,-4.296100000000000e-07,-2.890000000000000e-04,1.180900000000000e-04,3.252000000000000e-04,1.169000000000000e-04,-4.262400000000000e-05,1.910300000000000e-05,-1.288800000000000e-04,-5.774800000000000e-02,2.377100000000000e-02,6.504400000000000e-02,2.344200000000000e-02,-8.415400000000000e-03,3.851900000000000e-03,-2.577300000000000e-02,0.000000000000000e+00,0.000000000000000e+00,0.000000000000000e+00,0.000000000000000e+00,0.000000000000000e+00,0.000000000000000e+00,0.000000000000000e+00
2.000000000000000e-02,-1.500000000000000e+00,3.500000000000000e-01,8.672300000000000e-06,3.125600000000000e-06,-1.725000000000000e+00,5.135600000000000e-07,-3.436300000000000e-06,-1.153800000000000e-03,4.784300000000000e-04,1.300800000000000e-03,4.700500000000000e-04,-1.661100000000000e-04,7.765600000000000e-05,-5.153700000000000e-04,-1.151600000000000e-01,4.844500000000000e-02,1.300800000000000e-01,4.724400000000000e-02,-1.617200000000000e-02,7.889400000000000e-03,-5.151900000000000e-02,0.000000000000000e+00,0.000000000000000e+00,0.000000000000000e+00,0.000000000000000e+00,0.000000000000000e+00,0.000000000000000e+00,0.000000000000000e+00
3.000000000000000e-02,-1.500000000000000e+00,3.500100000000000e-01,2.926700000000000e-05,1.058900000000000e-05,-1.725000000000000e+00,1.754200000000000e-06,-1.159400000000000e-05,-2.590800000000000e-03,1.089900000000000e-03,2.926500000000000e-03,1.062900000000000e-03,-3.638500000000000e-04,1.774900000000000e-04,-1.159100000000000e-03,-1.721600000000000e-01,7.399600000000001e-02,1.950300000000000e-01,7.138300000000000e-02,-2.326500000000000e-02,1.210700000000000e-02,-7.720900000000000e-02,0.000000000000000e+00,0.000000000000000e+00,0.000000000000000e+00,0.000000000000000e+00,0.000000000000000e+00,0.000000000000000e+00,0.000000000000000e+00
4.000000000000000e-02,-1.500100000000000e+00,3.500300000000000e-01,6.936400000000000e-05,2.519400000000000e-05,-1.725000000000000e+00,4.206900000000000e-06,-2.747300000000000e-05,-4.595600000000000e-03,1.961200000000000e-03,5.200900000000000e-03,1.898800000000000e-03,-6.291800000000000e-04,3.203900000000000e-04,-2.059300000000000e-03,-2.287100000000000e-01,1.003900000000000e-01,2.598400000000000e-01,9.583700000000001e-02,-2.968900000000000e-02,1.650100000000000e-02,-1.028200000000000e-01,0.000000000000000e+00,0.000000000000000e+00,0.000000000000000e+00,0.000000000000000e+00,0.000000000000000e+00,0.000000000000000e+00,0.000000000000000e+00
5.000000000000000e-02,-1.500100000000000e+00,3.500500000000000e-01,1.354400000000000e-04,4.938400000000000e-05,-1.725000000000000e+00,8.311199999999999e-06,-5.363200000000000e-05,-7.163300000000000e-03,3.100500000000000e-03,8.122500000000000e-03,2.980600000000000e-03,-9.554000000000000e-04,5.080700000000000e-04,-3.215100000000000e-03,-2.847500000000000e-01,1.276100000000000e-01,3.244300000000000e-01,1.205800000000000e-01,-3.544300000000000e-02,2.106400000000000e-02,-1.283200000000000e-01,0.000000000000000e+00,0.000000000000000e+00,0.000000000000000e+00,0.000000000000000e+00,0.000000000000000e+00,0.000000000000000e+00,0.000000000000000e+00
6.000000000000000e-02,-1.500200000000000e+00,3.500900000000000e-01,2.339600000000000e-04,8.563600000000000e-05,-1.725000000000000e+00,1.452300000000000e-05,-9.262200000000000e-05,-1.028900000000000e-02,4.516000000000000e-03,1.168900000000000e-02,4.311400000000000e-03,-1.335800000000000e-03,7.422100000000000e-04,-4.625200000000000e-03,-3.402100000000000e-01,1.556100000000000e-01,3.887400000000000e-01,1.456000000000000e-01,-4.052200000000000e-02,2.579000000000000e-02,-1.536800000000000e-01,0.000000000000000e+00,0.000000000000000e+00,0.000000000000000e+00,0.000000000000000e+00,0.000000000000000e+00,0.000000000000000e+00,0.000000000000000e+00
7.000000000000001e-02,-1.500300000000000e+00,3.501400000000000e-01,3.713500000000000e-04,1.364500000000000e-04,-1.725000000000000e+00,2.331600000000000e-05,-1.469800000000000e-04,-1.396500000000000e-02,6.215200000000000e-03,1.589600000000000e-02,5.893500000000000e-03,-1.763600000000000e-03,1.024400000000000e-03,-6.288100000000000e-03,-3.950400000000000e-01,1.843600000000000e-01,4.527200000000000e-01,1.708700000000000e-01,-4.492600000000000e-02,3.067300000000000e-02,-1.788800000000000e-01,0.000000000000000e+00,0.000000000000000e+00,0.000000000000000e+00,0.000000000000000e+00,0.000000000000000e+00,0.000000000000000e+00,0.000000000000000e+00
8.000000000000000e-02,-1.500500000000000e+00,3.502100000000000e-01,5.540100000000000e-04,2.043500000000000e-04,-1.725100000000000e+00,3.517700000000000e-05,-2.192200000000000e-04,-1.818700000000000e-02,8.205600000000000e-03,2.074200000000000e-02,7.729500000000000e-03,-2.232000000000000e-03,1.356200000000000e-03,-8.202100000000000e-03,-4.491800000000000e-01,2.138300000000000e-01,5.162800000000000e-01,1.963600000000000e-01,-4.865300000000000e-02,3.570700000000000e-02,-2.038900000000000e-01,0.000000000000000e+00,0.000000000000000e+00,0.000000000000000e+00,0.000000000000000e+00,0.000000000000000e+00,0.000000000000000e+00,0.000000000000000e+00
9.000000000000000e-02,-1.500700000000000e+00,3.503100000000000e-01,7.882900000000000e-04,2.918900000000000e-04,-1.725100000000000e+00,5.060900000000000e-05,-3.118500000000000e-04,-2.294600000000000e-02,1.049400000000000e-02,2.622000000000000e-02,9.821399999999999e-03,-2.734400000000000e-03,1.739000000000000e-03,-1.036500000000000e-02,-5.025800000000000e-01,2.439900000000000e-01,5.793600000000000e-01,2.220500000000000e-01,-5.170300000000000e-02,4.088300000000000e-02,-2.286800000000000e-01,0.000000000000000e+00,0.000000000000000e+00,0.000000000000000e+00,0.000000000000000e+00,0.000000000000000e+00,0.000000000000000e+00,0.000000000000000e+00
1.000000000000000e-01,-1.500900000000000e+00,3.504200000000000e-01,1.080500000000000e-03,4.016400000000000e-04,-1.725100000000000e+00,7.013200000000000e-05,-4.273500000000000e-04,-2.823600000000000e-02,1.308800000000000e-02,3.232700000000000e-02,1.217100000000000e-02,-3.263900000000000e-03,2.174300000000000e-03,-1.277500000000000e-02,-5.551800000000000e-01,2.748100000000000e-01,6.419000000000000e-01,2.479200000000000e-01,-5.407700000000000e-02,4.619500000000000e-02,-2.532300000000000e-01,0.000000000000000e+00,0.000000000000000e+00,0.000000000000000e+00,0.000000000000000e+00,0.000000000000000e+00,0.000000000000000e+00,0.000000000000000e+00
1.100000000000000e-01,-1.501300000000000e+00,3.505700000000000e-01,1.436900000000000e-03,5.361800000000000e-04,-1.725200000000000e+00,9.427500000000000e-05,-5.681600000000000e-04,-3.404700000000000e-02,1.599200000000000e-02,3.905600000000000e-02,1.478000000000000e-02,-3.813700000000000e-03,2.663300000000000e-03,-1.542900000000000e-02,-6.069300000000000e-01,3.062300000000000e-01,7.038400000000000e-01,2.739500000000000e-01,-5.577700000000000e-02,5.163400000000000e-02,-2.775100000000000e-01,0.000000000000000e+00,0.000000000000000e+00,0.000000000000000e+00,0.000000000000000e+00,0.000000000000000e+00,0.000000000000000e+00,0.000000000000000e+00
1.200000000000000e-01,-1.501600000000000e+00,3.507500000000000e-01,1.863700000000000e-03,6.981200000000000e-04,-1.725200000000000e+00,1.235800000000000e-04,-7.367300000000000e-04,-4.037100000000000e-02,1.921400000000000e-02,4.640200000000000e-02,1.765000000000000e-02,-4.377200000000000e-03,3.207400000000000e-03,-1.832400000000000e-02,-6.577700000000000e-01,3.382400000000000e-01,7.651100000000000e-01,3.001000000000000e-01,-5.680500000000000e-02,5.719300000000000e-02,-3.015000000000000e-01,0.000000000000000e+00,0.000000000000000e+00,0.000000000000000e+00,0.000000000000000e+00,0.000000000000000e+00,0.000000000000000e+00,0.000000000000000e+00
1.300000000000000e-01,-1.502100000000000e+00,3.509600000000000e-01,2.367000000000000e-03,8.900600000000000e-04,-1.725200000000000e+00,1.586100000000000e-04,-9.354399999999999e-04,-4.719900000000000e-02,2.275900000000000e-02,5.435600000000000e-02,2.078300000000000e-02,-4.947600000000000e-03,3.807600000000000e-03,-2.145800000000000e-02,-7.076600000000000e-01,3.707900000000000e-01,8.256500000000000e-01,3.263500000000000e-01,-5.716300000000000e-02,6.286300000000000e-02,-3.251600000000000e-01,0.000000000000000e+00,0.000000000000000e+00,0.000000000000000e+00,0.000000000000000e+00,0.000000000000000e+00,0.000000000000000e+00,0.000000000000000e+00
1.400000000000000e-01,-1.502600000000000e+00,3.512000000000000e-01,2.952800000000000e-03,1.114600000000000e-03,-1.725300000000000e+00,1.999200000000000e-04,-1.166700000000000e-03,-5.452100000000000e-02,2.663200000000000e-02,6.291200000000000e-02,2.417800000000000e-02,-5.518200000000000e-03,4.465000000000000e-03,-2.482600000000000e-02,-7.565300000000000e-01,4.038500000000000e-01,8.854000000000000e-01,3.526900000000000e-01,-5.685600000000000e-02,6.863500000000000e-02,-3.484800000000000e-01,0.000000000000000e+00,0.000000000000000e+00,0.000000000000000e+00,0.000000000000000e+00,0.000000000000000e+00,0.000000000000000e+00,0.000000000000000e+00
1.500000000000000e-01,-1.503200000000000e+00,3.514900000000000e-01,3.627200000000000e-03,1.374500000000000e-03,-1.725400000000000e+00,2.481000000000000e-04,-1.432700000000000e-03,-6.232600000000000e-02,3.083800000000000e-02,7.206100000000000e-02,2.783700000000000e-02,-6.082500000000000e-03,5.180600000000000e-03,-2.842600000000000e-02,-8.043500000000000e-01,4.373800000000000e-01,9.442900000000000e-01,3.790800000000000e-01,-5.588800000000000e-02,7.450000000000000e-02,-3.714300000000000e-01,0.000000000000000e+00,0.000000000000000e+00,0.000000000000000e+00,0.000000000000000e+00,0.000000000000000e+00,0.000000000000000e+00,0.000000000000000e+00
1.600000000000000e-01,-1.503800000000000e+00,3.518200000000000e-01,4.396000000000000e-03,1.672300000000000e-03,-1.725400000000000e+00,3.037300000000000e-04,-1.735900000000000e-03,-7.060500000000000e-02,3.538100000000000e-02,8.179500000000001e-02,3.176000000000000e-02,-6.633800000000000e-03,5.955300000000000e-03,-3.225300000000000e-02,-8.510600000000000e-01,4.713300000000000e-01,1.002300000000000e+00,4.055000000000000e-01,-5.426500000000000e-02,8.044800000000001e-02,-3.939800000000000e-01,0.000000000000000e+00,0.000000000000000e+00,0.000000000000000e+00,0.000000000000000e+00,0.000000000000000e+00,0.000000000000000e+00,0.000000000000000e+00
1.700000000000000e-01,-1.504600000000000e+00,3.522000000000000e-01,5.265000000000000e-03,2.010600000000000e-03,-1.725500000000000e+00,3.674100000000000e-04,-2.078600000000000e-03,-7.934400000000000e-02,4.026500000000000e-02,9.210300000000000e-02,3.594700000000000e-02,-7.165600000000000e-03,6.789800000000000e-03,-3.630400000000000e-02,-8.966200000000000e-01,5.056700000000000e-01,1.059300000000000e+00,4.319300000000000e-01,-5.199300000000000e-02,8.647100000000001e-02,-4.161100000000000e-01,0.000000000000000e+00,0.000000000000000e+00,0.000000000000000e+00,0.000000000000000e+00,0.000000000000000e+00,0.000000000000000e+00,0.000000000000000e+00
1.800000000000000e-01,-1.505400000000000e+00,3.526300000000000e-01,6.239900000000000e-03,2.392100000000000e-03,-1.725600000000000e+00,4.397300000000000e-04,-2.462800000000000e-03,-8.853300000000000e-02,4.549500000000000e-02,1.029800000000000e-01,4.039800000000000e-02,-7.671500000000000e-03,7.684900000000000e-03,-4.057400000000000e-02,-9.409600000000000e-01,5.403700000000000e-01,1.115200000000000e+00,4.583400000000000e-01,-4.907800000000000e-02,9.255700000000000e-02,-4.378000000000000e-01,0.000000000000000e+00,0.000000000000000e+00,0.000000000000000e+00,0.000000000000000e+00,0.000000000000000e+00,0.000000000000000e+00,0.000000000000000e+00
1.900000000000000e-01,-1.506300000000000e+00,3.531100000000000e-01,7.326400000000000e-03,2.819400000000000e-03,-1.725600000000000e+00,5.213100000000000e-04,-2.890800000000000e-03,-9.815900000000000e-02,5.107400000000000e-02,1.144000000000000e-01,4.511300000000000e-02,-8.145100000000001e-03,8.641100000000001e-03,-4.505900000000000e-02,-9.840600000000000e-01,5.753700000000000e-01,1.170100000000000e+00,4.847000000000000e-01,-4.553000000000000e-02,9.869799999999999e-02,-4.590200000000000e-01,0.000000000000000e+00,0.000000000000000e+00,0.000000000000000e+00,0.000000000000000e+00,0.000000000000000e+00,0.000000000000000e+00,0.000000000000000e+00
2.000000000000000e-01,-1.507400000000000e+00,3.536500000000000e-01,8.529800000000001e-03,3.295200000000000e-03,-1.725700000000000e+00,6.127600000000000e-04,-3.364600000000000e-03,-1.082100000000000e-01,5.700400000000000e-02,1.263700000000000e-01,5.009200000000000e-02,-8.580000000000001e-03,9.658999999999999e-03,-4.975300000000000e-02,-1.025900000000000e+00,6.106400000000000e-01,1.223800000000000e+00,5.109900000000001e-01,-4.135500000000000e-02,1.048800000000000e-01,-4.797500000000000e-01,0.000000000000000e+00,0.000000000000000e+00,0.000000000000000e+00,0.000000000000000e+00,0.000000000000000e+00,0.000000000000000e+00,0.000000000000000e+00
2.100000000000000e-01,-1.508500000000000e+00,3.542500000000000e-01,9.855600000000001e-03,3.822100000000000e-03,-1.725800000000000e+00,7.147000000000000e-04,-3.886500000000000e-03,-1.186700000000000e-01,6.328700000000000e-02,1.388800000000000e-01,5.533300000000000e-02,-8.970100000000000e-03,1.073900000000000e-02,-5.465200000000000e-02,-1.066300000000000e+00,6.461300000000000e-01,1.276300000000000e+00,5.371899999999999e-01,-3.656300000000000e-02,1.111000000000000e-01,-4.999700000000000e-01,0.000000000000000e+00,0.000000000000000e+00,0.000000000000000e+00,0.000000000000000e+00,0.000000000000000e+00,0.000000000000000e+00,0.000000000000000e+00
2.200000000000000e-01,-1.509800000000000e+00,3.549200000000000e-01,1.130900000000000e-02,4.402700000000000e-03,-1.725900000000000e+00,8.277400000000000e-04,-4.458300000000000e-03,-1.295300000000000e-01,6.992700000000000e-02,1.519000000000000e-01,6.083500000000000e-02,-9.309200000000000e-03,1.188100000000000e-02,-5.975000000000000e-02,-1.105400000000000e+00,6.818200000000000e-01,1.327600000000000e+00,5.632700000000000e-01,-3.116400000000000e-02,1.173400000000000e-01,-5.196499999999999e-01,0.000000000000000e+00,0.000000000000000e+00,0.000000000000000e+00,0.000000000000000e+00,0.000000000000000e+00,0.000000000000000e+00,0.000000000000000e+00
2.300000000000000e-01,-1.511100000000000e+00,3.556500000000000e-01,1.289500000000000e-02,5.039700000000000e-03,-1.726000000000000e+00,9.525200000000000e-04,-5.082100000000000e-03,-1.407800000000000e-01,7.692400000000001e-02,1.654200000000000e-01,6.659800000000000e-02,-9.591400000000000e-03,1.308600000000000e-02,-6.504300000000000e-02,-1.143100000000000e+00,7.176399999999999e-01,1.377500000000000e+00,5.891999999999999e-01,-2.516900000000000e-02,1.235900000000000e-01,-5.387800000000000e-01,0.000000000000000e+00,0.000000000000000e+00,0.000000000000000e+00,0.000000000000000e+00,0.000000000000000e+00,0.000000000000000e+00,0.000000000000000e+00
2.400000000000000e-01,-1.512600000000000e+00,3.564600000000000e-01,1.461900000000000e-02,5.735600000000000e-03,-1.726100000000000e+00,1.089700000000000e-03,-5.759800000000000e-03,-1.523900000000000e-01,8.427999999999999e-02,1.794400000000000e-01,7.261900000000000e-02,-9.810700000000000e-03,1.435300000000000e-02,-7.052400000000000e-02,-1.179300000000000e+00,7.535700000000000e-01,1.426100000000000e+00,6.149600000000000e-01,-1.858900000000000e-02,1.298400000000000e-01,-5.573399999999999e-01,0.000000000000000e+00,0.000000000000000e+00,0.000000000000000e+00,0.000000000000000e+00,0.000000000000000e+00,0.000000000000000e+00,0.000000000000000e+00
2.500000000000000e-01,-1.514200000000000e+00,3.573400000000000e-01,1.648600000000000e-02,6.492900000000000e-03,-1.726200000000000e+00,1.239800000000000e-03,-6.493200000000000e-03,-1.643600000000000e-01,9.199599999999999e-02,1.939400000000000e-01,7.889599999999999e-02,-9.961299999999999e-03,1.568200000000000e-02,-7.618800000000001e-02,-1.214000000000000e+00,7.895600000000000e-01,1.473200000000000e+00,6.405300000000000e-01,-1.143600000000000e-02,1.360800000000000e-01,-5.753000000000000e-01,0.000000000000000e+00,0.000000000000000e+00,0.000000000000000e+00,0.000000000000000e+00,0.000000000000000e+00,0.000000000000000e+00,0.000000000000000e+00
2.600000000000000e-01,-1.515900000000000e+00,3.583000000000000e-01,1.850000000000000e-02,7.314300000000000e-03,-1.726300000000000e+00,1.403500000000000e-03,-7.284200000000000e-03,-1.766600000000000e-01,1.000700000000000e-01,2.089000000000000e-01,8.542900000000000e-02,-1.003800000000000e-02,1.707400000000000e-02,-8.202800000000000e-02,-1.247200000000000e+00,8.255600000000000e-01,1.518900000000000e+00,6.658700000000000e-01,-3.721600000000000e-03,1.423000000000000e-01,-5.926399999999999e-01,0.000000000000000e+00,0.000000000000000e+00,0.000000000000000e+00,0.000000000000000e+00,0.000000000000000e+00,0.000000000000000e+00,0.000000000000000e+00
2.700000000000000e-01,-1.517700000000000e+00,3.593400000000000e-01,2.066500000000000e-02,8.202299999999999e-03,-1.726400000000000e+00,1.581500000000000e-03,-8.134400000000000e-03,-1.893000000000000e-01,1.085100000000000e-01,2.243100000000000e-01,9.221300000000000e-02,-1.003400000000000e-02,1.852800000000000e-02,-8.803900000000001e-02,-1.278800000000000e+00,8.615400000000000e-01,1.563100000000000e+00,6.909700000000000e-01,4.539700000000000e-03,1.484800000000000e-01,-6.093499999999999e-01,0.000000000000000e+00,0.000000000000000e+00,0.000000000000000e+00,0.000000000000000e+00,0.000000000000000e+00,0.000000000000000e+00,0.000000000000000e+00
2.800000000000000e-01,-1.519600000000000e+00,3.604700000000000e-01,2.298700000000000e-02,9.159400000000000e-03,-1.726500000000000e+00,1.774300000000000e-03,-9.045500000000000e-03,-2.022300000000000e-01,1.173000000000000e-01,2.401600000000000e-01,9.924700000000000e-02,-9.944900000000000e-03,2.004400000000000e-02,-9.421300000000001e-02,-1.308800000000000e+00,8.974500000000000e-01,1.605700000000000e+00,7.158000000000000e-01,1.333400000000000e-02,1.546200000000000e-01,-6.254000000000000e-01,0.000000000000000e+00,0.000000000000000e+00,0.000000000000000e+00,0.000000000000000e+00,0.000000000000000e+00,0.000000000000000e+00,0.000000000000000e+00
2.900000000000000e-01,-1.521700000000000e+00,3.616900000000000e-01,2.547000000000000e-02,1.018800000000000e-02,-1.726600000000000e+00,1.982600000000000e-03,-1.001900000000000e-02,-2.154700000000000e-01,1.264600000000000e-01,2.564200000000000e-01,1.065300000000000e-01,-9.765500000000000e-03,2.162000000000000e-02,-1.005400000000000e-01,-1.337200000000000e+00,9.332500000000000e-01,1.646800000000000e+00,7.403400000000000e-01,2.264800000000000e-02,1.607000000000000e-01,-6.407900000000000e-01,0.000000000000000e+00,0.000000000000000e+00,0.000000000000000e+00,0.000000000000000e+00,0.000000000000000e+00,0.000000000000000e+00,0.000000000000000e+00
3.000000000000000e-01,-1.524000000000000e+00,3.630000000000000e-01,2.811700000000000e-02,1.129100000000000e-02,-1.726700000000000e+00,2.206900000000000e-03,-1.105700000000000e-02,-2.289700000000000e-01,1.359700000000000e-01,2.730900000000000e-01,1.140500000000000e-01,-9.490300000000000e-03,2.325700000000000e-02,-1.070300000000000e-01,-1.363900000000000e+00,9.688900000000000e-01,1.686100000000000e+00,7.645600000000000e-01,3.246500000000000e-02,1.667000000000000e-01,-6.554900000000000e-01,0.000000000000000e+00,0.000000000000000e+00,0.000000000000000e+00,0.000000000000000e+00,0.000000000000000e+00,0.000000000000000e+00,0.000000000000000e+00
3.100000000000000e-01,-1.526300000000000e+00,3.644100000000000e-01,3.093300000000000e-02,1.247000000000000e-02,-1.726800000000000e+00,2.447900000000000e-03,-1.216000000000000e-02,-2.427400000000000e-01,1.458300000000000e-01,2.901400000000000e-01,1.218200000000000e-01,-9.114499999999999e-03,2.495400000000000e-02,-1.136500000000000e-01,-1.388900000000000e+00,1.004300000000000e+00,1.723800000000000e+00,7.884300000000000e-01,4.277100000000000e-02,1.726300000000000e-01,-6.694800000000000e-01,0.000000000000000e+00,0.000000000000000e+00,0.000000000000000e+00,0.000000000000000e+00,0.000000000000000e+00,0.000000000000000e+00,0.000000000000000e+00
3.200000000000000e-01,-1.528800000000000e+00,3.659200000000000e-01,3.392100000000000e-02,1.372800000000000e-02,-1.726900000000000e+00,2.706200000000000e-03,-1.333000000000000e-02,-2.567400000000000e-01,1.560500000000000e-01,3.075600000000000e-01,1.298200000000000e-01,-8.633300000000000e-03,2.671000000000000e-02,-1.204100000000000e-01,-1.412200000000000e+00,1.039500000000000e+00,1.759800000000000e+00,8.119400000000000e-01,5.354800000000000e-02,1.784700000000000e-01,-6.827500000000000e-01,0.000000000000000e+00,0.000000000000000e+00,0.000000000000000e+00,0.000000000000000e+00,0.000000000000000e+00,0.000000000000000e+00,0.000000000000000e+00
3.300000000000000e-01,-1.531400000000000e+00,3.675300000000000e-01,3.708500000000000e-02,1.506700000000000e-02,-1.727000000000000e+00,2.982300000000000e-03,-1.456900000000000e-02,-2.709800000000000e-01,1.666200000000000e-01,3.253300000000000e-01,1.380600000000000e-01,-8.042000000000001e-03,2.852300000000000e-02,-1.273000000000000e-01,-1.433800000000000e+00,1.074500000000000e+00,1.794000000000000e+00,8.350600000000000e-01,6.478000000000000e-02,1.841900000000000e-01,-6.952900000000000e-01,0.000000000000000e+00,0.000000000000000e+00,0.000000000000000e+00,0.000000000000000e+00,0.000000000000000e+00,0.000000000000000e+00,0.000000000000000e+00
3.400000000000000e-01,-1.534200000000000e+00,3.692500000000000e-01,4.042900000000000e-02,1.649000000000000e-02,-1.727000000000000e+00,3.276800000000000e-03,-1.587700000000000e-02,-2.854100000000000e-01,1.775400000000000e-01,3.434300000000000e-01,1.465200000000000e-01,-7.336200000000000e-03,3.039300000000000e-02,-1.343200000000000e-01,-1.453600000000000e+00,1.109100000000000e+00,1.826400000000000e+00,8.577700000000000e-01,7.645100000000001e-02,1.898000000000000e-01,-7.070900000000000e-01,0.000000000000000e+00,0.000000000000000e+00,0.000000000000000e+00,0.000000000000000e+00,0.000000000000000e+00,0.000000000000000e+00,0.000000000000000e+00
3.500000000000000e-01,-1.537200000000000e+00,3.710800000000000e-01,4.395500000000000e-02,1.799800000000000e-02,-1.727100000000000e+00,3.590400000000000e-03,-1.725600000000000e-02,-3.000400000000000e-01,1.888000000000000e-01,3.618500000000000e-01,1.552100000000000e-01,-6.511600000000000e-03,3.231900000000000e-02,-1.414400000000000e-01,-1.471600000000000e+00,1.143300000000000e+00,1.856900000000000e+00,8.800400000000000e-01,8.854099999999999e-02,1.952800000000000e-01,-7.181200000000000e-01,0.000000000000000e+00,0.000000000000000e+00,0.000000000000000e+00,0.000000000000000e+00,0.000000000000000e+00,0.000000000000000e+00,0.000000000000000e+00
3.600000000000000e-01,-1.540200000000000e+00,3.730300000000000e-01,4.766700000000000e-02,1.959500000000000e-02,-1.727200000000000e+00,3.923400000000000e-03,-1.870600000000000e-02,-3.148400000000000e-01,2.004100000000000e-01,3.805700000000000e-01,1.641200000000000e-01,-5.564100000000000e-03,3.429800000000000e-02,-1.486800000000000e-01,-1.487800000000000e+00,1.177100000000000e+00,1.885600000000000e+00,9.018500000000000e-01,1.010300000000000e-01,2.006200000000000e-01,-7.283700000000000e-01,0.000000000000000e+00,0.000000000000000e+00,0.000000000000000e+00,0.000000000000000e+00,0.000000000000000e+00,0.000000000000000e+00,0.000000000000000e+00
3.700000000000000e-01,-1.543500000000000e+00,3.750900000000000e-01,5.156700000000000e-02,2.128100000000000e-02,-1.727200000000000e+00,4.276500000000000e-03,-2.022900000000000e-02,-3.297900000000000e-01,2.123400000000000e-01,3.995600000000000e-01,1.732500000000000e-01,-4.489700000000000e-03,3.633100000000000e-02,-1.560100000000000e-01,-1.502100000000000e+00,1.210500000000000e+00,1.912400000000000e+00,9.231800000000000e-01,1.139100000000000e-01,2.058000000000000e-01,-7.378400000000001e-01,0.000000000000000e+00,0.000000000000000e+00,0.000000000000000e+00,0.000000000000000e+00,0.000000000000000e+00,0.000000000000000e+00,0.000000000000000e+00
3.800000000000000e-01,-1.546800000000000e+00,3.772800000000000e-01,5.565900000000000e-02,2.306000000000000e-02,-1.727200000000000e+00,4.650200000000000e-03,-2.182700000000000e-02,-3.448800000000000e-01,2.246100000000000e-01,4.188100000000000e-01,1.825800000000000e-01,-3.284700000000000e-03,3.841400000000000e-02,-1.634300000000000e-01,-1.514700000000000e+00,1.243400000000000e+00,1.937200000000000e+00,9.440100000000000e-01,1.271400000000000e-01,2.108200000000000e-01,-7.465100000000000e-01,0.000000000000000e+00,0.000000000000000e+00,0.000000000000000e+00,0.000000000000000e+00,0.000000000000000e+00,0.000000000000000e+00,0.000000000000000e+00
3.900000000000000e-01,-1.550400000000000e+00,3.795800000000000e-01,5.994400000000000e-02,2.493400000000000e-02,-1.727300000000000e+00,5.044900000000000e-03,-2.349800000000000e-02,-3.600800000000000e-01,2.372100000000000e-01,4.382900000000000e-01,1.921200000000000e-01,-1.945700000000000e-03,4.054700000000000e-02,-1.709400000000000e-01,-1.525300000000000e+00,1.275700000000000e+00,1.960100000000000e+00,9.643200000000000e-01,1.407300000000000e-01,2.156600000000000e-01,-7.543800000000001e-01,0.000000000000000e+00,0.000000000000000e+00,0.000000000000000e+00,0.000000000000000e+00,0.000000000000000e+00,0.000000000000000e+00,0.000000000000000e+00
4.000000000000000e-01,-1.554000000000000e+00,3.820200000000000e-01,6.442500000000000e-02,2.690400000000000e-02,-1.727300000000000e+00,5.461300000000000e-03,-2.524600000000000e-02,-3.753800000000000e-01,2.501300000000000e-01,4.580000000000000e-01,2.018700000000000e-01,-4.691300000000000e-04,4.272700000000000e-02,-1.785200000000000e-01,-1.534100000000000e+00,1.307500000000000e+00,1.981000000000000e+00,9.840800000000000e-01,1.546300000000000e-01,2.203100000000000e-01,-7.614300000000001e-01,0.000000000000000e+00,0.000000000000000e+00,0.000000000000000e+00,0.000000000000000e+00,0.000000000000000e+00,0.000000000000000e+00,0.000000000000000e+00
4.100000000000000e-01,-1.557900000000000e+00,3.845900000000000e-01,6.910500000000000e-02,2.897200000000000e-02,-1.727300000000000e+00,5.899600000000000e-03,-2.706900000000000e-02,-3.907500000000000e-01,2.633600000000000e-01,4.779100000000000e-01,2.118000000000000e-01,1.148000000000000e-03,4.495200000000000e-02,-1.861600000000000e-01,-1.541100000000000e+00,1.338600000000000e+00,1.999900000000000e+00,1.003300000000000e+00,1.688400000000000e-01,2.247600000000000e-01,-7.676500000000001e-01,0.000000000000000e+00,0.000000000000000e+00,0.000000000000000e+00,0.000000000000000e+00,0.000000000000000e+00,0.000000000000000e+00,0.000000000000000e+00
4.200000000000000e-01,-1.561800000000000e+00,3.872900000000000e-01,7.398399999999999e-02,3.114000000000000e-02,-1.727300000000000e+00,6.360500000000000e-03,-2.896900000000000e-02,-4.061900000000000e-01,2.769000000000000e-01,4.979900000000000e-01,2.219300000000000e-01,2.908700000000000e-03,4.722100000000000e-02,-1.938700000000000e-01,-1.546100000000000e+00,1.369100000000000e+00,2.016800000000000e+00,1.021900000000000e+00,1.833400000000000e-01,2.290000000000000e-01,-7.730399999999999e-01,0.000000000000000e+00,0.000000000000000e+00,0.000000000000000e+00,0.000000000000000e+00,0.000000000000000e+00,0.000000000000000e+00,0.000000000000000e+00
4.300000000000000e-01,-1.566000000000000e+00,3.901300000000000e-01,7.906500000000000e-02,3.341100000000000e-02,-1.727200000000000e+00,6.844200000000000e-03,-3.094600000000000e-02,-4.216700000000000e-01,2.907400000000000e-01,5.182400000000000e-01,2.322400000000000e-01,4.815600000000000e-03,4.953100000000000e-02,-2.016200000000000e-01,-1.549300000000000e+00,1.398900000000000e+00,2.031600000000000e+00,1.039900000000000e+00,1.980900000000000e-01,2.330100000000000e-01,-7.775900000000000e-01,0.000000000000000e+00,0.000000000000000e+00,0.000000000000000e+00,0.000000000000000e+00,0.000000000000000e+00,0.000000000000000e+00,0.000000000000000e+00
4.400000000000000e-01,-1.570300000000000e+00,3.931000000000000e-01,8.434899999999999e-02,3.578600000000000e-02,-1.727200000000000e+00,7.351200000000000e-03,-3.300100000000000e-02,-4.371700000000000e-01,3.048700000000000e-01,5.386200000000000e-01,2.427300000000000e-01,6.871300000000000e-03,5.188000000000000e-02,-2.094100000000000e-01,-1.550500000000000e+00,1.428000000000000e+00,2.044400000000000e+00,1.057300000000000e+00,2.130800000000000e-01,2.367800000000000e-01,-7.812900000000000e-01,0.000000000000000e+00,0.000000000000000e+00,0.000000000000000e+00,0.000000000000000e+00,0.000000000000000e+00,0.000000000000000e+00,0.000000000000000e+00
4.500000000000000e-01,-1.574700000000000e+00,3.962200000000000e-01,8.983800000000000e-02,3.826600000000000e-02,-1.727100000000000e+00,7.881900000000001e-03,-3.513500000000000e-02,-4.526700000000000e-01,3.192900000000000e-01,5.591200000000000e-01,2.533800000000000e-01,9.077999999999999e-03,5.426600000000000e-02,-2.172400000000000e-01,-1.549900000000000e+00,1.456300000000000e+00,2.055000000000000e+00,1.074000000000000e+00,2.283000000000000e-01,2.403100000000000e-01,-7.841500000000000e-01,0.000000000000000e+00,0.000000000000000e+00,0.000000000000000e+00,0.000000000000000e+00,0.000000000000000e+00,0.000000000000000e+00,0.000000000000000e+00
4.600000000000000e-01,-1.579300000000000e+00,3.994900000000000e-01,9.553200000000001e-02,4.085400000000000e-02,-1.727000000000000e+00,8.436600000000001e-03,-3.734600000000000e-02,-4.681600000000000e-01,3.340000000000000e-01,5.797099999999999e-01,2.642000000000000e-01,1.143800000000000e-02,5.668600000000000e-02,-2.250900000000000e-01,-1.547300000000000e+00,1.483800000000000e+00,2.063600000000000e+00,1.090100000000000e+00,2.437100000000000e-01,2.435800000000000e-01,-7.861399999999999e-01,0.000000000000000e+00,0.000000000000000e+00,0.000000000000000e+00,0.000000000000000e+00,0.000000000000000e+00,0.000000000000000e+00,0.000000000000000e+00
4.700000000000000e-01,-1.584100000000000e+00,4.029100000000000e-01,1.014300000000000e-01,4.355100000000000e-02,-1.726900000000000e+00,9.015700000000000e-03,-3.963700000000000e-02,-4.836100000000000e-01,3.489700000000000e-01,6.003800000000000e-01,2.751800000000000e-01,1.395300000000000e-02,5.913700000000000e-02,-2.329600000000000e-01,-1.542900000000000e+00,1.510500000000000e+00,2.070100000000000e+00,1.105500000000000e+00,2.592900000000000e-01,2.465800000000000e-01,-7.872800000000000e-01,0.000000000000000e+00,0.000000000000000e+00,0.000000000000000e+00,0.000000000000000e+00,0.000000000000000e+00,0.000000000000000e+00,0.000000000000000e+00
4.800000000000000e-01,-1.589000000000000e+00,4.064700000000000e-01,1.075400000000000e-01,4.635800000000000e-02,-1.726700000000000e+00,9.619500000000000e-03,-4.200600000000000e-02,-4.990100000000000e-01,3.642000000000000e-01,6.211100000000001e-01,2.863100000000000e-01,1.662400000000000e-02,6.161600000000000e-02,-2.408400000000000e-01,-1.536500000000000e+00,1.536300000000000e+00,2.074500000000000e+00,1.120200000000000e+00,2.750300000000000e-01,2.493000000000000e-01,-7.875600000000000e-01,0.000000000000000e+00,0.000000000000000e+00,0.000000000000000e+00,0.000000000000000e+00,0.000000000000000e+00,0.000000000000000e+00,0.000000000000000e+00
4.900000000000000e-01,-1.594100000000000e+00,4.101900000000000e-01,1.138500000000000e-01,4.927700000000000e-02,-1.726500000000000e+00,1.024800000000000e-02,-4.445300000000000e-02,-5.143400000000000e-01,3.796900000000000e-01,6.418700000000001e-01,2.975800000000000e-01,1.945400000000000e-02,6.412200000000000e-02,-2.487100000000000e-01,-1.528300000000000e+00,1.561100000000000e+00,2.076700000000000e+00,1.134200000000000e+00,2.909000000000000e-01,2.517300000000000e-01,-7.869699999999999e-01,0.000000000000000e+00,0.000000000000000e+00,0.000000000000000e+00,0.000000000000000e+00,0.000000000000000e+00,0.000000000000000e+00,0.000000000000000e+00
5.000000000000000e-01,-1.599300000000000e+00,4.140700000000000e-01,1.203800000000000e-01,5.231000000000000e-02,-1.726300000000000e+00,1.090200000000000e-02,-4.698000000000000e-02,-5.295700000000000e-01,3.954200000000000e-01,6.626400000000000e-01,3.089900000000000e-01,2.244300000000000e-02,6.665000000000000e-02,-2.565700000000000e-01,-1.518100000000000e+00,1.585000000000000e+00,2.076900000000000e+00,1.147400000000000e+00,3.068700000000000e-01,2.538600000000000e-01,-7.855200000000000e-01,0.000000000000000e+00,0.000000000000000e+00,0.000000000000000e+00,0.000000000000000e+00,0.000000000000000e+00,0.000000000000000e+00,0.000000000000000e+00
5.100000000000000e-01,-1.604700000000000e+00,4.181000000000000e-01,1.271100000000000e-01,5.545700000000000e-02,-1.726100000000000e+00,1.158100000000000e-02,-4.958500000000000e-02,-5.446900000000000e-01,4.113900000000000e-01,6.834000000000000e-01,3.205300000000000e-01,2.559200000000000e-02,6.919800000000000e-02,-2.644200000000000e-01,-1.506100000000000e+00,1.608000000000000e+00,2.074900000000000e+00,1.159900000000000e+00,3.229300000000000e-01,2.556800000000000e-01,-7.832100000000000e-01,0.000000000000000e+00,0.000000000000000e+00,0.000000000000000e+00,0.000000000000000e+00,0.000000000000000e+00,0.000000000000000e+00,0.000000000000000e+00
5.200000000000000e-01,-1.610200000000000e+00,4.222900000000000e-01,1.340500000000000e-01,5.872100000000000e-02,-1.725800000000000e+00,1.228600000000000e-02,-5.226800000000000e-02,-5.596900000000000e-01,4.275800000000000e-01,7.041300000000000e-01,3.321900000000000e-01,2.890100000000000e-02,7.176200000000001e-02,-2.722400000000000e-01,-1.492300000000000e+00,1.629900000000000e+00,2.070700000000000e+00,1.171700000000000e+00,3.390500000000000e-01,2.571800000000000e-01,-7.800300000000000e-01,0.000000000000000e+00,0.000000000000000e+00,0.000000000000000e+00,0.000000000000000e+00,0.000000000000000e+00,0.000000000000000e+00,0.000000000000000e+00
5.300000000000000e-01,-1.615900000000000e+00,4.266500000000000e-01,1.411900000000000e-01,6.210200000000000e-02,-1.725500000000000e+00,1.301700000000000e-02,-5.502900000000000e-02,-5.745300000000000e-01,4.439800000000000e-01,7.248000000000000e-01,3.439600000000000e-01,3.237300000000000e-02,7.434000000000000e-02,-2.800200000000000e-01,-1.476500000000000e+00,1.650800000000000e+00,2.064500000000000e+00,1.182700000000000e+00,3.552100000000000e-01,2.583500000000000e-01,-7.759900000000000e-01,0.000000000000000e+00,0.000000000000000e+00,0.000000000000000e+00,0.000000000000000e+00,0.000000000000000e+00,0.000000000000000e+00,0.000000000000000e+00
5.400000000000000e-01,-1.621700000000000e+00,4.311700000000000e-01,1.485400000000000e-01,6.560000000000001e-02,-1.725200000000000e+00,1.377300000000000e-02,-5.786800000000000e-02,-5.892100000000000e-01,4.605900000000000e-01,7.454100000000000e-01,3.558400000000000e-01,3.600600000000000e-02,7.692800000000000e-02,-2.877500000000000e-01,-1.458900000000000e+00,1.670600000000000e+00,2.056100000000000e+00,1.192900000000000e+00,3.713900000000000e-01,2.591900000000000e-01,-7.710900000000001e-01,0.000000000000000e+00,0.000000000000000e+00,0.000000000000000e+00,0.000000000000000e+00,0.000000000000000e+00,0.000000000000000e+00,0.000000000000000e+00
5.500000000000000e-01,-1.627600000000000e+00,4.358600000000000e-01,1.561000000000000e-01,6.921900000000000e-02,-1.724800000000000e+00,1.455500000000000e-02,-6.078400000000000e-02,-6.037100000000000e-01,4.773900000000000e-01,7.659200000000000e-01,3.678100000000000e-01,3.980000000000000e-02,7.952300000000000e-02,-2.954400000000000e-01,-1.439500000000000e+00,1.689300000000000e+00,2.045600000000000e+00,1.202300000000000e+00,3.875600000000000e-01,2.596800000000000e-01,-7.653400000000000e-01,0.000000000000000e+00,0.000000000000000e+00,0.000000000000000e+00,0.000000000000000e+00,0.000000000000000e+00,0.000000000000000e+00,0.000000000000000e+00
5.600000000000001e-01,-1.633700000000000e+00,4.407200000000000e-01,1.638600000000000e-01,7.295699999999999e-02,-1.724400000000000e+00,1.536300000000000e-02,-6.377700000000000e-02,-6.180000000000000e-01,4.943700000000000e-01,7.863100000000000e-01,3.798800000000000e-01,4.375700000000000e-02,8.212100000000000e-02,-3.030600000000000e-01,-1.418300000000000e+00,1.706800000000000e+00,2.033000000000000e+00,1.210900000000000e+00,4.036900000000000e-01,2.598100000000000e-01,-7.587300000000000e-01,0.000000000000000e+00,0.000000000000000e+00,0.000000000000000e+00,0.000000000000000e+00,0.000000000000000e+00,0.000000000000000e+00,0.000000000000000e+00
5.700000000000000e-01,-1.640000000000000e+00,4.457500000000000e-01,1.718200000000000e-01,7.681700000000000e-02,-1.723900000000000e+00,1.619800000000000e-02,-6.684500000000000e-02,-6.320700000000000e-01,5.115200000000000e-01,8.065700000000000e-01,3.920300000000000e-01,4.787400000000000e-02,8.471800000000000e-02,-3.106100000000000e-01,-1.395300000000000e+00,1.723200000000000e+00,2.018200000000000e+00,1.218700000000000e+00,4.197800000000000e-01,2.595800000000000e-01,-7.512799999999999e-01,0.000000000000000e+00,0.000000000000000e+00,0.000000000000000e+00,0.000000000000000e+00,0.000000000000000e+00,0.000000000000000e+00,0.000000000000000e+00
5.800000000000000e-01,-1.646400000000000e+00,4.509500000000000e-01,1.799900000000000e-01,8.079799999999999e-02,-1.723400000000000e+00,1.705800000000000e-02,-6.998900000000000e-02,-6.459000000000000e-01,5.288300000000000e-01,8.266700000000000e-01,4.042500000000000e-01,5.215200000000000e-02,8.731100000000000e-02,-3.180800000000000e-01,-1.370500000000000e+00,1.738400000000000e+00,2.001400000000000e+00,1.225600000000000e+00,4.357800000000000e-01,2.589800000000000e-01,-7.429900000000000e-01,0.000000000000000e+00,0.000000000000000e+00,0.000000000000000e+00,0.000000000000000e+00,0.000000000000000e+00,0.000000000000000e+00,0.000000000000000e+00
5.900000000000000e-01,-1.652900000000000e+00,4.563300000000000e-01,1.883600000000000e-01,8.490200000000001e-02,-1.722900000000000e+00,1.794400000000000e-02,-7.320699999999999e-02,-6.594700000000000e-01,5.462900000000001e-01,8.465900000000000e-01,4.165400000000000e-01,5.658900000000000e-02,8.989600000000000e-02,-3.254600000000000e-01,-1.344000000000000e+00,1.752400000000000e+00,1.982600000000000e+00,1.231700000000000e+00,4.516900000000000e-01,2.580100000000000e-01,-7.338700000000000e-01,0.000000000000000e+00,0.000000000000000e+00,0.000000000000000e+00,0.000000000000000e+00,0.000000000000000e+00,0.000000000000000e+00,0.000000000000000e+00
6.000000000000000e-01,-1.659600000000000e+00,4.618800000000000e-01,1.969200000000000e-01,8.912900000000000e-02,-1.722300000000000e+00,1.885600000000000e-02,-7.649800000000000e-02,-6.727700000000000e-01,5.638700000000000e-01,8.663100000000000e-01,4.288800000000000e-01,6.118500000000000e-02,9.247000000000000e-02,-3.327500000000000e-01,-1.315800000000000e+00,1.765100000000000e+00,1.961600000000000e+00,1.237000000000000e+00,4.674800000000000e-01,2.566500000000000e-01,-7.239300000000000e-01,0.000000000000000e+00,0.000000000000000e+00,0.000000000000000e+00,0.000000000000000e+00,0.000000000000000e+00,0.000000000000000e+00,0.000000000000000e+00
6.100000000000000e-01,-1.666400000000000e+00,4.676100000000000e-01,2.056800000000000e-01,9.347999999999999e-02,-1.721600000000000e+00,1.979300000000000e-02,-7.986100000000000e-02,-6.857799999999999e-01,5.815800000000000e-01,8.858200000000001e-01,4.412800000000000e-01,6.593800000000000e-02,9.502800000000000e-02,-3.399400000000000e-01,-1.285800000000000e+00,1.776600000000000e+00,1.938600000000000e+00,1.241400000000000e+00,4.831200000000000e-01,2.549000000000000e-01,-7.131600000000000e-01,0.000000000000000e+00,0.000000000000000e+00,0.000000000000000e+00,0.000000000000000e+00,0.000000000000000e+00,0.000000000000000e+00,0.000000000000000e+00
6.200000000000000e-01,-1.673300000000000e+00,4.735100000000000e-01,2.146400000000000e-01,9.795500000000000e-02,-1.720900000000000e+00,2.075600000000000e-02,-8.329600000000000e-02,-6.984800000000000e-01,5.994000000000000e-01,9.050800000000000e-01,4.537100000000000e-01,7.084699999999999e-02,9.756700000000000e-02,-3.470100000000000e-01,-1.254200000000000e+00,1.786800000000000e+00,1.913600000000000e+00,1.244900000000000e+00,4.985900000000000e-01,2.527500000000000e-01,-7.016000000000000e-01,0.000000000000000e+00,0.000000000000000e+00,0.000000000000000e+00,0.000000000000000e+00,0.000000000000000e+00,0.000000000000000e+00,0.000000000000000e+00
6.300000000000000e-01,-1.680300000000000e+00,4.796000000000000e-01,2.237800000000000e-01,1.025500000000000e-01,-1.720200000000000e+00,2.174400000000000e-02,-8.680100000000000e-02,-7.108600000000000e-01,6.173200000000000e-01,9.240800000000000e-01,4.661700000000000e-01,7.591000000000001e-02,1.000800000000000e-01,-3.539700000000000e-01,-1.221000000000000e+00,1.795700000000000e+00,1.886600000000000e+00,1.247600000000000e+00,5.138700000000000e-01,2.502000000000000e-01,-6.892300000000000e-01,0.000000000000000e+00,0.000000000000000e+00,0.000000000000000e+00,0.000000000000000e+00,0.000000000000000e+00,0.000000000000000e+00,0.000000000000000e+00
6.400000000000000e-01,-1.687500000000000e+00,4.858600000000000e-01,2.331200000000000e-01,1.072800000000000e-01,-1.719400000000000e+00,2.275800000000000e-02,-9.037500000000000e-02,-7.229000000000000e-01,6.353100000000000e-01,9.428100000000000e-01,4.786600000000000e-01,8.112400000000000e-02,1.025700000000000e-01,-3.608000000000000e-01,-1.186100000000000e+00,1.803300000000000e+00,1.857600000000000e+00,1.249400000000000e+00,5.289400000000000e-01,2.472500000000000e-01,-6.760800000000000e-01,0.000000000000000e+00,0.000000000000000e+00,0.000000000000000e+00,0.000000000000000e+00,0.000000000000000e+00,0.000000000000000e+00,0.000000000000000e+00
6.500000000000000e-01,-1.694800000000000e+00,4.923000000000000e-01,2.426400000000000e-01,1.121300000000000e-01,-1.718600000000000e+00,2.379600000000000e-02,-9.401700000000000e-02,-7.345800000000000e-01,6.533800000000000e-01,9.612300000000000e-01,4.911600000000000e-01,8.648800000000000e-02,1.050300000000000e-01,-3.674900000000000e-01,-1.149700000000000e+00,1.809500000000000e+00,1.826700000000000e+00,1.250300000000000e+00,5.437800000000000e-01,2.438800000000000e-01,-6.621600000000000e-01,0.000000000000000e+00,0.000000000000000e+00,0.000000000000000e+00,0.000000000000000e+00,0.000000000000000e+00,0.000000000000000e+00,0.000000000000000e+00
6.600000000000000e-01,-1.702200000000000e+00,4.989300000000000e-01,2.523400000000000e-01,1.171000000000000e-01,-1.717700000000000e+00,2.485800000000000e-02,-9.772400000000001e-02,-7.458800000000000e-01,6.715000000000000e-01,9.793300000000000e-01,5.036600000000000e-01,9.199900000000000e-02,1.074500000000000e-01,-3.740400000000000e-01,-1.111700000000000e+00,1.814400000000000e+00,1.793900000000000e+00,1.250300000000000e+00,5.583700000000000e-01,2.401000000000000e-01,-6.474800000000001e-01,0.000000000000000e+00,0.000000000000000e+00,0.000000000000000e+00,0.000000000000000e+00,0.000000000000000e+00,0.000000000000000e+00,0.000000000000000e+00
6.700000000000000e-01,-1.709700000000000e+00,5.057300000000000e-01,2.622200000000000e-01,1.222000000000000e-01,-1.716800000000000e+00,2.594400000000000e-02,-1.015000000000000e-01,-7.568100000000000e-01,6.896600000000001e-01,9.971000000000000e-01,5.161600000000000e-01,9.765400000000000e-02,1.098300000000000e-01,-3.804400000000000e-01,-1.072300000000000e+00,1.817900000000000e+00,1.759100000000000e+00,1.249400000000000e+00,5.726700000000000e-01,2.359000000000000e-01,-6.320500000000000e-01,0.000000000000000e+00,0.000000000000000e+00,0.000000000000000e+00,0.000000000000000e+00,0.000000000000000e+00,0.000000000000000e+00,0.000000000000000e+00
6.800000000000000e-01,-1.717300000000000e+00,5.127200000000000e-01,2.722800000000000e-01,1.274200000000000e-01,-1.715700000000000e+00,2.705400000000000e-02,-1.053300000000000e-01,-7.673300000000000e-01,7.078500000000000e-01,1.014500000000000e+00,5.286500000000000e-01,1.034500000000000e-01,1.121600000000000e-01,-3.866800000000000e-01,-1.031400000000000e+00,1.820000000000000e+00,1.722500000000000e+00,1.247700000000000e+00,5.866800000000000e-01,2.312700000000000e-01,-6.158900000000000e-01,0.000000000000000e+00,0.000000000000000e+00,0.000000000000000e+00,0.000000000000000e+00,0.000000000000000e+00,0.000000000000000e+00,0.000000000000000e+00
6.899999999999999e-01,-1.725100000000000e+00,5.198900000000000e-01,2.825100000000000e-01,1.327700000000000e-01,-1.714700000000000e+00,2.818700000000000e-02,-1.092300000000000e-01,-7.774300000000000e-01,7.260600000000000e-01,1.031500000000000e+00,5.411100000000000e-01,1.093900000000000e-01,1.144500000000000e-01,-3.927500000000000e-01,-9.890099999999999e-01,1.820700000000000e+00,1.684100000000000e+00,1.245000000000000e+00,6.003700000000000e-01,2.262300000000000e-01,-5.990100000000000e-01,0.000000000000000e+00,0.000000000000000e+00,0.000000000000000e+00,0.000000000000000e+00,0.000000000000000e+00,0.000000000000000e+00,0.000000000000000e+00
7.000000000000000e-01,-1.732900000000000e+00,5.272400000000000e-01,2.929100000000000e-01,1.382500000000000e-01,-1.713600000000000e+00,2.934300000000000e-02,-1.131900000000000e-01,-7.871000000000000e-01,7.442600000000000e-01,1.048200000000000e+00,5.535400000000000e-01,1.154600000000000e-01,1.166900000000000e-01,-3.986500000000000e-01,-9.452700000000001e-01,1.820000000000000e+00,1.643900000000000e+00,1.241500000000000e+00,6.137200000000000e-01,2.207500000000000e-01,-5.814300000000000e-01,0.000000000000000e+00,0.000000000000000e+00,0.000000000000000e+00,0.000000000000000e+00,0.000000000000000e+00,0.000000000000000e+00,0.000000000000000e+00
7.100000000000000e-01,-1.740800000000000e+00,5.347700000000000e-01,3.034700000000000e-01,1.438400000000000e-01,-1.712400000000000e+00,3.052100000000000e-02,-1.172000000000000e-01,-7.963300000000000e-01,7.624500000000000e-01,1.064400000000000e+00,5.659400000000000e-01,1.216600000000000e-01,1.188600000000000e-01,-4.043800000000000e-01,-9.001900000000000e-01,1.817800000000000e+00,1.601900000000000e+00,1.237000000000000e+00,6.267100000000000e-01,2.148500000000000e-01,-5.631600000000000e-01,0.000000000000000e+00,0.000000000000000e+00,0.000000000000000e+00,0.000000000000000e+00,0.000000000000000e+00,0.000000000000000e+00,0.000000000000000e+00
7.200000000000000e-01,-1.748800000000000e+00,5.424900000000000e-01,3.142000000000000e-01,1.495700000000000e-01,-1.711100000000000e+00,3.172000000000000e-02,-1.212700000000000e-01,-8.051000000000000e-01,7.806100000000000e-01,1.080200000000000e+00,5.782800000000000e-01,1.279900000000000e-01,1.209800000000000e-01,-4.099100000000000e-01,-8.538200000000000e-01,1.814300000000000e+00,1.558200000000000e+00,1.231600000000000e+00,6.393300000000000e-01,2.085100000000000e-01,-5.442300000000000e-01,0.000000000000000e+00,0.000000000000000e+00,0.000000000000000e+00,0.000000000000000e+00,0.000000000000000e+00,0.000000000000000e+00,0.000000000000000e+00
7.300000000000000e-01,-1.756900000000000e+00,5.503900000000000e-01,3.250800000000000e-01,1.554100000000000e-01,-1.709800000000000e+00,3.294000000000000e-02,-1.254000000000000e-01,-8.134000000000000e-01,7.987300000000001e-01,1.095600000000000e+00,5.905700000000000e-01,1.344500000000000e-01,1.230300000000000e-01,-4.152600000000000e-01,-8.061800000000000e-01,1.809200000000000e+00,1.512800000000000e+00,1.225400000000000e+00,6.515500000000000e-01,2.017500000000000e-01,-5.246499999999999e-01,0.000000000000000e+00,0.000000000000000e+00,0.000000000000000e+00,0.000000000000000e+00,0.000000000000000e+00,0.000000000000000e+00,0.000000000000000e+00
7.400000000000000e-01,-1.765100000000000e+00,5.584600000000000e-01,3.361100000000000e-01,1.613800000000000e-01,-1.708400000000000e+00,3.418100000000000e-02,-1.295800000000000e-01,-8.212200000000000e-01,8.167900000000000e-01,1.110500000000000e+00,6.027900000000000e-01,1.410200000000000e-01,1.250100000000000e-01,-4.204100000000000e-01,-7.573400000000000e-01,1.802800000000000e+00,1.465800000000000e+00,1.218300000000000e+00,6.633500000000000e-01,1.945500000000000e-01,-5.044300000000000e-01,0.000000000000000e+00,0.000000000000000e+00,0.000000000000000e+00,0.000000000000000e+00,0.000000000000000e+00,0.000000000000000e+00,0.000000000000000e+00
7.500000000000000e-01,-1.773300000000000e+00,5.667200000000000e-01,3.472900000000000e-01,1.674700000000000e-01,-1.707000000000000e+00,3.544000000000000e-02,-1.338100000000000e-01,-8.285400000000001e-01,8.347800000000000e-01,1.124900000000000e+00,6.149300000000000e-01,1.477100000000000e-01,1.269200000000000e-01,-4.253500000000000e-01,-7.073300000000000e-01,1.794800000000000e+00,1.417200000000000e+00,1.210200000000000e+00,6.747100000000000e-01,1.869200000000000e-01,-4.836100000000000e-01,0.000000000000000e+00,0.000000000000000e+00,0.000000000000000e+00,0.000000000000000e+00,0.000000000000000e+00,0.000000000000000e+00,0.000000000000000e+00
7.600000000000000e-01,-1.781600000000000e+00,5.751600000000000e-01,3.586000000000000e-01,1.736700000000000e-01,-1.705500000000000e+00,3.671900000000000e-02,-1.380800000000000e-01,-8.353600000000000e-01,8.526899999999999e-01,1.138800000000000e+00,6.269900000000000e-01,1.545100000000000e-01,1.287500000000000e-01,-4.300800000000000e-01,-6.562100000000000e-01,1.785400000000000e+00,1.367100000000000e+00,1.201300000000000e+00,6.856300000000000e-01,1.788700000000000e-01,-4.621900000000000e-01,0.000000000000000e+00,0.000000000000000e+00,0.000000000000000e+00,0.000000000000000e+00,0.000000000000000e+00,0.000000000000000e+00,0.000000000000000e+00
7.700000000000000e-01,-1.790000000000000e+00,5.837800000000000e-01,3.700600000000000e-01,1.800000000000000e-01,-1.703900000000000e+00,3.801500000000000e-02,-1.424100000000000e-01,-8.416700000000000e-01,8.704900000000000e-01,1.152200000000000e+00,6.389500000000000e-01,1.614200000000000e-01,1.305000000000000e-01,-4.345900000000000e-01,-6.040200000000000e-01,1.774600000000000e+00,1.315400000000000e+00,1.191500000000000e+00,6.960700000000000e-01,1.703900000000000e-01,-4.402000000000000e-01,0.000000000000000e+00,0.000000000000000e+00,0.000000000000000e+00,0.000000000000000e+00,0.000000000000000e+00,0.000000000000000e+00,0.000000000000000e+00
7.800000000000000e-01,-1.798500000000000e+00,5.925700000000000e-01,3.816500000000000e-01,1.864500000000000e-01,-1.702300000000000e+00,3.932800000000000e-02,-1.467800000000000e-01,-8.474400000000000e-01,8.881700000000000e-01,1.165100000000000e+00,6.508200000000000e-01,1.684300000000000e-01,1.321600000000000e-01,-4.388800000000000e-01,-5.508200000000000e-01,1.762300000000000e+00,1.262300000000000e+00,1.180800000000000e+00,7.060300000000000e-01,1.614800000000000e-01,-4.176600000000000e-01,0.000000000000000e+00,0.000000000000000e+00,0.000000000000000e+00,0.000000000000000e+00,0.000000000000000e+00,0.000000000000000e+00,0.000000000000000e+00
7.900000000000000e-01,-1.807000000000000e+00,6.015400000000000e-01,3.933600000000000e-01,1.930200000000000e-01,-1.700500000000000e+00,4.065800000000000e-02,-1.511800000000000e-01,-8.526800000000000e-01,9.057300000000000e-01,1.177500000000000e+00,6.625700000000000e-01,1.755400000000000e-01,1.337300000000000e-01,-4.429400000000000e-01,-4.966600000000000e-01,1.748500000000000e+00,1.207800000000000e+00,1.169300000000000e+00,7.154800000000000e-01,1.521500000000000e-01,-3.945900000000000e-01,0.000000000000000e+00,0.000000000000000e+00,0.000000000000000e+00,0.000000000000000e+00,0.000000000000000e+00,0.000000000000000e+00,0.000000000000000e+00
8.000000000000000e-01,-1.815500000000000e+00,6.106800000000000e-01,4.051900000000000e-01,1.997000000000000e-01,-1.698700000000000e+00,4.200300000000000e-02,-1.556300000000000e-01,-8.573700000000000e-01,9.231400000000000e-01,1.189300000000000e+00,6.742000000000000e-01,1.827400000000000e-01,1.352000000000000e-01,-4.467700000000000e-01,-4.415800000000000e-01,1.733300000000000e+00,1.152000000000000e+00,1.156800000000000e+00,7.244200000000000e-01,1.423900000000000e-01,-3.710100000000000e-01,0.000000000000000e+00,0.000000000000000e+00,0.000000000000000e+00,0.000000000000000e+00,0.000000000000000e+00,0.000000000000000e+00,0.000000000000000e+00
8.100000000000001e-01,-1.824100000000000e+00,6.200000000000000e-01,4.171400000000000e-01,2.065000000000000e-01,-1.696900000000000e+00,4.336200000000000e-02,-1.601200000000000e-01,-8.615100000000000e-01,9.403899999999999e-01,1.200500000000000e+00,6.857000000000000e-01,1.900300000000000e-01,1.365700000000000e-01,-4.503600000000000e-01,-3.856400000000000e-01,1.716600000000000e+00,1.094900000000000e+00,1.143600000000000e+00,7.328200000000000e-01,1.322300000000000e-01,-3.469500000000000e-01,0.000000000000000e+00,0.000000000000000e+00,0.000000000000000e+00,0.000000000000000e+00,0.000000000000000e+00,0.000000000000000e+00,0.000000000000000e+00
8.200000000000000e-01,-1.832800000000000e+00,6.294900000000000e-01,4.292000000000000e-01,2.134200000000000e-01,-1.694900000000000e+00,4.473400000000000e-02,-1.646400000000000e-01,-8.650800000000000e-01,9.574600000000000e-01,1.211200000000000e+00,6.970700000000000e-01,1.973900000000000e-01,1.378400000000000e-01,-4.537100000000000e-01,-3.289000000000000e-01,1.698400000000000e+00,1.036500000000000e+00,1.129400000000000e+00,7.406700000000001e-01,1.216500000000000e-01,-3.224200000000000e-01,0.000000000000000e+00,0.000000000000000e+00,0.000000000000000e+00,0.000000000000000e+00,0.000000000000000e+00,0.000000000000000e+00,0.000000000000000e+00
8.300000000000000e-01,-1.841400000000000e+00,6.391500000000000e-01,4.413600000000000e-01,2.204400000000000e-01,-1.692900000000000e+00,4.611800000000000e-02,-1.691900000000000e-01,-8.680800000000000e-01,9.743500000000000e-01,1.221200000000000e+00,7.082900000000000e-01,2.048400000000000e-01,1.390000000000000e-01,-4.568000000000000e-01,-2.714200000000000e-01,1.678800000000000e+00,9.769099999999999e-01,1.114500000000000e+00,7.479600000000000e-01,1.106600000000000e-01,-2.974600000000000e-01,0.000000000000000e+00,0.000000000000000e+00,0.000000000000000e+00,0.000000000000000e+00,0.000000000000000e+00,0.000000000000000e+00,0.000000000000000e+00
8.400000000000000e-01,-1.850100000000000e+00,6.489800000000000e-01,4.536200000000000e-01,2.275800000000000e-01,-1.690800000000000e+00,4.751300000000000e-02,-1.737800000000000e-01,-8.705100000000000e-01,9.910300000000000e-01,1.230700000000000e+00,7.193500000000000e-01,2.123500000000000e-01,1.400500000000000e-01,-4.596500000000000e-01,-2.132400000000000e-01,1.657800000000000e+00,9.162200000000000e-01,1.098700000000000e+00,7.546800000000000e-01,9.927900000000001e-02,-2.720900000000000e-01,0.000000000000000e+00,0.000000000000000e+00,0.000000000000000e+00,0.000000000000000e+00,0.000000000000000e+00,0.000000000000000e+00,0.000000000000000e+00
8.500000000000000e-01,-1.858800000000000e+00,6.589699999999999e-01,4.659800000000000e-01,2.348300000000000e-01,-1.688700000000000e+00,4.891900000000000e-02,-1.783800000000000e-01,-8.723500000000000e-01,1.007500000000000e+00,1.239500000000000e+00,7.302600000000000e-01,2.199300000000000e-01,1.409900000000000e-01,-4.622500000000000e-01,-1.544200000000000e-01,1.635300000000000e+00,8.544400000000000e-01,1.082100000000000e+00,7.608100000000000e-01,8.749800000000001e-02,-2.463300000000000e-01,0.000000000000000e+00,0.000000000000000e+00,0.000000000000000e+00,0.000000000000000e+00,0.000000000000000e+00,0.000000000000000e+00,0.000000000000000e+00
8.600000000000000e-01,-1.867600000000000e+00,6.691300000000000e-01,4.784100000000000e-01,2.421900000000000e-01,-1.686400000000000e+00,5.033300000000000e-02,-1.830200000000000e-01,-8.735900000000000e-01,1.023700000000000e+00,1.247800000000000e+00,7.409900000000000e-01,2.275700000000000e-01,1.418000000000000e-01,-4.645800000000000e-01,-9.501800000000001e-02,1.611400000000000e+00,7.916600000000000e-01,1.064600000000000e+00,7.663400000000000e-01,7.532899999999999e-02,-2.202100000000000e-01,0.000000000000000e+00,0.000000000000000e+00,0.000000000000000e+00,0.000000000000000e+00,0.000000000000000e+00,0.000000000000000e+00,0.000000000000000e+00
8.700000000000000e-01,-1.876300000000000e+00,6.794400000000000e-01,4.909300000000000e-01,2.496500000000000e-01,-1.684100000000000e+00,5.175400000000000e-02,-1.876800000000000e-01,-8.742400000000000e-01,1.039700000000000e+00,1.255400000000000e+00,7.515500000000001e-01,2.352500000000000e-01,1.424900000000000e-01,-4.666500000000000e-01,-3.509600000000000e-02,1.586100000000000e+00,7.279099999999999e-01,1.046400000000000e+00,7.712500000000000e-01,6.277900000000000e-02,-1.937400000000000e-01,0.000000000000000e+00,0.000000000000000e+00,0.000000000000000e+00,0.000000000000000e+00,0.000000000000000e+00,0.000000000000000e+00,0.000000000000000e+00
8.800000000000000e-01,-1.885000000000000e+00,6.899200000000000e-01,5.035200000000000e-01,2.572200000000000e-01,-1.681700000000000e+00,5.318200000000000e-02,-1.923500000000000e-01,-8.742900000000000e-01,1.055500000000000e+00,1.262300000000000e+00,7.619200000000000e-01,2.429900000000000e-01,1.430600000000000e-01,-4.684500000000000e-01,2.528900000000000e-02,1.559400000000000e+00,6.632700000000000e-01,1.027400000000000e+00,7.755500000000000e-01,4.985600000000000e-02,-1.669700000000000e-01,0.000000000000000e+00,0.000000000000000e+00,0.000000000000000e+00,0.000000000000000e+00,0.000000000000000e+00,0.000000000000000e+00,0.000000000000000e+00
8.900000000000000e-01,-1.893800000000000e+00,7.005500000000000e-01,5.161700000000000e-01,2.648900000000000e-01,-1.679300000000000e+00,5.461500000000000e-02,-1.970400000000000e-01,-8.737400000000000e-01,1.070900000000000e+00,1.268600000000000e+00,7.720900000000001e-01,2.507600000000000e-01,1.434900000000000e-01,-4.699900000000000e-01,8.608100000000000e-02,1.531400000000000e+00,5.977900000000000e-01,1.007600000000000e+00,7.792100000000000e-01,3.656700000000000e-02,-1.399100000000000e-01,0.000000000000000e+00,0.000000000000000e+00,0.000000000000000e+00,0.000000000000000e+00,0.000000000000000e+00,0.000000000000000e+00,0.000000000000000e+00
9.000000000000000e-01,-1.902500000000000e+00,7.113400000000000e-01,5.288900000000000e-01,2.726600000000000e-01,-1.676700000000000e+00,5.605200000000000e-02,-2.017500000000000e-01,-8.725700000000000e-01,1.086100000000000e+00,1.274300000000000e+00,7.820700000000000e-01,2.585700000000000e-01,1.437900000000000e-01,-4.712500000000000e-01,1.472200000000000e-01,1.501900000000000e+00,5.315400000000000e-01,9.870900000000000e-01,7.822300000000000e-01,2.292200000000000e-02,-1.125800000000000e-01,0.000000000000000e+00,0.000000000000000e+00,0.000000000000000e+00,0.000000000000000e+00,0.000000000000000e+00,0.000000000000000e+00,0.000000000000000e+00
9.100000000000000e-01,-1.911200000000000e+00,7.222700000000000e-01,5.416600000000000e-01,2.805300000000000e-01,-1.674100000000000e+00,5.749000000000000e-02,-2.064700000000000e-01,-8.707900000000000e-01,1.100900000000000e+00,1.279300000000000e+00,7.918300000000000e-01,2.664100000000000e-01,1.439500000000000e-01,-4.722400000000000e-01,2.086500000000000e-01,1.471100000000000e+00,4.645800000000000e-01,9.658200000000000e-01,7.846100000000000e-01,8.930900000000000e-03,-8.502999999999999e-02,0.000000000000000e+00,0.000000000000000e+00,0.000000000000000e+00,0.000000000000000e+00,0.000000000000000e+00,0.000000000000000e+00,0.000000000000000e+00
9.200000000000000e-01,-1.919900000000000e+00,7.333499999999999e-01,5.544700000000000e-01,2.885000000000000e-01,-1.671400000000000e+00,5.893000000000000e-02,-2.111900000000000e-01,-8.683999999999999e-01,1.115500000000000e+00,1.283600000000000e+00,8.013800000000000e-01,2.742600000000000e-01,1.439600000000000e-01,-4.729500000000000e-01,2.703000000000000e-01,1.439000000000000e+00,3.969800000000000e-01,9.438200000000000e-01,7.863200000000000e-01,-5.397600000000000e-03,-5.726900000000000e-02,0.000000000000000e+00,0.000000000000000e+00,0.000000000000000e+00,0.000000000000000e+00,0.000000000000000e+00,0.000000000000000e+00,0.000000000000000e+00
9.300000000000000e-01,-1.928600000000000e+00,7.445800000000000e-01,5.673300000000000e-01,2.965600000000000e-01,-1.668600000000000e+00,6.036900000000000e-02,-2.159300000000000e-01,-8.653900000000000e-01,1.129700000000000e+00,1.287200000000000e+00,8.107100000000000e-01,2.821300000000000e-01,1.438400000000000e-01,-4.733800000000000e-01,3.321200000000000e-01,1.405600000000000e+00,3.287900000000000e-01,9.211100000000000e-01,7.873700000000000e-01,-2.005200000000000e-02,-2.933000000000000e-02,0.000000000000000e+00,0.000000000000000e+00,0.000000000000000e+00,0.000000000000000e+00,0.000000000000000e+00,0.000000000000000e+00,0.000000000000000e+00
9.399999999999999e-01,-1.937200000000000e+00,7.559500000000000e-01,5.802100000000000e-01,3.047100000000000e-01,-1.665800000000000e+00,6.180600000000000e-02,-2.206600000000000e-01,-8.617500000000000e-01,1.143600000000000e+00,1.290100000000000e+00,8.198000000000000e-01,2.900100000000000e-01,1.435600000000000e-01,-4.735400000000000e-01,3.940500000000000e-01,1.370900000000000e+00,2.600800000000000e-01,8.977100000000000e-01,7.877500000000000e-01,-3.502200000000000e-02,-1.238800000000000e-03,0.000000000000000e+00,0.000000000000000e+00,0.000000000000000e+00,0.000000000000000e+00,0.000000000000000e+00,0.000000000000000e+00,0.000000000000000e+00
9.500000000000000e-01,-1.945800000000000e+00,7.674500000000000e-01,5.931300000000000e-01,3.129500000000000e-01,-1.662800000000000e+00,6.324000000000000e-02,-2.254000000000000e-01,-8.575000000000000e-01,1.157100000000000e+00,1.292400000000000e+00,8.286600000000000e-01,2.978800000000000e-01,1.431400000000000e-01,-4.734100000000000e-01,4.560300000000000e-01,1.334900000000000e+00,1.909200000000000e-01,8.736400000000000e-01,7.874500000000000e-01,-5.029600000000000e-02,2.697600000000000e-02,0.000000000000000e+00,0.000000000000000e+00,0.000000000000000e+00,0.000000000000000e+00,0.000000000000000e+00,0.000000000000000e+00,0.000000000000000e+00
9.600000000000000e-01,-1.954400000000000e+00,7.790899999999999e-01,6.060600000000000e-01,3.212800000000000e-01,-1.659800000000000e+00,6.466900000000000e-02,-2.301300000000000e-01,-8.526300000000000e-01,1.170300000000000e+00,1.294000000000000e+00,8.372700000000000e-01,3.057500000000000e-01,1.425600000000000e-01,-4.730000000000000e-01,5.179900000000000e-01,1.297600000000000e+00,1.213800000000000e-01,8.489100000000001e-01,7.864700000000000e-01,-6.586200000000000e-02,5.528700000000000e-02,0.000000000000000e+00,0.000000000000000e+00,0.000000000000000e+00,0.000000000000000e+00,0.000000000000000e+00,0.000000000000000e+00,0.000000000000000e+00
9.700000000000000e-01,-1.962900000000000e+00,7.908600000000000e-01,6.190000000000000e-01,3.297000000000000e-01,-1.656700000000000e+00,6.609100000000000e-02,-2.348500000000000e-01,-8.471400000000000e-01,1.183100000000000e+00,1.294800000000000e+00,8.456300000000000e-01,3.136100000000000e-01,1.418200000000000e-01,-4.723000000000000e-01,5.798800000000000e-01,1.259200000000000e+00,5.151000000000000e-02,8.235400000000000e-01,7.848100000000000e-01,-8.170700000000000e-02,8.366600000000000e-02,0.000000000000000e+00,0.000000000000000e+00,0.000000000000000e+00,0.000000000000000e+00,0.000000000000000e+00,0.000000000000000e+00,0.000000000000000e+00
9.800000000000000e-01,-1.971300000000000e+00,8.027500000000000e-01,6.319500000000000e-01,3.381900000000000e-01,-1.653500000000000e+00,6.750399999999999e-02,-2.395700000000000e-01,-8.410400000000000e-01,1.195500000000000e+00,1.295000000000000e+00,8.537400000000001e-01,3.214500000000000e-01,1.409200000000000e-01,-4.713200000000000e-01,6.416400000000000e-01,1.219500000000000e+00,-1.861100000000000e-02,7.975500000000000e-01,7.824500000000000e-01,-9.781800000000000e-02,1.120900000000000e-01,0.000000000000000e+00,0.000000000000000e+00,0.000000000000000e+00,0.000000000000000e+00,0.000000000000000e+00,0.000000000000000e+00,0.000000000000000e+00
9.900000000000000e-01,-1.979700000000000e+00,8.147600000000000e-01,6.449000000000000e-01,3.467700000000000e-01,-1.650300000000000e+00,6.890800000000000e-02,-2.442800000000000e-01,-8.343100000000000e-01,1.207500000000000e+00,1.294500000000000e+00,8.615800000000000e-01,3.292600000000000e-01,1.398600000000000e-01,-4.700600000000000e-01,7.032000000000000e-01,1.178700000000000e+00,-8.891900000000000e-02,7.709700000000000e-01,7.794100000000000e-01,-1.141800000000000e-01,1.405200000000000e-01,0.000000000000000e+00,0.000000000000000e+00,0.000000000000000e+00,0.000000000000000e+00,0.000000000000000e+00,0.000000000000000e+00,0.000000000000000e+00
1.000000000000000e+00,-1.988000000000000e+00,8.269000000000000e-01,6.578400000000000e-01,3.554200000000000e-01,-1.646900000000000e+00,7.030100000000000e-02,-2.489700000000000e-01,-8.269700000000000e-01,1.219000000000000e+00,1.293200000000000e+00,8.691600000000000e-01,3.370300000000000e-01,1.386400000000000e-01,-4.685100000000000e-01,7.645100000000000e-01,1.136700000000000e+00,-1.593500000000000e-01,7.438100000000000e-01,7.756700000000000e-01,-1.307800000000000e-01,1.689300000000000e-01,0.000000000000000e+00,0.000000000000000e+00,0.000000000000000e+00,0.000000000000000e+00,0.000000000000000e+00,0.000000000000000e+00,0.000000000000000e+00
1.010000000000000e+00,-1.996200000000000e+00,8.391400000000000e-01,6.707600000000000e-01,3.641500000000000e-01,-1.643500000000000e+00,7.168099999999999e-02,-2.536500000000000e-01,-8.190200000000000e-01,1.230200000000000e+00,1.291300000000000e+00,8.764600000000000e-01,3.447700000000000e-01,1.372400000000000e-01,-4.666800000000000e-01,8.255100000000000e-01,1.093700000000000e+00,-2.298300000000000e-01,7.160900000000000e-01,7.712400000000000e-01,-1.476100000000000e-01,1.973100000000000e-01,0.000000000000000e+00,0.000000000000000e+00,0.000000000000000e+00,0.000000000000000e+00,0.000000000000000e+00,0.000000000000000e+00,0.000000000000000e+00
1.020000000000000e+00,-2.004400000000000e+00,8.515000000000000e-01,6.836600000000000e-01,3.729500000000000e-01,-1.640000000000000e+00,7.304500000000000e-02,-2.583100000000000e-01,-8.104600000000000e-01,1.240900000000000e+00,1.288600000000000e+00,8.834800000000000e-01,3.524600000000000e-01,1.356800000000000e-01,-4.645700000000000e-01,8.861400000000000e-01,1.049500000000000e+00,-3.003000000000000e-01,6.878300000000001e-01,7.661100000000000e-01,-1.646400000000000e-01,2.256100000000000e-01,0.000000000000000e+00,0.000000000000000e+00,0.000000000000000e+00,0.000000000000000e+00,0.000000000000000e+00,0.000000000000000e+00,0.000000000000000e+00
1.030000000000000e+00,-2.012400000000000e+00,8.639600000000000e-01,6.965300000000000e-01,3.818200000000000e-01,-1.636500000000000e+00,7.439400000000000e-02,-2.629400000000000e-01,-8.013000000000000e-01,1.251200000000000e+00,1.285300000000000e+00,8.902099999999999e-01,3.600900000000000e-01,1.339500000000000e-01,-4.621700000000000e-01,9.463300000000000e-01,1.004300000000000e+00,-3.706900000000000e-01,6.590600000000000e-01,7.602900000000000e-01,-1.818700000000000e-01,2.538100000000000e-01,0.000000000000000e+00,0.000000000000000e+00,0.000000000000000e+00,0.000000000000000e+00,0.000000000000000e+00,0.000000000000000e+00,0.000000000000000e+00
1.040000000000000e+00,-2.020400000000000e+00,8.765200000000000e-01,7.093699999999999e-01,3.907500000000000e-01,-1.632800000000000e+00,7.572400000000000e-02,-2.675500000000000e-01,-7.915400000000000e-01,1.261000000000000e+00,1.281200000000000e+00,8.966600000000000e-01,3.676600000000000e-01,1.320500000000000e-01,-4.594900000000000e-01,1.006000000000000e+00,9.580800000000000e-01,-4.409300000000000e-01,6.298000000000000e-01,7.537800000000000e-01,-1.992800000000000e-01,2.818800000000000e-01,0.000000000000000e+00,0.000000000000000e+00,0.000000000000000e+00,0.000000000000000e+00,0.000000000000000e+00,0.000000000000000e+00,0.000000000000000e+00
1.050000000000000e+00,-2.028300000000000e+00,8.891800000000000e-01,7.221600000000000e-01,3.997500000000000e-01,-1.629100000000000e+00,7.703400000000001e-02,-2.721300000000000e-01,-7.811800000000000e-01,1.270300000000000e+00,1.276400000000000e+00,9.028100000000000e-01,3.751600000000000e-01,1.299600000000000e-01,-4.565300000000000e-01,1.065200000000000e+00,9.108700000000000e-01,-5.109500000000000e-01,6.000799999999999e-01,7.465800000000000e-01,-2.168500000000000e-01,3.098000000000000e-01,0.000000000000000e+00,0.000000000000000e+00,0.000000000000000e+00,0.000000000000000e+00,0.000000000000000e+00,0.000000000000000e+00,0.000000000000000e+00
1.060000000000000e+00,-2.036000000000000e+00,9.019300000000000e-01,7.348900000000000e-01,4.088100000000000e-01,-1.625300000000000e+00,7.832300000000000e-02,-2.766800000000000e-01,-7.702400000000000e-01,1.279200000000000e+00,1.271000000000000e+00,9.086600000000000e-01,3.825900000000000e-01,1.277100000000000e-01,-4.532900000000000e-01,1.123700000000000e+00,8.627200000000000e-01,-5.807000000000000e-01,5.699100000000000e-01,7.386900000000000e-01,-2.345600000000000e-01,3.375400000000000e-01,0.000000000000000e+00,0.000000000000000e+00,0.000000000000000e+00,0.000000000000000e+00,0.000000000000000e+00,0.000000000000000e+00,0.000000000000000e+00
1.070000000000000e+00,-2.043700000000000e+00,9.147600000000000e-01,7.475700000000000e-01,4.179200000000000e-01,-1.621500000000000e+00,7.958800000000001e-02,-2.811900000000000e-01,-7.587100000000000e-01,1.287600000000000e+00,1.264800000000000e+00,9.142000000000000e-01,3.899300000000000e-01,1.252700000000000e-01,-4.497800000000000e-01,1.181600000000000e+00,8.136400000000000e-01,-6.500899999999999e-01,5.393200000000000e-01,7.301200000000000e-01,-2.524000000000000e-01,3.650600000000000e-01,0.000000000000000e+00,0.000000000000000e+00,0.000000000000000e+00,0.000000000000000e+00,0.000000000000000e+00,0.000000000000000e+00,0.000000000000000e+00
1.080000000000000e+00,-2.051200000000000e+00,9.276799999999999e-01,7.601900000000000e-01,4.270900000000000e-01,-1.617500000000000e+00,8.082700000000000e-02,-2.856700000000000e-01,-7.466100000000000e-01,1.295500000000000e+00,1.258000000000000e+00,9.194400000000000e-01,3.971900000000000e-01,1.226600000000000e-01,-4.459900000000000e-01,1.238800000000000e+00,7.636900000000000e-01,-7.190800000000001e-01,5.083299999999999e-01,7.208700000000000e-01,-2.703500000000000e-01,3.923500000000000e-01,0.000000000000000e+00,0.000000000000000e+00,0.000000000000000e+00,0.000000000000000e+00,0.000000000000000e+00,0.000000000000000e+00,0.000000000000000e+00
1.090000000000000e+00,-2.058600000000000e+00,9.406700000000000e-01,7.727300000000000e-01,4.363100000000000e-01,-1.613500000000000e+00,8.204000000000000e-02,-2.901100000000000e-01,-7.339400000000000e-01,1.302900000000000e+00,1.250500000000000e+00,9.243700000000000e-01,4.043500000000000e-01,1.198700000000000e-01,-4.419400000000000e-01,1.295200000000000e+00,7.129000000000000e-01,-7.875799999999999e-01,4.769700000000000e-01,7.109500000000000e-01,-2.883900000000000e-01,4.193700000000000e-01,0.000000000000000e+00,0.000000000000000e+00,0.000000000000000e+00,0.000000000000000e+00,0.000000000000000e+00,0.000000000000000e+00,0.000000000000000e+00
1.100000000000000e+00,-2.065900000000000e+00,9.537300000000000e-01,7.851900000000001e-01,4.455800000000000e-01,-1.609500000000000e+00,8.322400000000001e-02,-2.945100000000000e-01,-7.207100000000000e-01,1.309700000000000e+00,1.242200000000000e+00,9.289800000000000e-01,4.114100000000000e-01,1.168900000000000e-01,-4.376100000000000e-01,1.350700000000000e+00,6.613100000000000e-01,-8.555400000000000e-01,4.452700000000000e-01,7.003600000000000e-01,-3.065100000000000e-01,4.461000000000000e-01,0.000000000000000e+00,0.000000000000000e+00,0.000000000000000e+00,0.000000000000000e+00,0.000000000000000e+00,0.000000000000000e+00,0.000000000000000e+00
1.110000000000000e+00,-2.073000000000000e+00,9.668600000000001e-01,7.975700000000000e-01,4.548900000000000e-01,-1.605300000000000e+00,8.437699999999999e-02,-2.988600000000000e-01,-7.069299999999999e-01,1.316100000000000e+00,1.233300000000000e+00,9.332700000000000e-01,4.183500000000000e-01,1.137400000000000e-01,-4.330100000000000e-01,1.405400000000000e+00,6.089500000000000e-01,-9.228900000000000e-01,4.132400000000000e-01,6.891200000000000e-01,-3.246900000000000e-01,4.725100000000000e-01,0.000000000000000e+00,0.000000000000000e+00,0.000000000000000e+00,0.000000000000000e+00,0.000000000000000e+00,0.000000000000000e+00,0.000000000000000e+00
1.120000000000000e+00,-2.080000000000000e+00,9.800500000000000e-01,8.098600000000000e-01,4.642400000000000e-01,-1.601100000000000e+00,8.549800000000000e-02,-3.031700000000000e-01,-6.926000000000000e-01,1.321900000000000e+00,1.223800000000000e+00,9.372400000000000e-01,4.251900000000000e-01,1.104000000000000e-01,-4.281600000000000e-01,1.459100000000000e+00,5.558600000000000e-01,-9.895600000000000e-01,3.809200000000000e-01,6.772100000000000e-01,-3.429000000000000e-01,4.985700000000000e-01,0.000000000000000e+00,0.000000000000000e+00,0.000000000000000e+00,0.000000000000000e+00,0.000000000000000e+00,0.000000000000000e+00,0.000000000000000e+00
1.130000000000000e+00,-2.086900000000000e+00,9.933000000000000e-01,8.220499999999999e-01,4.736300000000000e-01,-1.596800000000000e+00,8.658500000000000e-02,-3.074300000000000e-01,-6.777500000000000e-01,1.327200000000000e+00,1.213600000000000e+00,9.408900000000000e-01,4.319000000000000e-01,1.068800000000000e-01,-4.230400000000000e-01,1.511900000000000e+00,5.020900000000000e-01,-1.055500000000000e+00,3.483300000000000e-01,6.646700000000000e-01,-3.611300000000000e-01,5.242599999999999e-01,0.000000000000000e+00,0.000000000000000e+00,0.000000000000000e+00,0.000000000000000e+00,0.000000000000000e+00,0.000000000000000e+00,0.000000000000000e+00
1.140000000000000e+00,-2.093600000000000e+00,1.006600000000000e+00,8.341300000000000e-01,4.830600000000000e-01,-1.592400000000000e+00,8.763500000000000e-02,-3.116300000000000e-01,-6.623700000000000e-01,1.332000000000000e+00,1.202700000000000e+00,9.442100000000000e-01,4.384800000000000e-01,1.031800000000000e-01,-4.176700000000000e-01,1.563600000000000e+00,4.476700000000000e-01,-1.120600000000000e+00,3.155000000000000e-01,6.514900000000000e-01,-3.793500000000000e-01,5.495600000000000e-01,0.000000000000000e+00,0.000000000000000e+00,0.000000000000000e+00,0.000000000000000e+00,0.000000000000000e+00,0.000000000000000e+00,0.000000000000000e+00
1.150000000000000e+00,-2.100100000000000e+00,1.019940000000000e+00,8.461000000000000e-01,4.925200000000000e-01,-1.588000000000000e+00,8.864800000000000e-02,-3.157800000000000e-01,-6.464800000000001e-01,1.336200000000000e+00,1.191100000000000e+00,9.472000000000000e-01,4.449200000000000e-01,9.929100000000000e-02,-4.120500000000000e-01,1.614200000000000e+00,3.926500000000000e-01,-1.184900000000000e+00,2.824500000000000e-01,6.376900000000000e-01,-3.975600000000000e-01,5.744400000000000e-01,0.000000000000000e+00,0.000000000000000e+00,0.000000000000000e+00,0.000000000000000e+00,0.000000000000000e+00,0.000000000000000e+00,0.000000000000000e+00
1.160000000000000e+00,-2.106500000000000e+00,1.033320000000000e+00,8.579500000000000e-01,5.020000000000000e-01,-1.583600000000000e+00,8.962000000000001e-02,-3.198700000000000e-01,-6.300900000000000e-01,1.339800000000000e+00,1.179000000000000e+00,9.498600000000000e-01,4.512300000000000e-01,9.522400000000000e-02,-4.061900000000000e-01,1.663700000000000e+00,3.370700000000000e-01,-1.248300000000000e+00,2.492100000000000e-01,6.232700000000000e-01,-4.157300000000000e-01,5.988599999999999e-01,0.000000000000000e+00,0.000000000000000e+00,0.000000000000000e+00,0.000000000000000e+00,0.000000000000000e+00,0.000000000000000e+00,0.000000000000000e+00
1.170000000000000e+00,-2.112700000000000e+00,1.046730000000000e+00,8.696800000000000e-01,5.115100000000000e-01,-1.579000000000000e+00,9.055199999999999e-02,-3.239000000000000e-01,-6.132100000000000e-01,1.342900000000000e+00,1.166200000000000e+00,9.521800000000000e-01,4.573900000000000e-01,9.097600000000000e-02,-4.000800000000000e-01,1.711900000000000e+00,2.809800000000000e-01,-1.310600000000000e+00,2.158000000000000e-01,6.082500000000000e-01,-4.338300000000000e-01,6.228200000000000e-01,0.000000000000000e+00,0.000000000000000e+00,0.000000000000000e+00,0.000000000000000e+00,0.000000000000000e+00,0.000000000000000e+00,0.000000000000000e+00
1.180000000000000e+00,-2.118800000000000e+00,1.060170000000000e+00,8.812700000000000e-01,5.210500000000000e-01,-1.574400000000000e+00,9.143900000000001e-02,-3.278700000000000e-01,-5.958500000000000e-01,1.345400000000000e+00,1.152800000000000e+00,9.541700000000000e-01,4.633900000000000e-01,8.654800000000000e-02,-3.937300000000000e-01,1.759000000000000e+00,2.244000000000000e-01,-1.372000000000000e+00,1.822600000000000e-01,5.926300000000000e-01,-4.518600000000000e-01,6.462800000000000e-01,0.000000000000000e+00,0.000000000000000e+00,0.000000000000000e+00,0.000000000000000e+00,0.000000000000000e+00,0.000000000000000e+00,0.000000000000000e+00
1.190000000000000e+00,-2.124600000000000e+00,1.073640000000000e+00,8.927300000000000e-01,5.306000000000000e-01,-1.569700000000000e+00,9.228200000000000e-02,-3.317800000000000e-01,-5.780300000000000e-01,1.347400000000000e+00,1.138700000000000e+00,9.558300000000000e-01,4.692400000000000e-01,8.193900000000000e-02,-3.871600000000000e-01,1.804700000000000e+00,1.674000000000000e-01,-1.432200000000000e+00,1.486100000000000e-01,5.764400000000000e-01,-4.697800000000000e-01,6.692200000000000e-01,0.000000000000000e+00,0.000000000000000e+00,0.000000000000000e+00,0.000000000000000e+00,0.000000000000000e+00,0.000000000000000e+00,0.000000000000000e+00
1.200000000000000e+00,-2.130300000000000e+00,1.087120000000000e+00,9.040400000000000e-01,5.401600000000000e-01,-1.565000000000000e+00,9.307799999999999e-02,-3.356100000000000e-01,-5.597600000000000e-01,1.348800000000000e+00,1.124100000000000e+00,9.571499999999999e-01,4.749200000000000e-01,7.715300000000000e-02,-3.803500000000000e-01,1.849200000000000e+00,1.100100000000000e-01,-1.491300000000000e+00,1.148800000000000e-01,5.596900000000000e-01,-4.875800000000000e-01,6.916200000000000e-01,0.000000000000000e+00,0.000000000000000e+00,0.000000000000000e+00,0.000000000000000e+00,0.000000000000000e+00,0.000000000000000e+00,0.000000000000000e+00
1.210000000000000e+00,-2.135800000000000e+00,1.100610000000000e+00,9.152100000000000e-01,5.497400000000000e-01,-1.560200000000000e+00,9.382400000000000e-02,-3.393800000000000e-01,-5.410500000000000e-01,1.349600000000000e+00,1.108900000000000e+00,9.581300000000000e-01,4.804300000000000e-01,7.218800000000000e-02,-3.733200000000000e-01,1.892200000000000e+00,5.228300000000000e-02,-1.549100000000000e+00,8.110000000000001e-02,5.423800000000000e-01,-5.052400000000000e-01,7.134600000000000e-01,0.000000000000000e+00,0.000000000000000e+00,0.000000000000000e+00,0.000000000000000e+00,0.000000000000000e+00,0.000000000000000e+00,0.000000000000000e+00
1.220000000000000e+00,-2.141100000000000e+00,1.114110000000000e+00,9.262200000000000e-01,5.593200000000000e-01,-1.555400000000000e+00,9.452099999999999e-02,-3.430800000000000e-01,-5.219200000000001e-01,1.349800000000000e+00,1.093200000000000e+00,9.587700000000000e-01,4.857600000000000e-01,6.704800000000000e-02,-3.660800000000000e-01,1.933900000000000e+00,-5.744900000000000e-03,-1.605700000000000e+00,4.728800000000000e-02,5.245400000000000e-01,-5.227300000000000e-01,7.347000000000000e-01,0.000000000000000e+00,0.000000000000000e+00,0.000000000000000e+00,0.000000000000000e+00,0.000000000000000e+00,0.000000000000000e+00,0.000000000000000e+00
1.230000000000000e+00,-2.146300000000000e+00,1.127610000000000e+00,9.370700000000000e-01,5.689100000000000e-01,-1.550500000000000e+00,9.516500000000000e-02,-3.467000000000000e-01,-5.023800000000000e-01,1.349500000000000e+00,1.076800000000000e+00,9.590700000000000e-01,4.909200000000000e-01,6.173400000000000e-02,-3.586300000000000e-01,1.974100000000000e+00,-6.402400000000000e-02,-1.661000000000000e+00,1.347700000000000e-02,5.061800000000000e-01,-5.400500000000000e-01,7.553400000000000e-01,0.000000000000000e+00,0.000000000000000e+00,0.000000000000000e+00,0.000000000000000e+00,0.000000000000000e+00,0.000000000000000e+00,0.000000000000000e+00
1.240000000000000e+00,-2.151200000000000e+00,1.141100000000000e+00,9.477500000000000e-01,5.785000000000000e-01,-1.545600000000000e+00,9.575500000000001e-02,-3.502500000000000e-01,-4.824500000000000e-01,1.348500000000000e+00,1.059900000000000e+00,9.590400000000000e-01,4.958900000000000e-01,5.624800000000000e-02,-3.509800000000000e-01,2.012800000000000e+00,-1.225100000000000e-01,-1.714800000000000e+00,-2.030700000000000e-02,4.873100000000000e-01,-5.571500000000000e-01,7.753600000000000e-01,0.000000000000000e+00,0.000000000000000e+00,0.000000000000000e+00,0.000000000000000e+00,0.000000000000000e+00,0.000000000000000e+00,0.000000000000000e+00
1.250000000000000e+00,-2.155900000000000e+00,1.154570000000000e+00,9.582700000000000e-01,5.880900000000000e-01,-1.540600000000000e+00,9.628900000000000e-02,-3.537200000000000e-01,-4.621300000000000e-01,1.347000000000000e+00,1.042500000000000e+00,9.586700000000000e-01,5.006600000000000e-01,5.059200000000000e-02,-3.431300000000000e-01,2.049900000000000e+00,-1.811500000000000e-01,-1.767300000000000e+00,-5.403400000000000e-02,4.679600000000000e-01,-5.740300000000000e-01,7.947200000000000e-01,0.000000000000000e+00,0.000000000000000e+00,0.000000000000000e+00,0.000000000000000e+00,0.000000000000000e+00,0.000000000000000e+00,0.000000000000000e+00
1.260000000000000e+00,-2.160400000000000e+00,1.168030000000000e+00,9.686000000000000e-01,5.976800000000000e-01,-1.535600000000000e+00,9.676600000000000e-02,-3.571100000000000e-01,-4.414500000000000e-01,1.344900000000000e+00,1.024600000000000e+00,9.579600000000000e-01,5.052400000000000e-01,4.476800000000000e-02,-3.350900000000000e-01,2.085500000000000e+00,-2.399100000000000e-01,-1.818300000000000e+00,-8.767900000000001e-02,4.481400000000000e-01,-5.906600000000000e-01,8.134100000000000e-01,0.000000000000000e+00,0.000000000000000e+00,0.000000000000000e+00,0.000000000000000e+00,0.000000000000000e+00,0.000000000000000e+00,0.000000000000000e+00
1.270000000000000e+00,-2.164700000000000e+00,1.181470000000000e+00,9.787600000000000e-01,6.072500000000000e-01,-1.530500000000000e+00,9.718400000000001e-02,-3.604200000000000e-01,-4.204300000000000e-01,1.342200000000000e+00,1.006200000000000e+00,9.569100000000000e-01,5.096200000000000e-01,3.878000000000000e-02,-3.268600000000000e-01,2.119500000000000e+00,-2.987400000000000e-01,-1.867800000000000e+00,-1.212100000000000e-01,4.278600000000000e-01,-6.070200000000000e-01,8.314100000000000e-01,0.000000000000000e+00,0.000000000000000e+00,0.000000000000000e+00,0.000000000000000e+00,0.000000000000000e+00,0.000000000000000e+00,0.000000000000000e+00
1.280000000000000e+00,-2.168800000000000e+00,1.194880000000000e+00,9.887300000000000e-01,6.168100000000000e-01,-1.525400000000000e+00,9.754100000000000e-02,-3.636500000000000e-01,-3.990700000000000e-01,1.338900000000000e+00,9.872500000000000e-01,9.555300000000000e-01,5.138000000000000e-01,3.262900000000000e-02,-3.184600000000000e-01,2.151900000000000e+00,-3.575800000000000e-01,-1.915600000000000e+00,-1.546100000000000e-01,4.071500000000000e-01,-6.230900000000000e-01,8.487100000000000e-01,0.000000000000000e+00,0.000000000000000e+00,0.000000000000000e+00,0.000000000000000e+00,0.000000000000000e+00,0.000000000000000e+00,0.000000000000000e+00
1.290000000000000e+00,-2.172700000000000e+00,1.208200000000000e+00,9.985000000000001e-01,6.263600000000000e-01,-1.520200000000000e+00,9.783600000000001e-02,-3.667900000000000e-01,-3.773900000000000e-01,1.335100000000000e+00,9.678600000000001e-01,9.538200000000000e-01,5.177700000000000e-01,2.631900000000000e-02,-3.098900000000000e-01,2.182600000000000e+00,-4.164000000000000e-01,-1.961900000000000e+00,-1.878400000000000e-01,3.860300000000000e-01,-6.388500000000000e-01,8.652900000000000e-01,0.000000000000000e+00,0.000000000000000e+00,0.000000000000000e+00,0.000000000000000e+00,0.000000000000000e+00,0.000000000000000e+00,0.000000000000000e+00
1.300000000000000e+00,-2.176400000000000e+00,1.221600000000000e+00,1.008100000000000e+00,6.358900000000000e-01,-1.515000000000000e+00,9.806700000000000e-02,-3.698500000000000e-01,-3.554200000000000e-01,1.330600000000000e+00,9.480100000000000e-01,9.517800000000000e-01,5.215200000000000e-01,1.985300000000000e-02,-3.011600000000000e-01,2.211600000000000e+00,-4.751500000000000e-01,-2.006500000000000e+00,-2.208800000000000e-01,3.645100000000000e-01,-6.542800000000000e-01,8.811200000000000e-01,0.000000000000000e+00,0.000000000000000e+00,0.000000000000000e+00,0.000000000000000e+00,0.000000000000000e+00,0.000000000000000e+00,0.000000000000000e+00
1.310000000000000e+00,-2.179800000000000e+00,1.234900000000000e+00,1.017500000000000e+00,6.453900000000000e-01,-1.509800000000000e+00,9.823300000000000e-02,-3.728100000000000e-01,-3.331700000000000e-01,1.325600000000000e+00,9.277300000000001e-01,9.494000000000000e-01,5.250500000000000e-01,1.323400000000000e-02,-2.922700000000000e-01,2.238800000000000e+00,-5.337900000000000e-01,-2.049400000000000e+00,-2.537000000000000e-01,3.426100000000000e-01,-6.693600000000000e-01,8.962000000000000e-01,0.000000000000000e+00,0.000000000000000e+00,0.000000000000000e+00,0.000000000000000e+00,0.000000000000000e+00,0.000000000000000e+00,0.000000000000000e+00
1.320000000000000e+00,-2.183000000000000e+00,1.248100000000000e+00,1.026600000000000e+00,6.548700000000000e-01,-1.504500000000000e+00,9.833100000000000e-02,-3.756900000000000e-01,-3.106500000000000e-01,1.319900000000000e+00,9.070300000000000e-01,9.467000000000000e-01,5.283700000000000e-01,6.466900000000000e-03,-2.832400000000000e-01,2.264300000000000e+00,-5.922500000000001e-01,-2.090600000000000e+00,-2.862700000000000e-01,3.203600000000000e-01,-6.840600000000000e-01,9.105000000000000e-01,0.000000000000000e+00,0.000000000000000e+00,0.000000000000000e+00,0.000000000000000e+00,0.000000000000000e+00,0.000000000000000e+00,0.000000000000000e+00
1.330000000000000e+00,-2.186000000000000e+00,1.261300000000000e+00,1.035600000000000e+00,6.643300000000000e-01,-1.499200000000000e+00,9.836100000000000e-02,-3.784800000000000e-01,-2.878900000000000e-01,1.313700000000000e+00,8.859300000000000e-01,9.436800000000000e-01,5.314600000000000e-01,-4.455600000000000e-04,-2.740600000000000e-01,2.288100000000000e+00,-6.505100000000000e-01,-2.130000000000000e+00,-3.185700000000000e-01,2.977700000000000e-01,-6.983700000000000e-01,9.240200000000000e-01,0.000000000000000e+00,0.000000000000000e+00,0.000000000000000e+00,0.000000000000000e+00,0.000000000000000e+00,0.000000000000000e+00,0.000000000000000e+00
1.340000000000000e+00,-2.188800000000000e+00,1.274400000000000e+00,1.044400000000000e+00,6.737500000000000e-01,-1.493900000000000e+00,9.832200000000001e-02,-3.811700000000000e-01,-2.649000000000000e-01,1.306900000000000e+00,8.644400000000000e-01,9.403300000000000e-01,5.343200000000000e-01,-7.499100000000000e-03,-2.647600000000000e-01,2.310000000000000e+00,-7.085000000000000e-01,-2.167600000000000e+00,-3.505800000000000e-01,2.748700000000000e-01,-7.122600000000000e-01,9.367400000000000e-01,0.000000000000000e+00,0.000000000000000e+00,0.000000000000000e+00,0.000000000000000e+00,0.000000000000000e+00,0.000000000000000e+00,0.000000000000000e+00
1.350000000000000e+00,-2.191300000000000e+00,1.287400000000000e+00,1.052900000000000e+00,6.831300000000000e-01,-1.488500000000000e+00,9.821100000000001e-02,-3.837700000000000e-01,-2.416900000000000e-01,1.299500000000000e+00,8.425800000000000e-01,9.366700000000000e-01,5.369600000000000e-01,-1.468900000000000e-02,-2.553300000000000e-01,2.330100000000000e+00,-7.662000000000000e-01,-2.203300000000000e+00,-3.822500000000000e-01,2.516800000000000e-01,-7.257200000000000e-01,9.486400000000000e-01,0.000000000000000e+00,0.000000000000000e+00,0.000000000000000e+00,0.000000000000000e+00,0.000000000000000e+00,0.000000000000000e+00,0.000000000000000e+00
1.360000000000000e+00,-2.193600000000000e+00,1.300300000000000e+00,1.061200000000000e+00,6.924800000000000e-01,-1.483200000000000e+00,9.802800000000000e-02,-3.862800000000000e-01,-2.183000000000000e-01,1.291600000000000e+00,8.203800000000000e-01,9.326900000000000e-01,5.393600000000000e-01,-2.201200000000000e-02,-2.457900000000000e-01,2.348400000000000e+00,-8.235500000000000e-01,-2.237100000000000e+00,-4.135800000000000e-01,2.282200000000000e-01,-7.387300000000000e-01,9.597100000000000e-01,0.000000000000000e+00,0.000000000000000e+00,0.000000000000000e+00,0.000000000000000e+00,0.000000000000000e+00,0.000000000000000e+00,0.000000000000000e+00
1.370000000000000e+00,-2.195700000000000e+00,1.313200000000000e+00,1.069300000000000e+00,7.017900000000000e-01,-1.477800000000000e+00,9.777000000000000e-02,-3.886900000000000e-01,-1.947300000000000e-01,1.283100000000000e+00,7.978400000000000e-01,9.284000000000000e-01,5.415200000000000e-01,-2.946200000000000e-02,-2.361400000000000e-01,2.364800000000000e+00,-8.804999999999999e-01,-2.269100000000000e+00,-4.445300000000000e-01,2.045200000000000e-01,-7.512500000000000e-01,9.699500000000000e-01,0.000000000000000e+00,0.000000000000000e+00,0.000000000000000e+00,0.000000000000000e+00,0.000000000000000e+00,0.000000000000000e+00,0.000000000000000e+00
1.380000000000000e+00,-2.197500000000000e+00,1.326000000000000e+00,1.077200000000000e+00,7.110500000000000e-01,-1.472300000000000e+00,9.743800000000000e-02,-3.910000000000000e-01,-1.710100000000000e-01,1.274000000000000e+00,7.750000000000000e-01,9.238000000000000e-01,5.434500000000000e-01,-3.703500000000000e-02,-2.263900000000000e-01,2.379300000000000e+00,-9.370100000000000e-01,-2.299000000000000e+00,-4.750800000000000e-01,1.805900000000000e-01,-7.632900000000000e-01,9.793400000000000e-01,0.000000000000000e+00,0.000000000000000e+00,0.000000000000000e+00,0.000000000000000e+00,0.000000000000000e+00,0.000000000000000e+00,0.000000000000000e+00
1.390000000000000e+00,-2.199100000000000e+00,1.338700000000000e+00,1.084800000000000e+00,7.202600000000000e-01,-1.466900000000000e+00,9.702900000000000e-02,-3.932200000000000e-01,-1.471500000000000e-01,1.264300000000000e+00,7.518700000000000e-01,9.189000000000001e-01,5.451300000000000e-01,-4.472600000000000e-02,-2.165600000000000e-01,2.392000000000000e+00,-9.930400000000000e-01,-2.327000000000000e+00,-5.052000000000000e-01,1.564600000000000e-01,-7.748100000000000e-01,9.878700000000000e-01,0.000000000000000e+00,0.000000000000000e+00,0.000000000000000e+00,0.000000000000000e+00,0.000000000000000e+00,0.000000000000000e+00,0.000000000000000e+00
1.400000000000000e+00,-2.200500000000000e+00,1.351300000000000e+00,1.092200000000000e+00,7.294200000000000e-01,-1.461400000000000e+00,9.654300000000000e-02,-3.953300000000000e-01,-1.231800000000000e-01,1.254100000000000e+00,7.284700000000000e-01,9.137000000000000e-01,5.465800000000000e-01,-5.253000000000000e-02,-2.066400000000000e-01,2.402700000000000e+00,-1.048500000000000e+00,-2.353000000000000e+00,-5.348700000000000e-01,1.321500000000000e-01,-7.857900000000000e-01,9.955300000000000e-01,0.000000000000000e+00,0.000000000000000e+00,0.000000000000000e+00,0.000000000000000e+00,0.000000000000000e+00,0.000000000000000e+00,0.000000000000000e+00
1.410000000000000e+00,-2.201600000000000e+00,1.363800000000000e+00,1.099400000000000e+00,7.385300000000000e-01,-1.456000000000000e+00,9.597799999999999e-02,-3.973500000000000e-01,-9.910400000000000e-02,1.243400000000000e+00,7.048200000000000e-01,9.082000000000000e-01,5.477700000000000e-01,-6.044000000000000e-02,-1.966500000000000e-01,2.411600000000000e+00,-1.103500000000000e+00,-2.377000000000000e+00,-5.640700000000000e-01,1.076900000000000e-01,-7.962300000000000e-01,1.002300000000000e+00,0.000000000000000e+00,0.000000000000000e+00,0.000000000000000e+00,0.000000000000000e+00,0.000000000000000e+00,0.000000000000000e+00,0.000000000000000e+00
1.420000000000000e+00,-2.202500000000000e+00,1.376200000000000e+00,1.106300000000000e+00,7.475900000000000e-01,-1.450500000000000e+00,9.533400000000000e-02,-3.992600000000000e-01,-7.495200000000000e-02,1.232100000000000e+00,6.809300000000000e-01,9.024200000000000e-01,5.487300000000001e-01,-6.845200000000000e-02,-1.865900000000000e-01,2.418500000000000e+00,-1.157800000000000e+00,-2.398900000000000e+00,-5.927700000000000e-01,8.310300000000000e-02,-8.060900000000000e-01,1.008200000000000e+00,0.000000000000000e+00,0.000000000000000e+00,0.000000000000000e+00,0.000000000000000e+00,0.000000000000000e+00,0.000000000000000e+00,0.000000000000000e+00
1.430000000000000e+00,-2.203100000000000e+00,1.388400000000000e+00,1.113000000000000e+00,7.565800000000000e-01,-1.445000000000000e+00,9.460900000000000e-02,-4.010800000000000e-01,-5.074100000000000e-02,1.220200000000000e+00,6.568400000000000e-01,8.963500000000000e-01,5.494400000000000e-01,-7.656000000000000e-02,-1.764900000000000e-01,2.423400000000000e+00,-1.211400000000000e+00,-2.418800000000000e+00,-6.209400000000000e-01,5.841000000000000e-02,-8.153600000000000e-01,1.013200000000000e+00,0.000000000000000e+00,0.000000000000000e+00,0.000000000000000e+00,0.000000000000000e+00,0.000000000000000e+00,0.000000000000000e+00,0.000000000000000e+00
1.440000000000000e+00,-2.203500000000000e+00,1.400600000000000e+00,1.119400000000000e+00,7.655100000000000e-01,-1.439500000000000e+00,9.380200000000000e-02,-4.027900000000000e-01,-2.649000000000000e-02,1.207800000000000e+00,6.325700000000000e-01,8.900000000000000e-01,5.499000000000001e-01,-8.475800000000000e-02,-1.663300000000000e-01,2.426500000000000e+00,-1.264400000000000e+00,-2.436600000000000e+00,-6.485700000000000e-01,3.363700000000000e-02,-8.240300000000000e-01,1.017300000000000e+00,0.000000000000000e+00,0.000000000000000e+00,0.000000000000000e+00,0.000000000000000e+00,0.000000000000000e+00,0.000000000000000e+00,0.000000000000000e+00
1.450000000000000e+00,-2.203600000000000e+00,1.412600000000000e+00,1.125600000000000e+00,7.743800000000000e-01,-1.434000000000000e+00,9.291300000000000e-02,-4.044100000000000e-01,-2.218000000000000e-03,1.194900000000000e+00,6.081200000000000e-01,8.833800000000001e-01,5.501100000000000e-01,-9.303900000000000e-02,-1.561400000000000e-01,2.427600000000000e+00,-1.316600000000000e+00,-2.452200000000000e+00,-6.756400000000000e-01,8.808699999999999e-03,-8.320700000000000e-01,1.020600000000000e+00,0.000000000000000e+00,0.000000000000000e+00,0.000000000000000e+00,0.000000000000000e+00,0.000000000000000e+00,0.000000000000000e+00,0.000000000000000e+00
1.460000000000000e+00,-2.203500000000000e+00,1.424500000000000e+00,1.131600000000000e+00,7.831800000000000e-01,-1.428500000000000e+00,9.194099999999999e-02,-4.059200000000000e-01,2.205500000000000e-02,1.181500000000000e+00,5.835300000000000e-01,8.764900000000000e-01,5.500699999999999e-01,-1.014000000000000e-01,-1.459200000000000e-01,2.426800000000000e+00,-1.368000000000000e+00,-2.465800000000000e+00,-7.021100000000000e-01,-1.605000000000000e-02,-8.394700000000000e-01,1.022900000000000e+00,0.000000000000000e+00,0.000000000000000e+00,0.000000000000000e+00,0.000000000000000e+00,0.000000000000000e+00,0.000000000000000e+00,0.000000000000000e+00
1.470000000000000e+00,-2.203200000000000e+00,1.436200000000000e+00,1.137300000000000e+00,7.919100000000000e-01,-1.423000000000000e+00,9.088499999999999e-02,-4.073300000000000e-01,4.631100000000000e-02,1.167600000000000e+00,5.588100000000000e-01,8.693400000000000e-01,5.497900000000000e-01,-1.098300000000000e-01,-1.356900000000000e-01,2.424000000000000e+00,-1.418600000000000e+00,-2.477200000000000e+00,-7.279700000000000e-01,-4.091500000000000e-02,-8.462200000000000e-01,1.024300000000000e+00,0.000000000000000e+00,0.000000000000000e+00,0.000000000000000e+00,0.000000000000000e+00,0.000000000000000e+00,0.000000000000000e+00,0.000000000000000e+00
1.480000000000000e+00,-2.202600000000000e+00,1.447800000000000e+00,1.142800000000000e+00,8.005700000000000e-01,-1.417500000000000e+00,8.974500000000001e-02,-4.086300000000000e-01,7.052899999999999e-02,1.153100000000000e+00,5.339900000000000e-01,8.619300000000000e-01,5.492500000000000e-01,-1.183200000000000e-01,-1.254400000000000e-01,2.419300000000000e+00,-1.468400000000000e+00,-2.486600000000000e+00,-7.532100000000000e-01,-6.576000000000000e-02,-8.522900000000000e-01,1.024800000000000e+00,0.000000000000000e+00,0.000000000000000e+00,0.000000000000000e+00,0.000000000000000e+00,0.000000000000000e+00,0.000000000000000e+00,0.000000000000000e+00
1.490000000000000e+00,-2.201800000000000e+00,1.459300000000000e+00,1.148000000000000e+00,8.091500000000000e-01,-1.412000000000000e+00,8.851900000000000e-02,-4.098300000000000e-01,9.469100000000000e-02,1.138200000000000e+00,5.090900000000000e-01,8.542800000000000e-01,5.484700000000000e-01,-1.268700000000000e-01,-1.152000000000000e-01,2.412700000000000e+00,-1.517200000000000e+00,-2.493700000000000e+00,-7.777900000000000e-01,-9.056000000000000e-02,-8.576800000000000e-01,1.024400000000000e+00,0.000000000000000e+00,0.000000000000000e+00,0.000000000000000e+00,0.000000000000000e+00,0.000000000000000e+00,0.000000000000000e+00,0.000000000000000e+00
1.500000000000000e+00,-2.200700000000000e+00,1.470600000000000e+00,1.152900000000000e+00,8.176500000000000e-01,-1.406500000000000e+00,8.720700000000001e-02,-4.109300000000000e-01,1.187800000000000e-01,1.122800000000000e+00,4.841200000000000e-01,8.463800000000000e-01,5.474400000000000e-01,-1.354700000000000e-01,-1.049600000000000e-01,2.404100000000000e+00,-1.565100000000000e+00,-2.498700000000000e+00,-8.017000000000000e-01,-1.152900000000000e-01,-8.623600000000000e-01,1.023000000000000e+00,0.000000000000000e+00,0.000000000000000e+00,0.000000000000000e+00,0.000000000000000e+00,0.000000000000000e+00,0.000000000000000e+00,0.000000000000000e+00
1.510000000000000e+00,-2.199400000000000e+00,1.481700000000000e+00,1.157700000000000e+00,8.260700000000000e-01,-1.401100000000000e+00,8.580900000000000e-02,-4.119300000000000e-01,1.427700000000000e-01,1.106900000000000e+00,4.591200000000000e-01,8.382500000000001e-01,5.461700000000000e-01,-1.441100000000000e-01,-9.473800000000000e-02,2.393700000000000e+00,-1.612000000000000e+00,-2.501600000000000e+00,-8.249200000000000e-01,-1.399300000000000e-01,-8.663200000000000e-01,1.020800000000000e+00,0.000000000000000e+00,0.000000000000000e+00,0.000000000000000e+00,0.000000000000000e+00,0.000000000000000e+00,0.000000000000000e+00,0.000000000000000e+00
1.520000000000000e+00,-2.197800000000000e+00,1.492700000000000e+00,1.162100000000000e+00,8.344100000000000e-01,-1.395600000000000e+00,8.432500000000000e-02,-4.128300000000000e-01,1.666400000000000e-01,1.090600000000000e+00,4.341000000000000e-01,8.298800000000000e-01,5.446500000000000e-01,-1.527900000000000e-01,-8.454500000000000e-02,2.381300000000000e+00,-1.657900000000000e+00,-2.502300000000000e+00,-8.474300000000000e-01,-1.644400000000000e-01,-8.695500000000000e-01,1.017600000000000e+00,0.000000000000000e+00,0.000000000000000e+00,0.000000000000000e+00,0.000000000000000e+00,0.000000000000000e+00,0.000000000000000e+00,0.000000000000000e+00
1.530000000000000e+00,-2.196000000000000e+00,1.503500000000000e+00,1.166300000000000e+00,8.426700000000000e-01,-1.390200000000000e+00,8.275299999999999e-02,-4.136200000000000e-01,1.903900000000000e-01,1.073800000000000e+00,4.090800000000000e-01,8.213000000000000e-01,5.428800000000000e-01,-1.615000000000000e-01,-7.438800000000000e-02,2.367000000000000e+00,-1.702800000000000e+00,-2.500900000000000e+00,-8.692100000000000e-01,-1.888100000000000e-01,-8.720300000000000e-01,1.013600000000000e+00,0.000000000000000e+00,0.000000000000000e+00,0.000000000000000e+00,0.000000000000000e+00,0.000000000000000e+00,0.000000000000000e+00,0.000000000000000e+00
